;FLAVOR:Marlin
;TIME:2696
;Filament used: 1.3904m
;Layer height: 0.1
;Generated with Cura_SteamEngine 3.1.0
M190 S70
M104 S250
M109 S250
M82 ; absolute extrusion mode
G28 ;Home
G1 Z15.0 F6000 ;Move the platform down 15mm
;Prime the extruder
G92 E0
G1 F200 E3
G92 E0
;LAYER_COUNT:263
;LAYER:0
M107
G0 F3600 X87.094 Y98.573 Z0.3
;TYPE:SKIRT
G1 F1800 X88.251 Y97.624 E0.07466
G1 X88.887 Y97.155 E0.11408
G1 X89.519 Y96.777 E0.15082
G1 X90.837 Y96.072 E0.22539
G1 X91.551 Y95.735 E0.26478
G1 X92.254 Y95.485 E0.30201
G1 X93.686 Y95.051 E0.37666
G1 X94.452 Y94.861 E0.41603
G1 X95.187 Y94.753 E0.4531
G1 X96.676 Y94.607 E0.52774
G1 X97.465 Y94.57 E0.56714
G1 X98.207 Y94.608 E0.60421
G1 X99.699 Y94.756 E0.67901
G1 X100.48 Y94.874 E0.71842
G1 X101.195 Y95.054 E0.7552
G1 X102.628 Y95.489 E0.82992
G1 X103.371 Y95.757 E0.86932
G1 X104.041 Y96.075 E0.90632
G1 X105.357 Y96.779 E0.98078
G1 X106.034 Y97.187 E1.02022
G1 X106.628 Y97.629 E1.05716
G1 X107.786 Y98.58 E1.13192
G1 X108.37 Y99.112 E1.17133
G1 X108.868 Y99.663 E1.20838
G1 X109.814 Y100.817 E1.28283
G1 X110.167 Y101.296 E1.31251
G1 X110.262 Y101.169 E1.32043
G1 X111.174 Y100.014 E1.39385
G1 X111.694 Y99.42 E1.43323
G1 X112.358 Y98.81 E1.47822
G1 X113.709 Y97.705 E1.56529
G1 X114.345 Y97.237 E1.60469
G1 X115.222 Y96.735 E1.6551
G1 X116.742 Y95.992 E1.73951
G1 X117.468 Y95.682 E1.7789
G1 X118.298 Y95.427 E1.82221
G1 X119.704 Y95.08 E1.89446
G1 X120.479 Y94.93 E1.93385
G1 X121.353 Y94.856 E1.97761
G1 X123.051 Y94.808 E2.06235
G1 X123.84 Y94.826 E2.10173
G1 X124.761 Y94.949 E2.14809
G1 X126.344 Y95.257 E2.22854
G1 X127.11 Y95.446 E2.2679
G1 X127.793 Y95.688 E2.30406
G1 X128.936 Y96.153 E2.36562
G1 X129.652 Y96.487 E2.40503
G1 X130.188 Y96.8 E2.436
G1 X131.428 Y97.59 E2.50935
G1 X132.359 Y98.285 E2.56732
G1 X132.916 Y98.77 E2.60416
G1 X133.587 Y99.43 E2.65112
G1 X134.265 Y100.182 E2.70163
G1 X134.764 Y100.794 E2.74103
G1 X135.108 Y101.307 E2.77185
G1 X136.001 Y102.753 E2.85663
G1 X136.382 Y103.445 E2.89605
G1 X136.68 Y104.144 E2.93396
G1 X137.107 Y105.298 E2.99534
G1 X137.343 Y106.052 E3.03476
G1 X137.459 Y106.57 E3.06124
G1 X137.699 Y107.852 E3.12631
G1 X137.805 Y108.634 E3.16568
G1 X137.832 Y109.287 E3.19829
G1 X137.832 Y110.712 E3.26938
G1 X137.792 Y111.501 E3.3088
G1 X137.679 Y112.252 E3.34669
G1 X137.377 Y113.752 E3.42302
G1 X137.182 Y114.517 E3.46241
G1 X136.957 Y115.146 E3.49574
G1 X136.493 Y116.289 E3.55728
G1 X136.16 Y117.005 E3.59668
G1 X135.84 Y117.554 E3.62838
G1 X135.048 Y118.794 E3.70179
G1 X134.357 Y119.717 E3.75931
G1 X133.872 Y120.274 E3.79616
G1 X133.212 Y120.945 E3.84311
G1 X132.46 Y121.623 E3.89363
G1 X131.848 Y122.122 E3.93303
G1 X131.338 Y122.465 E3.96369
G1 X129.893 Y123.358 E4.04844
G1 X129.201 Y123.739 E4.08785
G1 X128.389 Y124.078 E4.13175
G1 X127.018 Y124.562 E4.20428
G1 X126.261 Y124.787 E4.24368
G1 X125.55 Y124.925 E4.27982
G1 X124.128 Y125.133 E4.35151
G1 X123.342 Y125.207 E4.3909
G1 X122.817 Y125.213 E4.4171
G1 X121.747 Y125.188 E4.47049
G1 X120.959 Y125.129 E4.50992
G1 X120.384 Y125.035 E4.53898
G1 X118.885 Y124.732 E4.61528
G1 X118.119 Y124.537 E4.65472
G1 X117.491 Y124.312 E4.688
G1 X116.348 Y123.847 E4.74956
G1 X115.632 Y123.513 E4.78898
G1 X115.094 Y123.199 E4.82006
G1 X113.855 Y122.409 E4.89337
G1 X112.93 Y121.718 E4.95097
G1 X112.371 Y121.232 E4.98792
G1 X111.696 Y120.569 E5.03513
G1 X111.018 Y119.817 E5.08564
G1 X110.519 Y119.205 E5.12504
G1 X110.175 Y118.693 E5.15581
G1 X110.167 Y118.679 E5.15662
G1 X109.358 Y119.77 E5.22438
G1 X108.856 Y120.38 E5.26379
G1 X108.33 Y120.905 E5.30087
G1 X107.221 Y121.91 E5.37554
G1 X106.317 Y122.615 E5.43273
G1 X105.696 Y123.03 E5.46999
G1 X104.697 Y123.596 E5.52728
G1 X103.344 Y124.236 E5.60195
G1 X102.614 Y124.537 E5.64134
G1 X101.902 Y124.752 E5.67845
G1 X100.451 Y125.115 E5.75307
G1 X99.676 Y125.267 E5.79247
G1 X98.932 Y125.339 E5.82976
G1 X97.433 Y125.411 E5.90464
G1 X96.644 Y125.409 E5.944
G1 X95.908 Y125.335 E5.9809
G1 X94.427 Y125.114 E6.05561
G1 X93.653 Y124.958 E6.095
G1 X92.951 Y124.743 E6.13163
G1 X91.545 Y124.24 E6.20613
G1 X90.815 Y123.937 E6.24556
G1 X90.156 Y123.583 E6.28288
G1 X88.874 Y122.813 E6.35749
G1 X88.218 Y122.372 E6.39693
G1 X87.655 Y121.908 E6.43333
G1 X86.545 Y120.903 E6.50803
G1 X85.987 Y120.344 E6.54744
G1 X85.518 Y119.772 E6.58434
G1 X84.629 Y118.575 E6.65873
G1 X84.191 Y117.918 E6.69812
G1 X83.835 Y117.249 E6.73593
G1 X83.195 Y115.891 E6.81083
G1 X82.895 Y115.161 E6.8502
G1 X82.683 Y114.454 E6.88702
G1 X82.321 Y113.003 E6.96163
G1 X82.169 Y112.228 E7.00104
G1 X82.098 Y111.491 E7.03798
G1 X82.026 Y109.998 E7.11255
G1 X82.028 Y109.208 E7.15196
G1 X82.102 Y108.476 E7.18867
G1 X82.322 Y106.995 E7.26337
G1 X82.477 Y106.221 E7.30275
G1 X82.634 Y105.685 E7.33061
G1 X82.987 Y104.621 E7.38654
G1 X83.273 Y103.885 E7.42593
G1 X83.511 Y103.4 E7.45289
G1 X84.214 Y102.085 E7.52728
G1 X84.621 Y101.408 E7.56669
G1 X85.058 Y100.821 E7.6032
G1 X86.006 Y99.663 E7.67786
G1 X86.536 Y99.078 E7.71724
G1 X87.094 Y98.573 E7.75479
G0 F3600 X87.348 Y98.882
G1 F1800 X88.505 Y97.933 E7.82945
G1 X89.124 Y97.477 E7.8678
G1 X89.708 Y97.13 E7.9017
G1 X91.026 Y96.425 E7.97627
G1 X91.722 Y96.098 E8.01463
G1 X92.37 Y95.868 E8.04894
G1 X93.802 Y95.434 E8.12359
G1 X94.548 Y95.25 E8.16192
G1 X95.226 Y95.151 E8.19611
G1 X96.715 Y95.005 E8.27075
G1 X97.483 Y94.97 E8.3091
G1 X98.167 Y95.006 E8.34328
G1 X99.659 Y95.154 E8.41808
G1 X100.42 Y95.27 E8.45648
G1 X101.078 Y95.437 E8.49035
G1 X102.511 Y95.872 E8.56507
G1 X103.235 Y96.133 E8.60346
G1 X103.853 Y96.428 E8.63763
G1 X105.169 Y97.132 E8.71209
G1 X105.827 Y97.53 E8.75045
G1 X106.374 Y97.938 E8.7845
G1 X107.532 Y98.889 E8.85926
G1 X108.101 Y99.408 E8.89768
G1 X108.559 Y99.917 E8.93184
G1 X109.505 Y101.071 E9.00628
G1 X109.961 Y101.69 E9.04464
G1 X110.163 Y102.031 E9.06441
G1 X110.576 Y101.417 E9.10133
G1 X111.488 Y100.262 E9.17475
G1 X111.996 Y99.684 E9.21314
G1 X112.611 Y99.12 E9.25478
G1 X113.962 Y98.015 E9.34185
G1 X114.582 Y97.56 E9.38022
G1 X115.397 Y97.095 E9.42703
G1 X116.917 Y96.352 E9.51144
G1 X117.625 Y96.05 E9.54984
G1 X118.394 Y95.816 E9.58994
G1 X119.8 Y95.469 E9.66219
G1 X120.555 Y95.323 E9.70056
G1 X121.364 Y95.256 E9.74106
G1 X123.062 Y95.208 E9.82581
G1 X123.831 Y95.226 E9.86418
G1 X124.684 Y95.341 E9.90712
G1 X126.267 Y95.649 E9.98758
G1 X127.014 Y95.835 E10.02599
G1 X127.643 Y96.059 E10.0593
G1 X128.786 Y96.524 E10.12086
G1 X129.482 Y96.85 E10.15921
G1 X129.973 Y97.137 E10.18758
G1 X131.213 Y97.927 E10.26093
G1 X132.096 Y98.587 E10.31593
G1 X132.653 Y99.072 E10.35278
G1 X133.29 Y99.698 E10.39733
G1 X133.968 Y100.45 E10.44785
G1 X134.453 Y101.047 E10.48622
G1 X134.768 Y101.517 E10.51445
G1 X135.661 Y102.963 E10.59924
G1 X136.031 Y103.637 E10.6376
G1 X136.305 Y104.283 E10.67261
G1 X136.732 Y105.437 E10.734
G1 X136.961 Y106.171 E10.77236
G1 X137.066 Y106.643 E10.79648
G1 X137.306 Y107.925 E10.86155
G1 X137.408 Y108.688 E10.89996
G1 X137.432 Y109.287 E10.92986
G1 X137.432 Y110.712 E11.00096
G1 X137.392 Y111.48 E11.03933
G1 X137.286 Y112.173 E11.0743
G1 X136.984 Y113.673 E11.15064
G1 X136.794 Y114.418 E11.189
G1 X136.587 Y114.995 E11.21958
G1 X136.123 Y116.138 E11.28112
G1 X135.797 Y116.835 E11.31951
G1 X135.502 Y117.338 E11.3486
G1 X134.71 Y118.578 E11.42201
G1 X134.055 Y119.454 E11.47658
G1 X133.57 Y120.011 E11.51343
G1 X132.944 Y120.648 E11.55798
G1 X132.192 Y121.326 E11.6085
G1 X131.595 Y121.811 E11.64687
G1 X131.127 Y122.125 E11.67499
G1 X129.682 Y123.018 E11.75974
G1 X129.008 Y123.388 E11.7981
G1 X128.255 Y123.701 E11.83878
G1 X126.884 Y124.185 E11.91132
G1 X126.147 Y124.403 E11.94966
G1 X125.492 Y124.529 E11.98294
G1 X124.07 Y124.737 E12.05464
G1 X123.304 Y124.809 E12.09302
G1 X122.826 Y124.813 E12.11687
G1 X121.756 Y124.788 E12.17027
G1 X120.989 Y124.73 E12.20864
G1 X120.463 Y124.643 E12.23524
G1 X118.964 Y124.34 E12.31154
G1 X118.219 Y124.149 E12.34991
G1 X117.641 Y123.941 E12.38056
G1 X116.498 Y123.476 E12.44212
G1 X115.802 Y123.15 E12.48046
G1 X115.309 Y122.862 E12.50895
G1 X114.07 Y122.072 E12.58226
G1 X113.193 Y121.417 E12.63687
G1 X112.634 Y120.931 E12.67382
G1 X111.993 Y120.301 E12.71866
G1 X111.315 Y119.549 E12.76918
G1 X110.83 Y118.952 E12.80755
G1 X110.515 Y118.483 E12.83574
G1 X110.184 Y117.947 E12.86717
G1 X109.928 Y118.33 E12.89015
G1 X109.037 Y119.532 E12.9648
G1 X108.547 Y120.125 E13.00318
G1 X108.061 Y120.608 E13.03736
G1 X106.952 Y121.613 E13.11203
G1 X106.095 Y122.283 E13.1663
G1 X105.474 Y122.698 E13.20356
G1 X104.526 Y123.234 E13.25789
G1 X103.173 Y123.874 E13.33257
G1 X102.462 Y124.167 E13.37093
G1 X101.805 Y124.364 E13.40515
G1 X100.354 Y124.727 E13.47977
G1 X99.599 Y124.874 E13.51815
G1 X98.913 Y124.939 E13.55253
G1 X97.414 Y125.011 E13.6274
G1 X96.645 Y125.008 E13.66576
G1 X95.967 Y124.939 E13.69976
G1 X94.486 Y124.718 E13.77447
G1 X93.732 Y124.565 E13.81285
G1 X93.085 Y124.367 E13.84661
G1 X91.679 Y123.864 E13.92111
G1 X90.97 Y123.567 E13.95946
G1 X90.362 Y123.24 E13.9939
G1 X89.08 Y122.47 E14.06851
G1 X88.442 Y122.04 E14.10689
G1 X87.923 Y121.612 E14.14046
G1 X86.813 Y120.607 E14.21516
G1 X86.271 Y120.061 E14.25354
G1 X85.839 Y119.533 E14.28758
G1 X84.95 Y118.336 E14.36197
G1 X84.524 Y117.696 E14.40032
G1 X84.197 Y117.079 E14.43516
G1 X83.557 Y115.721 E14.51006
G1 X83.266 Y115.009 E14.54843
G1 X83.071 Y114.357 E14.58238
G1 X82.709 Y112.906 E14.65699
G1 X82.562 Y112.151 E14.69537
G1 X82.498 Y111.471 E14.72944
G1 X82.426 Y109.978 E14.80402
G1 X82.429 Y109.209 E14.84238
G1 X82.497 Y108.535 E14.87618
G1 X82.717 Y107.054 E14.95088
G1 X82.87 Y106.3 E14.98926
G1 X83.013 Y105.811 E15.01468
G1 X83.366 Y104.747 E15.07061
G1 X83.646 Y104.03 E15.10901
G1 X83.864 Y103.588 E15.1336
G1 X84.567 Y102.273 E15.20799
G1 X84.964 Y101.615 E15.24633
G1 X85.367 Y101.074 E15.27999
G1 X86.315 Y99.916 E15.35465
G1 X86.833 Y99.347 E15.39304
G1 X87.348 Y98.882 E15.42766
G0 F3600 X87.602 Y99.192
G1 F1800 X88.759 Y98.243 E15.50231
G1 X89.362 Y97.8 E15.53964
G1 X89.896 Y97.483 E15.57062
G1 X91.214 Y96.778 E15.64519
G1 X91.892 Y96.46 E15.68256
G1 X92.486 Y96.251 E15.71397
G1 X93.918 Y95.817 E15.78862
G1 X94.644 Y95.638 E15.82593
G1 X95.265 Y95.549 E15.85723
G1 X96.754 Y95.403 E15.93187
G1 X97.501 Y95.37 E15.96917
G1 X98.128 Y95.404 E16.0005
G1 X99.62 Y95.552 E16.0753
G1 X100.359 Y95.666 E16.11261
G1 X100.962 Y95.82 E16.14366
G1 X102.395 Y96.255 E16.21837
G1 X103.098 Y96.51 E16.25568
G1 X103.664 Y96.781 E16.28699
G1 X104.98 Y97.485 E16.36145
G1 X105.62 Y97.872 E16.39876
G1 X106.121 Y98.247 E16.42998
G1 X107.279 Y99.198 E16.50474
G1 X107.83 Y99.703 E16.54203
G1 X108.25 Y100.17 E16.57336
G1 X109.196 Y101.324 E16.64781
G1 X109.638 Y101.927 E16.68511
G1 X109.957 Y102.464 E16.71627
G1 X110.144 Y102.814 E16.73607
G1 X110.296 Y102.547 E16.7514
G1 X110.89 Y101.665 E16.80445
G1 X111.802 Y100.51 E16.87787
G1 X112.296 Y99.949 E16.91516
G1 X112.864 Y99.43 E16.95355
G1 X114.215 Y98.325 E17.04062
G1 X114.819 Y97.883 E17.07796
G1 X115.573 Y97.454 E17.12124
G1 X117.093 Y96.711 E17.20565
G1 X117.782 Y96.419 E17.24299
G1 X118.49 Y96.204 E17.2799
G1 X119.896 Y95.857 E17.35215
G1 X120.631 Y95.717 E17.38948
G1 X121.375 Y95.656 E17.42672
G1 X123.073 Y95.608 E17.51147
G1 X123.821 Y95.627 E17.5488
G1 X124.608 Y95.734 E17.58843
G1 X126.191 Y96.042 E17.66888
G1 X126.917 Y96.224 E17.70622
G1 X127.492 Y96.429 E17.73668
G1 X128.635 Y96.894 E17.79824
G1 X129.312 Y97.213 E17.83558
G1 X129.758 Y97.474 E17.86136
G1 X130.998 Y98.264 E17.93471
G1 X131.834 Y98.889 E17.98679
G1 X132.391 Y99.374 E18.02363
G1 X132.993 Y99.966 E18.06576
G1 X133.671 Y100.718 E18.11627
G1 X134.141 Y101.299 E18.15356
G1 X134.428 Y101.727 E18.17926
G1 X135.321 Y103.173 E18.26405
G1 X135.679 Y103.829 E18.30134
G1 X135.93 Y104.422 E18.33346
G1 X136.357 Y105.576 E18.39485
G1 X136.579 Y106.29 E18.43216
G1 X136.672 Y106.717 E18.45396
G1 X136.912 Y107.999 E18.51903
G1 X137.011 Y108.741 E18.55638
G1 X137.032 Y109.287 E18.58364
G1 X137.032 Y110.712 E18.65473
G1 X136.992 Y111.459 E18.69205
G1 X136.894 Y112.094 E18.72411
G1 X136.592 Y113.594 E18.80044
G1 X136.406 Y114.318 E18.83774
G1 X136.216 Y114.845 E18.86569
G1 X135.752 Y115.988 E18.92723
G1 X135.434 Y116.665 E18.96455
G1 X135.165 Y117.123 E18.99105
G1 X134.373 Y118.363 E19.06445
G1 X133.753 Y119.192 E19.1161
G1 X133.268 Y119.749 E19.15294
G1 X132.676 Y120.351 E19.19507
G1 X131.924 Y121.029 E19.24558
G1 X131.343 Y121.499 E19.28287
G1 X130.917 Y121.785 E19.30846
G1 X129.472 Y122.678 E19.39321
G1 X128.815 Y123.036 E19.43054
G1 X128.122 Y123.324 E19.46798
G1 X126.751 Y123.808 E19.54052
G1 X126.034 Y124.019 E19.5778
G1 X125.434 Y124.133 E19.60827
G1 X124.012 Y124.341 E19.67997
G1 X123.267 Y124.41 E19.7173
G1 X122.835 Y124.413 E19.73885
G1 X121.765 Y124.388 E19.79225
G1 X121.02 Y124.331 E19.82953
G1 X120.542 Y124.251 E19.85371
G1 X119.043 Y123.948 E19.93
G1 X118.319 Y123.761 E19.96731
G1 X117.792 Y123.571 E19.99526
G1 X116.649 Y123.106 E20.05682
G1 X115.972 Y122.787 E20.09416
G1 X115.524 Y122.524 E20.12008
G1 X114.285 Y121.734 E20.19339
G1 X113.455 Y121.115 E20.24504
G1 X112.896 Y120.629 E20.282
G1 X112.29 Y120.033 E20.3244
G1 X111.612 Y119.281 E20.37492
G1 X111.142 Y118.7 E20.4122
G1 X110.856 Y118.273 E20.43784
G1 X110.174 Y117.169 E20.50258
G1 X109.959 Y117.569 E20.52524
G1 X109.606 Y118.091 E20.55668
G1 X108.715 Y119.293 E20.63132
G1 X108.239 Y119.87 E20.66864
G1 X107.793 Y120.312 E20.69997
G1 X106.684 Y121.317 E20.77464
G1 X105.872 Y121.95 E20.826
G1 X105.251 Y122.365 E20.86326
G1 X104.355 Y122.873 E20.91465
G1 X103.002 Y123.513 E20.98932
G1 X102.31 Y123.796 E21.02662
G1 X101.708 Y123.976 E21.05797
G1 X100.257 Y124.339 E21.13259
G1 X99.522 Y124.481 E21.16994
G1 X98.894 Y124.54 E21.20141
G1 X97.395 Y124.612 E21.27628
G1 X96.647 Y124.608 E21.3136
G1 X96.026 Y124.543 E21.34475
G1 X94.545 Y124.322 E21.41946
G1 X93.812 Y124.173 E21.45677
G1 X93.22 Y123.99 E21.48769
G1 X91.814 Y123.487 E21.56219
G1 X91.124 Y123.198 E21.59951
G1 X90.568 Y122.897 E21.63105
G1 X89.286 Y122.127 E21.70566
G1 X88.666 Y121.708 E21.74299
G1 X88.192 Y121.315 E21.77371
G1 X87.082 Y120.31 E21.84842
G1 X86.555 Y119.779 E21.88574
G1 X86.16 Y119.295 E21.91691
G1 X85.271 Y118.098 E21.9913
G1 X84.858 Y117.474 E22.02863
G1 X84.559 Y116.908 E22.06056
G1 X83.919 Y115.55 E22.13546
G1 X83.637 Y114.857 E22.17279
G1 X83.459 Y114.26 E22.20387
G1 X83.097 Y112.809 E22.27848
G1 X82.955 Y112.075 E22.31578
G1 X82.897 Y111.452 E22.34699
G1 X82.825 Y109.959 E22.42156
G1 X82.829 Y109.211 E22.45888
G1 X82.893 Y108.593 E22.48988
G1 X83.113 Y107.112 E22.56458
G1 X83.262 Y106.379 E22.6019
G1 X83.393 Y105.937 E22.6249
G1 X83.746 Y104.873 E22.68082
G1 X84.019 Y104.176 E22.71817
G1 X84.217 Y103.777 E22.74039
G1 X84.92 Y102.462 E22.81478
G1 X85.307 Y101.822 E22.8521
G1 X85.677 Y101.328 E22.88289
G1 X86.625 Y100.17 E22.95755
G1 X87.129 Y99.617 E22.99488
G1 X87.602 Y99.192 E23.02661
G0 F3600 X87.855 Y99.501
G1 F1800 X89.012 Y98.552 E23.10126
G1 X89.598 Y98.123 E23.1375
G1 X90.085 Y97.835 E23.16572
G1 X91.403 Y97.13 E23.24029
G1 X92.061 Y96.823 E23.27652
G1 X92.602 Y96.634 E23.30511
G1 X94.034 Y96.2 E23.37976
G1 X94.739 Y96.028 E23.41596
G1 X95.304 Y95.948 E23.44443
G1 X96.793 Y95.802 E23.51908
G1 X97.519 Y95.771 E23.55533
G1 X98.088 Y95.802 E23.58376
G1 X99.58 Y95.95 E23.65856
G1 X100.298 Y96.062 E23.69482
G1 X100.846 Y96.203 E23.72305
G1 X102.279 Y96.638 E23.79776
G1 X102.961 Y96.886 E23.83396
G1 X103.475 Y97.133 E23.86242
G1 X104.791 Y97.837 E23.93688
G1 X105.412 Y98.215 E23.97315
G1 X105.867 Y98.557 E24.00154
G1 X107.025 Y99.508 E24.0763
G1 X107.56 Y99.999 E24.11253
G1 X107.94 Y100.424 E24.14097
G1 X108.886 Y101.578 E24.21542
G1 X109.315 Y102.164 E24.25165
G1 X109.604 Y102.653 E24.27999
G1 X110.145 Y103.665 E24.33724
G1 X110.279 Y103.388 E24.35259
G1 X110.644 Y102.745 E24.38948
G1 X111.204 Y101.913 E24.43951
G1 X112.116 Y100.758 E24.51294
G1 X112.597 Y100.213 E24.5492
G1 X113.117 Y99.739 E24.5843
G1 X114.468 Y98.634 E24.67138
G1 X115.055 Y98.206 E24.70762
G1 X115.749 Y97.813 E24.74741
G1 X117.269 Y97.07 E24.83182
G1 X117.938 Y96.788 E24.86804
G1 X118.586 Y96.592 E24.90182
G1 X119.992 Y96.245 E24.97407
G1 X120.705 Y96.11 E25.01027
G1 X121.387 Y96.056 E25.0444
G1 X123.085 Y96.008 E25.12915
