;FLAVOR:Marlin
;TIME:3346
;Filament used: 1.93942m
;Layer height: 0.1
;Generated with Cura_SteamEngine 3.1.0
M190 S70
M104 S250
M109 S250
M82 ; absolute extrusion mode
G28 ;Home
G1 Z15.0 F6000 ;Move the platform down 15mm
;Prime the extruder
G92 E0
G1 F200 E3
G92 E0
;LAYER_COUNT:274
;LAYER:0
M107
G0 F3600 X83.469 Y97.258 Z0.3
;TYPE:SKIRT
G1 F1800 X84.08 Y96.757 E0.03942
G1 X84.697 Y96.346 E0.07641
G1 X86.154 Y95.472 E0.16117
G1 X86.85 Y95.101 E0.20052
G1 X87.54 Y94.816 E0.23777
G1 X89.14 Y94.244 E0.32254
G1 X89.896 Y94.016 E0.36193
G1 X90.625 Y93.873 E0.399
G1 X92.309 Y93.624 E0.48392
G1 X93.095 Y93.548 E0.52332
G1 X94.065 Y93.564 E0.57172
G1 X96.264 Y93.738 E0.68177
G1 X97.047 Y93.84 E0.72117
G1 X97.809 Y94.019 E0.76022
G1 X99.034 Y94.372 E0.82382
G1 X99.781 Y94.629 E0.86323
G1 X100.276 Y94.848 E0.89024
G1 X101.805 Y95.589 E0.975
G1 X102.497 Y95.969 E1.01439
G1 X103.07 Y96.358 E1.04894
G1 X104.365 Y97.325 E1.12958
G1 X104.973 Y97.829 E1.16898
G1 X105.475 Y98.335 E1.20454
G1 X106.617 Y99.594 E1.28934
G1 X107.118 Y100.205 E1.32876
G1 X107.554 Y100.864 E1.36818
G1 X108.461 Y102.398 E1.45709
G1 X108.828 Y103.097 E1.49648
G1 X109.1 Y103.766 E1.53251
G1 X109.639 Y105.289 E1.61311
G1 X109.865 Y106.046 E1.65252
G1 X110.001 Y106.744 E1.688
G1 X110.139 Y107.673 E1.73486
G1 X110.145 Y107.611 E1.73796
G1 X110.261 Y106.829 E1.77741
G1 X110.418 Y106.187 E1.81038
G1 X110.827 Y104.781 E1.88343
G1 X111.086 Y104.035 E1.92283
G1 X111.352 Y103.449 E1.95494
G1 X112.098 Y101.969 E2.03762
G1 X112.488 Y101.283 E2.07699
G1 X112.921 Y100.672 E2.11435
G1 X113.944 Y99.365 E2.19716
G1 X114.461 Y98.769 E2.23652
G1 X115.012 Y98.249 E2.27432
G1 X116.273 Y97.169 E2.35715
G1 X116.898 Y96.686 E2.39656
G1 X117.436 Y96.344 E2.42836
G1 X118.675 Y95.626 E2.49981
G1 X119.378 Y95.265 E2.53923
G1 X119.775 Y95.099 E2.5607
G1 X120.893 Y94.667 E2.6205
G1 X121.643 Y94.42 E2.65989
G1 X122.169 Y94.296 E2.68685
G1 X123.823 Y93.964 E2.77102
G1 X124.987 Y93.82 E2.82953
G1 X125.805 Y93.781 E2.87039
G1 X126.739 Y93.792 E2.91699
G1 X127.928 Y93.878 E2.97647
G1 X128.711 Y93.975 E3.01583
G1 X129.241 Y94.087 E3.04285
G1 X130.92 Y94.503 E3.12915
G1 X131.676 Y94.731 E3.16855
G1 X132.31 Y94.991 E3.20273
G1 X133.607 Y95.589 E3.27399
G1 X134.306 Y95.955 E3.31335
G1 X134.842 Y96.301 E3.34518
G1 X136.198 Y97.259 E3.42801
G1 X136.819 Y97.747 E3.46742
G1 X137.361 Y98.267 E3.50489
G1 X138.502 Y99.472 E3.58768
G1 X139.015 Y100.072 E3.62707
G1 X139.479 Y100.744 E3.66781
G1 X140.424 Y102.278 E3.7577
G1 X140.804 Y102.97 E3.79708
G1 X141.18 Y103.893 E3.8468
G1 X141.835 Y105.85 E3.94976
G1 X142.047 Y106.611 E3.98918
G1 X142.177 Y107.354 E4.02681
G1 X142.331 Y108.58 E4.08845
G1 X142.39 Y109.367 E4.12783
G1 X142.384 Y109.9 E4.15442
G1 X142.311 Y111.536 E4.23612
G1 X142.236 Y112.322 E4.27551
G1 X142.092 Y113.056 E4.31283
G1 X141.678 Y114.734 E4.39906
G1 X141.45 Y115.491 E4.4385
G1 X141.185 Y116.138 E4.47338
G1 X140.586 Y117.434 E4.54461
G1 X140.219 Y118.134 E4.58404
G1 X139.876 Y118.664 E4.61554
G1 X138.917 Y120.021 E4.69844
G1 X138.429 Y120.642 E4.73784
G1 X137.915 Y121.178 E4.77489
G1 X136.711 Y122.32 E4.85768
G1 X135.811 Y123.055 E4.91566
G1 X135.127 Y123.533 E4.95729
G1 X134.458 Y123.952 E4.99667
G1 X134.071 Y124.153 E5.01843
G1 X132.455 Y124.939 E5.10808
G1 X131.728 Y125.248 E5.14749
G1 X131.159 Y125.432 E5.17732
G1 X129.967 Y125.768 E5.23911
G1 X128.822 Y126 E5.2974
G1 X127.595 Y126.154 E5.35909
G1 X126.464 Y126.213 E5.41559
G1 X125.197 Y126.187 E5.47882
G1 X124.03 Y126.075 E5.53731
G1 X122.814 Y125.865 E5.59887
G1 X121.786 Y125.615 E5.65165
G1 X120.782 Y125.297 E5.7042
G1 X120.042 Y125.021 E5.7436
G1 X119.628 Y124.827 E5.76641
G1 X118.147 Y124.081 E5.84914
G1 X117.461 Y123.691 E5.88851
G1 X116.843 Y123.253 E5.9263
G1 X115.536 Y122.228 E6.00917
G1 X114.94 Y121.71 E6.04856
G1 X114.427 Y121.166 E6.08587
G1 X113.347 Y119.906 E6.16866
G1 X112.864 Y119.281 E6.20807
G1 X112.432 Y118.584 E6.24898
G1 X111.565 Y117.005 E6.33885
G1 X111.22 Y116.295 E6.37823
G1 X110.942 Y115.53 E6.41884
G1 X110.448 Y113.913 E6.50319
G1 X110.256 Y113.147 E6.54259
G1 X110.158 Y112.475 E6.57647
G1 X110.019 Y113.166 E6.61164
G1 X109.606 Y114.816 E6.6965
G1 X109.375 Y115.571 E6.73589
G1 X109.089 Y116.259 E6.77306
G1 X108.362 Y117.795 E6.85784
G1 X107.989 Y118.491 E6.89724
G1 X107.578 Y119.103 E6.93402
G1 X106.566 Y120.468 E7.01879
G1 X106.064 Y121.078 E7.0582
G1 X105.54 Y121.6 E7.0951
G1 X104.281 Y122.742 E7.17991
G1 X103.67 Y123.243 E7.21933
G1 X103.053 Y123.654 E7.25631
G1 X101.596 Y124.528 E7.34108
G1 X100.564 Y125.047 E7.39871
G1 X99.778 Y125.372 E7.44114
G1 X98.692 Y125.731 E7.49821
G1 X97.042 Y126.144 E7.58307
G1 X96.267 Y126.296 E7.62247
G1 X95.485 Y126.37 E7.66166
G1 X93.704 Y126.447 E7.75059
G1 X92.914 Y126.441 E7.79001
G1 X92.341 Y126.386 E7.81873
G1 X91.075 Y126.218 E7.88244
G1 X89.941 Y125.981 E7.94024
G1 X88.716 Y125.628 E8.00384
G1 X87.969 Y125.371 E8.04325
G1 X87.474 Y125.152 E8.07026
G1 X85.943 Y124.41 E8.15514
G1 X85.251 Y124.03 E8.19452
G1 X84.677 Y123.64 E8.22915
G1 X83.384 Y122.674 E8.30967
G1 X82.776 Y122.17 E8.34907
G1 X82.275 Y121.665 E8.38456
G1 X81.133 Y120.406 E8.46936
G1 X80.632 Y119.795 E8.50878
G1 X80.195 Y119.135 E8.54827
G1 X79.287 Y117.599 E8.63729
G1 X78.921 Y116.9 E8.67666
G1 X78.648 Y116.231 E8.7127
G1 X78.11 Y114.71 E8.79319
G1 X77.885 Y113.953 E8.83259
G1 X77.749 Y113.256 E8.86802
G1 X77.499 Y111.574 E8.95286
G1 X77.422 Y110.788 E8.99226
G1 X77.439 Y109.809 E9.04111
G1 X77.614 Y107.608 E9.15127
G1 X77.716 Y106.825 E9.19066
G1 X77.894 Y106.066 E9.22955
G1 X78.247 Y104.841 E9.29316
G1 X78.504 Y104.094 E9.33257
G1 X78.702 Y103.643 E9.35714
G1 X79.398 Y102.184 E9.43779
G1 X79.774 Y101.489 E9.47721
G1 X80.172 Y100.897 E9.5128
G1 X81.184 Y99.532 E9.59758
G1 X81.686 Y98.922 E9.63699
G1 X82.21 Y98.4 E9.67389
G1 X83.469 Y97.258 E9.75869
G0 F3600 X83.737 Y97.554
G1 F1800 X84.333 Y97.067 E9.79709
G1 X84.902 Y96.689 E9.83117
G1 X86.359 Y95.815 E9.91594
G1 X87.039 Y95.454 E9.95435
G1 X87.675 Y95.193 E9.98865
G1 X89.275 Y94.621 E10.07342
G1 X90.012 Y94.4 E10.1118
G1 X90.684 Y94.269 E10.14596
G1 X92.368 Y94.02 E10.23089
G1 X93.133 Y93.947 E10.26923
G1 X94.034 Y93.963 E10.31419
G1 X96.233 Y94.137 E10.42424
G1 X96.995 Y94.237 E10.46258
G1 X97.698 Y94.403 E10.49862
G1 X98.923 Y94.756 E10.56222
G1 X99.65 Y95.007 E10.60059
G1 X100.101 Y95.208 E10.62523
G1 X101.63 Y95.949 E10.70999
G1 X102.304 Y96.32 E10.74838
G1 X102.831 Y96.679 E10.78019
G1 X104.126 Y97.646 E10.86082
G1 X104.717 Y98.137 E10.89916
G1 X105.179 Y98.603 E10.93189
G1 X106.321 Y99.862 E11.0167
G1 X106.808 Y100.458 E11.0551
G1 X107.21 Y101.068 E11.09154
G1 X108.117 Y102.602 E11.18045
G1 X108.473 Y103.283 E11.21879
G1 X108.723 Y103.899 E11.25196
G1 X109.262 Y105.422 E11.33256
G1 X109.481 Y106.16 E11.37096
G1 X109.606 Y106.803 E11.40364
G1 X109.856 Y108.485 E11.48848
G1 X109.929 Y109.251 E11.52687
G1 X109.927 Y109.938 E11.56114
G1 X109.843 Y111.637 E11.64601
G1 X109.765 Y112.403 E11.68442
G1 X109.631 Y113.069 E11.71832
G1 X109.218 Y114.719 E11.80318
G1 X108.992 Y115.454 E11.84154
G1 X108.728 Y116.088 E11.8758
G1 X108.001 Y117.624 E11.96058
G1 X107.636 Y118.301 E11.99896
G1 X107.256 Y118.865 E12.03288
G1 X106.244 Y120.23 E12.11766
G1 X105.755 Y120.823 E12.15601
G1 X105.272 Y121.304 E12.19001
G1 X104.013 Y122.446 E12.27482
G1 X103.417 Y122.933 E12.31321
G1 X102.848 Y123.311 E12.34729
G1 X101.391 Y124.185 E12.43206
G1 X100.412 Y124.677 E12.48672
G1 X99.626 Y125.002 E12.52916
G1 X98.595 Y125.343 E12.58333
G1 X96.945 Y125.756 E12.66819
G1 X96.19 Y125.903 E12.70657
G1 X95.468 Y125.97 E12.74274
G1 X93.687 Y126.047 E12.83168
G1 X92.918 Y126.04 E12.87005
G1 X92.394 Y125.99 E12.89631
G1 X91.128 Y125.822 E12.96002
G1 X90.052 Y125.597 E13.01487
G1 X88.827 Y125.244 E13.07847
G1 X88.1 Y124.993 E13.11684
G1 X87.649 Y124.792 E13.14147
G1 X86.118 Y124.05 E13.22635
G1 X85.444 Y123.679 E13.26474
G1 X84.916 Y123.319 E13.29662
G1 X83.623 Y122.353 E13.37714
G1 X83.032 Y121.861 E13.41551
G1 X82.571 Y121.397 E13.44814
G1 X81.429 Y120.138 E13.53294
G1 X80.942 Y119.542 E13.57134
G1 X80.54 Y118.932 E13.60779
G1 X79.632 Y117.396 E13.69681
G1 X79.275 Y116.714 E13.73521
G1 X79.026 Y116.098 E13.76836
G1 X78.488 Y114.577 E13.84885
G1 X78.269 Y113.839 E13.88726
G1 X78.144 Y113.197 E13.91989
G1 X77.894 Y111.515 E14.00472
G1 X77.821 Y110.749 E14.04311
G1 X77.837 Y109.84 E14.08847
G1 X78.012 Y107.639 E14.19863
G1 X78.113 Y106.877 E14.23697
G1 X78.278 Y106.177 E14.27285
G1 X78.631 Y104.952 E14.33646
G1 X78.882 Y104.225 E14.37483
G1 X79.063 Y103.815 E14.39719
G1 X79.759 Y102.356 E14.47784
G1 X80.126 Y101.68 E14.51621
G1 X80.494 Y101.135 E14.54902
G1 X81.506 Y99.77 E14.63379
G1 X81.995 Y99.177 E14.67214
G1 X82.478 Y98.696 E14.70615
G1 X83.737 Y97.554 E14.79095
G0 F3600 X84.006 Y97.85
G1 F1800 X84.586 Y97.378 E14.82826
G1 X85.108 Y97.032 E14.8595
G1 X86.565 Y96.158 E14.94427
G1 X87.226 Y95.808 E14.98158
G1 X87.81 Y95.57 E15.01304
G1 X89.41 Y94.998 E15.09782
G1 X90.126 Y94.784 E15.1351
G1 X90.742 Y94.664 E15.16641
G1 X92.426 Y94.415 E15.25134
G1 X93.171 Y94.346 E15.28866
G1 X94.002 Y94.362 E15.33013
G1 X96.201 Y94.536 E15.44018
G1 X96.943 Y94.635 E15.47753
G1 X97.587 Y94.788 E15.51055
G1 X98.812 Y95.141 E15.57416
G1 X99.519 Y95.386 E15.61149
G1 X99.927 Y95.568 E15.63377
G1 X101.456 Y96.309 E15.71854
G1 X102.111 Y96.671 E15.75588
G1 X102.591 Y96.999 E15.78488
G1 X103.886 Y97.966 E15.86552
G1 X104.461 Y98.445 E15.90285
G1 X104.883 Y98.872 E15.9328
G1 X106.025 Y100.131 E16.01761
G1 X106.497 Y100.711 E16.05491
G1 X106.866 Y101.271 E16.08837
G1 X107.773 Y102.805 E16.17728
G1 X108.118 Y103.469 E16.21461
G1 X108.346 Y104.033 E16.24496
G1 X108.885 Y105.556 E16.32556
G1 X109.096 Y106.273 E16.36285
G1 X109.21 Y106.862 E16.39278
G1 X109.46 Y108.544 E16.47762
G1 X109.53 Y109.289 E16.51495
G1 X109.527 Y109.919 E16.54638
G1 X109.443 Y111.618 E16.63125
G1 X109.367 Y112.362 E16.66856
G1 X109.243 Y112.972 E16.69962
G1 X108.83 Y114.622 E16.78447
G1 X108.609 Y115.337 E16.82181
G1 X108.366 Y115.917 E16.85318
G1 X107.639 Y117.453 E16.93797
G1 X107.283 Y118.111 E16.97529
G1 X106.935 Y118.627 E17.00634
G1 X105.923 Y119.992 E17.09112
G1 X105.446 Y120.568 E17.12843
G1 X105.003 Y121.008 E17.15958
G1 X103.744 Y122.15 E17.24438
G1 X103.164 Y122.622 E17.28169
G1 X102.642 Y122.968 E17.31293
G1 X101.185 Y123.842 E17.3977
G1 X100.259 Y124.308 E17.44941
G1 X99.473 Y124.633 E17.49185
G1 X98.498 Y124.955 E17.54308
G1 X96.848 Y125.368 E17.62793
G1 X96.113 Y125.51 E17.66528
G1 X95.45 Y125.57 E17.69849
G1 X93.669 Y125.647 E17.78743
G1 X92.921 Y125.64 E17.82475
G1 X92.446 Y125.593 E17.84856
G1 X91.18 Y125.425 E17.91228
G1 X90.163 Y125.212 E17.96412
G1 X88.938 Y124.859 E18.02772
G1 X88.231 Y124.614 E18.06505
G1 X87.823 Y124.432 E18.08734
G1 X86.292 Y123.69 E18.17222
G1 X85.637 Y123.328 E18.20956
G1 X85.155 Y122.999 E18.23867
G1 X83.862 Y122.033 E18.31919
G1 X83.288 Y121.554 E18.35649
G1 X82.867 Y121.128 E18.38637
G1 X81.725 Y119.869 E18.47117
G1 X81.253 Y119.289 E18.50848
G1 X80.884 Y118.728 E18.54198
G1 X79.976 Y117.192 E18.631
G1 X79.63 Y116.529 E18.66831
G1 X79.403 Y115.964 E18.69869
G1 X78.865 Y114.443 E18.77918
G1 X78.653 Y113.726 E18.81648
G1 X78.54 Y113.138 E18.84635
G1 X78.29 Y111.456 E18.93119
G1 X78.22 Y110.711 E18.96852
G1 X78.236 Y109.872 E19.01039
G1 X78.411 Y107.671 E19.12054
G1 X78.51 Y106.93 E19.15784
G1 X78.663 Y106.288 E19.19077
G1 X79.016 Y105.063 E19.25437
G1 X79.261 Y104.356 E19.2917
G1 X79.424 Y103.987 E19.31183
G1 X80.12 Y102.528 E19.39247
G1 X80.478 Y101.871 E19.4298
G1 X80.815 Y101.373 E19.4598
G1 X81.827 Y100.008 E19.54458
G1 X82.304 Y99.432 E19.58189
G1 X82.747 Y98.992 E19.61304
G1 X84.006 Y97.85 E19.69784
G0 F3600 X84.275 Y98.146
G1 F1800 X84.839 Y97.689 E19.73406
G1 X85.314 Y97.375 E19.76246
G1 X86.771 Y96.501 E19.84723
G1 X87.413 Y96.162 E19.88345
G1 X87.944 Y95.946 E19.91205
G1 X89.544 Y95.374 E19.99682
G1 X90.241 Y95.168 E20.03308
G1 X90.801 Y95.06 E20.06153
G1 X92.485 Y94.811 E20.14646
G1 X93.208 Y94.744 E20.18269
G1 X93.971 Y94.761 E20.22076
G1 X96.17 Y94.935 E20.33082
G1 X96.889 Y95.032 E20.36701
G1 X97.477 Y95.172 E20.39717
G1 X98.702 Y95.525 E20.46077
G1 X99.387 Y95.764 E20.49696
G1 X99.752 Y95.928 E20.51693
G1 X101.281 Y96.669 E20.6017
G1 X101.917 Y97.021 E20.63796
G1 X102.352 Y97.32 E20.6643
G1 X103.647 Y98.287 E20.74493
G1 X104.204 Y98.753 E20.78116
G1 X104.587 Y99.141 E20.80836
G1 X105.729 Y100.4 E20.89316
G1 X106.186 Y100.964 E20.92938
G1 X106.521 Y101.475 E20.95986
G1 X107.428 Y103.009 E21.04877
G1 X107.763 Y103.654 E21.08503
G1 X107.969 Y104.166 E21.11257
G1 X108.508 Y105.689 E21.19317
G1 X108.712 Y106.386 E21.2294
G1 X108.814 Y106.921 E21.25657
G1 X109.064 Y108.603 E21.34141
G1 X109.131 Y109.326 E21.37763
G1 X109.128 Y109.899 E21.40622
G1 X109.044 Y111.598 E21.49109
G1 X108.968 Y112.32 E21.52731
G1 X108.854 Y112.875 E21.55557
G1 X108.441 Y114.525 E21.64043
G1 X108.227 Y115.218 E21.67662
G1 X108.005 Y115.746 E21.70519
G1 X107.278 Y117.282 E21.78997
G1 X106.931 Y117.92 E21.82621
G1 X106.614 Y118.389 E21.85445
G1 X105.602 Y119.754 E21.93922
G1 X105.138 Y120.313 E21.97547
G1 X104.734 Y120.712 E22.0038
G1 X103.475 Y121.854 E22.0886
G1 X102.911 Y122.311 E22.12482
G1 X102.436 Y122.625 E22.15322
G1 X100.979 Y123.499 E22.23799
G1 X100.106 Y123.938 E22.28674
G1 X99.32 Y124.263 E22.32917
G1 X98.401 Y124.566 E22.37745
G1 X96.751 Y124.979 E22.46231
G1 X96.037 Y125.117 E22.49859
G1 X95.433 Y125.171 E22.52884
G1 X93.652 Y125.248 E22.61778
G1 X92.926 Y125.239 E22.654
G1 X92.499 Y125.197 E22.67541
G1 X91.233 Y125.029 E22.73912
G1 X90.273 Y124.828 E22.78806
G1 X89.048 Y124.475 E22.85166
G1 X88.363 Y124.236 E22.88785
G1 X87.998 Y124.072 E22.90782
G1 X86.467 Y123.33 E22.9927
G1 X85.831 Y122.978 E23.02896
G1 X85.395 Y122.678 E23.05537
G1 X84.102 Y121.712 E23.13589
G1 X83.545 Y121.246 E23.17212
G1 X83.163 Y120.859 E23.19925
G1 X82.021 Y119.6 E23.28405
G1 X81.564 Y119.036 E23.32027
G1 X81.228 Y118.525 E23.35078
G1 X80.32 Y116.989 E23.4398
G1 X79.986 Y116.344 E23.47604
G1 X79.78 Y115.831 E23.50362
G1 X79.242 Y114.31 E23.58411
G1 X79.038 Y113.613 E23.62034
G1 X78.936 Y113.079 E23.64746
G1 X78.686 Y111.397 E23.7323
G1 X78.619 Y110.674 E23.76853
G1 X78.635 Y109.904 E23.80695
G1 X78.81 Y107.703 E23.9171
G1 X78.907 Y106.983 E23.95335
G1 X79.047 Y106.398 E23.98336
G1 X79.4 Y105.173 E24.04696
G1 X79.785 Y104.159 E24.10107
G1 X80.481 Y102.7 E24.18172
G1 X80.829 Y102.063 E24.21794
G1 X81.136 Y101.611 E24.2452
G1 X82.148 Y100.246 E24.32997
G1 X82.612 Y99.687 E24.36621
G1 X83.016 Y99.288 E24.39454
G1 X84.275 Y98.146 E24.47935
G0 F3600 X84.544 Y98.443
G1 F1800 X85.091 Y98 E24.51446
G1 X85.52 Y97.718 E24.54008
G1 X86.977 Y96.844 E24.62484
G1 X87.6 Y96.517 E24.65994
G1 X88.079 Y96.323 E24.68573
G1 X89.679 Y95.751 E24.7705
G1 X90.354 Y95.552 E24.80561
G1 X90.859 Y95.456 E24.83125
G1 X92.543 Y95.207 E24.91618
G1 X93.244 Y95.143 E24.9513
G1 X93.939 Y95.159 E24.98598
G1 X96.138 Y95.333 E25.09604
G1 X96.836 Y95.429 E25.13119
G1 X97.366 Y95.556 E25.15838
G1 X98.591 Y95.909 E25.22198
G1 X99.255 Y96.142 E25.25709
G1 X99.578 Y96.288 E25.27477
G1 X101.107 Y97.029 E25.35954
G1 X101.722 Y97.371 E25.39465
G1 X102.113 Y97.64 E25.41832
G1 X103.408 Y98.607 E25.49896
G1 X103.947 Y99.06 E25.53408
G1 X104.29 Y99.41 E25.55853
G1 X105.432 Y100.669 E25.64333
G1 X105.875 Y101.216 E25.67845
G1 X106.177 Y101.678 E25.70599
G1 X107.084 Y103.212 E25.7949
G1 X107.407 Y103.838 E25.83004
G1 X107.592 Y104.299 E25.85482
G1 X108.131 Y105.822 E25.93542
G1 X108.328 Y106.498 E25.97055
G1 X108.419 Y106.979 E25.99497
G1 X108.669 Y108.661 E26.07981
G1 X108.732 Y109.363 E26.11498
G1 X108.728 Y109.879 E26.14072
G1 X108.644 Y111.578 E26.22559
G1 X108.57 Y112.278 E26.2607
G1 X108.466 Y112.777 E26.28613
G1 X108.053 Y114.427 E26.37099
G1 X107.844 Y115.1 E26.40615
G1 X107.643 Y115.574 E26.43184
G1 X106.916 Y117.11 E26.51662
G1 X106.579 Y117.729 E26.55178
G1 X106.293 Y118.151 E26.57721
G1 X105.281 Y119.516 E26.66199
G1 X104.83 Y120.056 E26.69709
G1 X104.465 Y120.415 E26.72263
G1 X103.206 Y121.557 E26.80743
G1 X102.659 Y122 E26.84255
G1 X102.23 Y122.282 E26.86816
G1 X100.773 Y123.156 E26.95293
G1 X99.953 Y123.569 E26.99874
