;FLAVOR:Marlin
;TIME:1071
;Filament used: 0.246143m
;Layer height: 0.06
;Generated with Cura_SteamEngine 3.1.0
M190 S70
M104 S250
M109 S250
M82 ; absolute extrusion mode
G28 ;Home
G1 Z15.0 F6000 ;Move the platform down 15mm
;Prime the extruder
G92 E0
G1 F200 E3
G92 E0
;LAYER_COUNT:377
;LAYER:0
M107
G0 F3600 X95.173 Y101.239 Z0.3
;TYPE:SKIRT
G1 F1800 X95.781 Y100.735 E0.0394
G1 X96.53 Y100.239 E0.08422
G1 X97.359 Y99.757 E0.13206
G1 X98.061 Y99.395 E0.17147
G1 X98.796 Y99.106 E0.21087
G1 X99.557 Y98.893 E0.25029
G1 X100.335 Y98.758 E0.28969
G1 X101.28 Y98.7 E0.33692
G1 X104.219 Y98.7 E0.48355
G1 X105.008 Y98.74 E0.52296
G1 X105.788 Y98.859 E0.56233
G1 X106.553 Y99.057 E0.60175
G1 X107.293 Y99.331 E0.64112
G1 X108.133 Y99.753 E0.68802
G1 X108.962 Y100.234 E0.73584
G1 X109.625 Y100.665 E0.77529
G1 X110.009 Y100.974 E0.79988
G1 X110.217 Y100.801 E0.81338
G1 X110.968 Y100.305 E0.85828
G1 X111.913 Y99.756 E0.9128
G1 X112.615 Y99.394 E0.95221
G1 X113.35 Y99.105 E0.99161
G1 X114.11 Y98.892 E1.03099
G1 X114.888 Y98.757 E1.07038
G1 X115.831 Y98.7 E1.11751
G1 X118.617 Y98.7 E1.25651
G1 X119.406 Y98.74 E1.29592
G1 X120.186 Y98.859 E1.33529
G1 X120.951 Y99.057 E1.37471
G1 X121.691 Y99.331 E1.41408
G1 X122.531 Y99.753 E1.46098
G1 X123.474 Y100.3 E1.51537
G1 X124.136 Y100.73 E1.55475
G1 X124.751 Y101.225 E1.59414
G1 X125.313 Y101.78 E1.63354
G1 X125.816 Y102.389 E1.67295
G1 X126.381 Y103.263 E1.72487
G1 X127.788 Y105.799 E1.86956
G1 X128.135 Y106.508 E1.90894
G1 X128.409 Y107.248 E1.94831
G1 X128.607 Y108.013 E1.98773
G1 X128.727 Y108.794 E2.02715
G1 X128.765 Y109.744 E2.07459
G1 X128.745 Y110.711 E2.12284
G1 X128.689 Y111.499 E2.16225
G1 X128.553 Y112.277 E2.20166
G1 X128.34 Y113.037 E2.24104
G1 X128.05 Y113.772 E2.28046
G1 X127.702 Y114.45 E2.31848
G1 X126.316 Y116.851 E2.45679
G1 X125.887 Y117.514 E2.49619
G1 X125.394 Y118.13 E2.53555
G1 X124.84 Y118.693 E2.57496
G1 X124.232 Y119.197 E2.61436
G1 X123.482 Y119.694 E2.65924
G1 X122.538 Y120.243 E2.71373
G1 X121.836 Y120.605 E2.75313
G1 X121.102 Y120.894 E2.79249
G1 X120.341 Y121.107 E2.83191
G1 X119.563 Y121.242 E2.87131
G1 X118.617 Y121.3 E2.91859
G1 X115.83 Y121.3 E3.05764
G1 X115.041 Y121.26 E3.09705
G1 X114.261 Y121.141 E3.13641
G1 X113.496 Y120.943 E3.17584
G1 X112.802 Y120.688 E3.21272
G1 X112.586 Y120.597 E3.22442
G1 X111.874 Y120.254 E3.26385
G1 X111.469 Y120.017 E3.28726
G1 X110.742 Y119.561 E3.33007
G1 X110.096 Y119.108 E3.36944
G1 X110.004 Y119.029 E3.37549
G1 X109.719 Y119.265 E3.39395
G1 X108.97 Y119.761 E3.43877
G1 X108.141 Y120.243 E3.48661
G1 X107.439 Y120.605 E3.52601
G1 X106.704 Y120.894 E3.56541
G1 X105.943 Y121.107 E3.60484
G1 X105.165 Y121.242 E3.64423
G1 X104.22 Y121.3 E3.69147
G1 X101.281 Y121.3 E3.8381
G1 X100.492 Y121.26 E3.87751
G1 X99.712 Y121.141 E3.91688
G1 X98.947 Y120.943 E3.9563
G1 X98.207 Y120.669 E3.99567
G1 X97.367 Y120.247 E4.04257
G1 X96.538 Y119.766 E4.09038
G1 X95.875 Y119.335 E4.12983
G1 X95.26 Y118.84 E4.16922
G1 X94.698 Y118.285 E4.20863
G1 X94.195 Y117.677 E4.248
G1 X93.698 Y116.921 E4.29313
G1 X92.23 Y114.38 E4.43954
G1 X91.87 Y113.677 E4.47894
G1 X91.583 Y112.941 E4.51836
G1 X91.372 Y112.18 E4.55775
G1 X91.239 Y111.402 E4.59713
G1 X91.184 Y110.478 E4.64331
G1 X91.184 Y109.522 E4.69101
G1 X91.224 Y108.733 E4.73042
G1 X91.343 Y107.953 E4.76979
G1 X91.541 Y107.188 E4.80921
G1 X91.815 Y106.448 E4.84858
G1 X92.23 Y105.621 E4.89474
G1 X93.697 Y103.081 E5.04108
G1 X94.126 Y102.418 E5.08048
G1 X94.62 Y101.802 E5.11987
G1 X95.173 Y101.239 E5.15924
G0 F3600 X95.488 Y101.493
G1 F1800 X96.085 Y101.007 E5.19765
G1 X96.731 Y100.585 E5.23614
G1 X97.56 Y100.103 E5.28399
G1 X98.245 Y99.751 E5.32241
G1 X98.962 Y99.473 E5.36077
G1 X99.703 Y99.27 E5.39911
G1 X100.462 Y99.145 E5.43748
G1 X101.28 Y99.1 E5.47835
G1 X104.219 Y99.1 E5.62498
G1 X104.987 Y99.14 E5.66335
G1 X105.747 Y99.259 E5.70173
G1 X106.49 Y99.457 E5.74009
G1 X107.209 Y99.731 E5.77848
G1 X107.933 Y100.099 E5.819
G1 X108.762 Y100.58 E5.86681
G1 X109.406 Y101 E5.90517
G1 X110.003 Y101.485 E5.94354
G1 X110.008 Y101.49 E5.9439
G1 X110.52 Y101.074 E5.97681
G1 X111.169 Y100.65 E6.01549
G1 X112.114 Y100.101 E6.07001
G1 X112.798 Y99.75 E6.10837
G1 X113.515 Y99.472 E6.14673
G1 X114.257 Y99.269 E6.18511
G1 X115.016 Y99.145 E6.22348
G1 X115.831 Y99.1 E6.2642
G1 X118.617 Y99.1 E6.4032
G1 X119.385 Y99.14 E6.44156
G1 X120.145 Y99.259 E6.47994
G1 X120.888 Y99.457 E6.51831
G1 X121.607 Y99.731 E6.55669
G1 X122.33 Y100.099 E6.59717
G1 X123.273 Y100.646 E6.65156
G1 X123.917 Y101.066 E6.68991
G1 X124.515 Y101.551 E6.72833
G1 X125.058 Y102.095 E6.76667
G1 X125.543 Y102.692 E6.80505
G1 X126.031 Y103.457 E6.85032
G1 X127.438 Y105.993 E6.99501
G1 X127.776 Y106.684 E7.03339
G1 X128.04 Y107.406 E7.07174
G1 X128.227 Y108.152 E7.11011
G1 X128.337 Y108.914 E7.14852
G1 X128.365 Y109.736 E7.18955
G1 X128.345 Y110.703 E7.23781
G1 X128.29 Y111.47 E7.27617
G1 X128.154 Y112.227 E7.31454
G1 X127.941 Y112.966 E7.35291
G1 X127.653 Y113.679 E7.39128
G1 X127.356 Y114.25 E7.42339
G1 X125.97 Y116.651 E7.5617
G1 X125.551 Y117.296 E7.60007
G1 X125.068 Y117.894 E7.63842
G1 X124.525 Y118.439 E7.6768
G1 X123.929 Y118.925 E7.71517
G1 X123.281 Y119.348 E7.75378
G1 X122.337 Y119.897 E7.80826
G1 X121.653 Y120.248 E7.84662
G1 X120.936 Y120.527 E7.885
G1 X120.194 Y120.73 E7.92338
G1 X119.435 Y120.855 E7.96176
G1 X118.617 Y120.9 E8.00263
G1 X115.83 Y120.9 E8.14167
G1 X115.062 Y120.86 E8.18004
G1 X114.302 Y120.741 E8.21842
G1 X113.559 Y120.543 E8.25678
G1 X112.957 Y120.32 E8.28881
G1 X112.741 Y120.229 E8.3005
G1 X112.049 Y119.893 E8.33888
G1 X111.682 Y119.678 E8.3601
G1 X110.955 Y119.222 E8.40291
G1 X110.325 Y118.78 E8.44131
G1 X110.012 Y118.507 E8.46203
G1 X109.415 Y118.993 E8.50044
G1 X108.769 Y119.415 E8.53893
G1 X107.94 Y119.897 E8.58677
G1 X107.255 Y120.249 E8.6252
G1 X106.538 Y120.527 E8.66356
G1 X105.797 Y120.73 E8.70189
G1 X105.038 Y120.855 E8.74027
G1 X104.22 Y120.9 E8.78114
G1 X101.281 Y120.9 E8.92777
G1 X100.513 Y120.86 E8.96614
G1 X99.753 Y120.741 E9.00452
G1 X99.01 Y120.543 E9.04288
G1 X98.291 Y120.269 E9.08127
G1 X97.567 Y119.901 E9.12178
G1 X96.738 Y119.42 E9.1696
G1 X96.094 Y119 E9.20796
G1 X95.497 Y118.515 E9.24633
G1 X94.953 Y117.971 E9.28472
G1 X94.469 Y117.373 E9.3231
G1 X94.044 Y116.721 E9.36193
G1 X92.576 Y114.18 E9.50833
G1 X92.227 Y113.495 E9.54669
G1 X91.95 Y112.777 E9.58508
G1 X91.75 Y112.034 E9.62347
G1 X91.627 Y111.275 E9.66183
G1 X91.584 Y110.478 E9.70165
G1 X91.584 Y109.522 E9.74935
G1 X91.624 Y108.754 E9.78771
G1 X91.743 Y107.994 E9.82609
G1 X91.941 Y107.251 E9.86445
G1 X92.215 Y106.532 E9.90284
G1 X92.576 Y105.821 E9.94262
G1 X94.043 Y103.281 E10.08896
G1 X94.462 Y102.636 E10.12733
G1 X94.945 Y102.038 E10.16568
G1 X95.488 Y101.493 E10.20407
G0 F3600 X95.802 Y101.748
G1 F1800 X96.387 Y101.282 E10.24138
G1 X96.933 Y100.931 E10.27376
G1 X97.762 Y100.449 E10.32161
G1 X98.427 Y100.108 E10.35889
G1 X99.126 Y99.84 E10.39624
G1 X99.849 Y99.648 E10.43356
G1 X100.588 Y99.534 E10.47086
G1 X101.28 Y99.5 E10.50543
G1 X104.219 Y99.5 E10.65206
G1 X104.966 Y99.54 E10.68938
G1 X105.704 Y99.659 E10.72667
G1 X106.426 Y99.857 E10.76402
G1 X107.122 Y100.13 E10.80132
G1 X107.732 Y100.445 E10.83557
G1 X108.561 Y100.926 E10.88339
G1 X109.187 Y101.336 E10.92072
G1 X109.766 Y101.81 E10.95806
G1 X110.001 Y102.049 E10.97478
G1 X110.238 Y101.815 E10.99139
G1 X110.823 Y101.349 E11.02871
G1 X111.37 Y100.996 E11.06119
G1 X112.315 Y100.447 E11.11571
G1 X112.981 Y100.107 E11.15302
G1 X113.679 Y99.839 E11.19032
G1 X114.402 Y99.647 E11.22764
G1 X115.142 Y99.534 E11.26499
G1 X115.831 Y99.5 E11.2994
G1 X118.617 Y99.5 E11.4384
G1 X119.364 Y99.54 E11.47572
G1 X120.102 Y99.659 E11.51301
G1 X120.824 Y99.857 E11.55037
G1 X121.52 Y100.13 E11.58766
G1 X122.129 Y100.445 E11.62187
G1 X123.072 Y100.992 E11.67626
G1 X123.698 Y101.401 E11.71357
G1 X124.277 Y101.875 E11.7509
G1 X124.802 Y102.408 E11.78822
G1 X125.267 Y102.994 E11.82554
G1 X125.681 Y103.651 E11.86429
G1 X127.088 Y106.187 E12.00898
G1 X127.415 Y106.86 E12.04631
G1 X127.669 Y107.563 E12.0836
G1 X127.847 Y108.29 E12.12094
G1 X127.945 Y109.032 E12.15828
G1 X127.966 Y109.728 E12.19302
G1 X127.946 Y110.695 E12.24127
G1 X127.89 Y111.441 E12.2786
G1 X127.755 Y112.177 E12.31593
G1 X127.543 Y112.894 E12.35323
G1 X127.255 Y113.584 E12.39053
G1 X127.009 Y114.05 E12.41682
G1 X125.623 Y116.451 E12.55513
G1 X125.215 Y117.078 E12.59246
G1 X124.743 Y117.657 E12.62972
G1 X124.211 Y118.183 E12.66705
G1 X123.626 Y118.65 E12.70439
G1 X123.08 Y119.002 E12.7368
G1 X122.136 Y119.551 E12.79128
G1 X121.47 Y119.892 E12.82861
G1 X120.772 Y120.16 E12.86592
G1 X120.049 Y120.352 E12.90324
G1 X119.309 Y120.466 E12.94059
G1 X118.617 Y120.5 E12.97516
G1 X115.83 Y120.5 E13.1142
G1 X115.083 Y120.46 E13.15152
G1 X114.345 Y120.341 E13.18882
G1 X113.623 Y120.143 E13.22617
G1 X113.112 Y119.951 E13.2534
G1 X112.896 Y119.86 E13.26509
G1 X112.223 Y119.533 E13.30242
G1 X111.894 Y119.339 E13.32148
G1 X111.167 Y118.883 E13.36429
G1 X110.556 Y118.452 E13.4016
G1 X109.994 Y117.959 E13.4389
G1 X109.698 Y118.252 E13.45967
G1 X109.113 Y118.718 E13.49699
G1 X108.567 Y119.069 E13.52937
G1 X107.738 Y119.551 E13.57721
G1 X107.073 Y119.892 E13.6145
G1 X106.374 Y120.16 E13.65185
G1 X105.651 Y120.352 E13.68917
G1 X104.912 Y120.466 E13.72647
G1 X104.22 Y120.5 E13.76104
G1 X101.281 Y120.5 E13.90766
G1 X100.534 Y120.46 E13.94499
G1 X99.796 Y120.341 E13.98228
G1 X99.074 Y120.143 E14.01963
G1 X98.378 Y119.87 E14.05693
G1 X97.768 Y119.555 E14.09118
G1 X96.939 Y119.074 E14.139
G1 X96.313 Y118.664 E14.17633
G1 X95.734 Y118.19 E14.21366
G1 X95.209 Y117.657 E14.25099
G1 X94.744 Y117.071 E14.28831
G1 X94.391 Y116.521 E14.32092
G1 X92.923 Y113.98 E14.46732
G1 X92.584 Y113.313 E14.50465
G1 X92.318 Y112.614 E14.54196
G1 X92.128 Y111.89 E14.57931
G1 X92.016 Y111.15 E14.61665
G1 X91.984 Y110.478 E14.65021
G1 X91.984 Y109.522 E14.6979
G1 X92.024 Y108.775 E14.73523
G1 X92.143 Y108.037 E14.77252
G1 X92.341 Y107.315 E14.80987
G1 X92.614 Y106.619 E14.84717
G1 X92.922 Y106.021 E14.88073
G1 X94.389 Y103.481 E15.02707
G1 X94.798 Y102.854 E15.06442
G1 X95.27 Y102.274 E15.10172
G1 X95.802 Y101.748 E15.13905
G0 F3600 X96.115 Y102.006
G1 F1800 X96.688 Y101.559 E15.1753
G1 X97.134 Y101.276 E15.20166
G1 X97.963 Y100.794 E15.2495
G1 X98.61 Y100.464 E15.28573
G1 X99.289 Y100.207 E15.32195
G1 X99.993 Y100.027 E15.35821
G1 X100.712 Y99.925 E15.39444
G1 X101.28 Y99.9 E15.4228
G1 X104.219 Y99.9 E15.56943
G1 X104.944 Y99.94 E15.60565
G1 X105.661 Y100.059 E15.64192
G1 X106.36 Y100.257 E15.67816
G1 X107.033 Y100.53 E15.71439
G1 X107.531 Y100.791 E15.74245
G1 X108.36 Y101.272 E15.79026
G1 X108.968 Y101.671 E15.82654
G1 X109.527 Y102.134 E15.86276
G1 X109.998 Y102.618 E15.89645
G1 X110.03 Y102.579 E15.89897
G1 X110.551 Y102.072 E15.93523
G1 X111.124 Y101.626 E15.97146
G1 X111.571 Y101.342 E15.99788
G1 X112.516 Y100.793 E16.05241
G1 X113.163 Y100.463 E16.08864
G1 X113.842 Y100.207 E16.12485
G1 X114.546 Y100.026 E16.16111
G1 X115.265 Y99.924 E16.19734
G1 X115.831 Y99.9 E16.2256
G1 X118.617 Y99.9 E16.3646
G1 X119.342 Y99.94 E16.40082
G1 X120.059 Y100.059 E16.43708
G1 X120.758 Y100.257 E16.47333
G1 X121.431 Y100.53 E16.50956
G1 X121.929 Y100.791 E16.53761
G1 X122.872 Y101.338 E16.592
G1 X123.479 Y101.736 E16.62821
G1 X124.039 Y102.199 E16.66447
G1 X124.544 Y102.721 E16.7007
G1 X124.99 Y103.295 E16.73697
G1 X125.331 Y103.845 E16.76925
G1 X126.738 Y106.381 E16.91394
G1 X127.055 Y107.035 E16.9502
G1 X127.298 Y107.719 E16.98642
G1 X127.465 Y108.426 E17.02266
G1 X127.553 Y109.147 E17.0589
G1 X127.566 Y109.719 E17.08744
G1 X127.546 Y110.686 E17.13569
G1 X127.491 Y111.411 E17.17197
G1 X127.356 Y112.125 E17.20822
G1 X127.145 Y112.819 E17.24441
G1 X126.858 Y113.487 E17.28068
G1 X126.663 Y113.85 E17.30124
G1 X125.277 Y116.251 E17.43955
G1 X124.88 Y116.859 E17.47578
G1 X124.418 Y117.42 E17.51204
G1 X123.898 Y117.926 E17.54824
G1 X123.325 Y118.373 E17.58449
G1 X122.879 Y118.656 E17.61084
G1 X121.935 Y119.205 E17.66533
G1 X121.288 Y119.535 E17.70156
G1 X120.609 Y119.792 E17.73778
G1 X119.905 Y119.973 E17.77405
G1 X119.186 Y120.075 E17.81028
G1 X118.617 Y120.1 E17.83869
G1 X115.83 Y120.1 E17.97774
G1 X115.105 Y120.06 E18.01396
G1 X114.388 Y119.941 E18.05022
G1 X113.689 Y119.743 E18.08647
G1 X113.268 Y119.582 E18.10896
G1 X113.052 Y119.491 E18.12065
G1 X112.107 Y119 E18.17378
G1 X111.38 Y118.544 E18.21659
G1 X110.787 Y118.125 E18.25282
G1 X110.243 Y117.643 E18.28908
G1 X109.999 Y117.373 E18.30724
G1 X109.905 Y117.488 E18.31465
G1 X109.385 Y117.994 E18.35084
G1 X108.812 Y118.441 E18.3871
G1 X108.366 Y118.724 E18.41345
G1 X107.537 Y119.206 E18.46129
G1 X106.89 Y119.536 E18.49753
G1 X106.211 Y119.793 E18.53375
G1 X105.507 Y119.973 E18.57
G1 X104.788 Y120.075 E18.60623
G1 X104.22 Y120.1 E18.6346
G1 X101.281 Y120.1 E18.78123
G1 X100.556 Y120.06 E18.81745
G1 X99.839 Y119.941 E18.85371
G1 X99.14 Y119.743 E18.88996
G1 X98.467 Y119.47 E18.92619
G1 X97.969 Y119.209 E18.95424
G1 X97.14 Y118.728 E19.00206
G1 X96.532 Y118.329 E19.03834
G1 X95.973 Y117.866 E19.07455
G1 X95.467 Y117.345 E19.11079
G1 X95.022 Y116.771 E19.14702
G1 X94.737 Y116.321 E19.1736
G1 X93.269 Y113.78 E19.32
G1 X92.941 Y113.132 E19.35624
G1 X92.686 Y112.451 E19.39252
G1 X92.507 Y111.747 E19.42876
G1 X92.407 Y111.028 E19.46497
G1 X92.384 Y110.478 E19.49244
G1 X92.384 Y109.522 E19.54013
G1 X92.424 Y108.797 E19.57636
G1 X92.543 Y108.08 E19.61262
G1 X92.741 Y107.381 E19.64886
G1 X93.014 Y106.708 E19.6851
G1 X93.269 Y106.221 E19.71252
G1 X94.736 Y103.681 E19.85886
G1 X95.133 Y103.073 E19.89509
G1 X95.595 Y102.512 E19.93134
G1 X96.115 Y102.006 E19.96754
G0 F3600 X96.427 Y102.265
G1 F1800 X96.988 Y101.839 E20.00269
G1 X97.335 Y101.622 E20.0231
G1 X98.164 Y101.14 E20.07095
G1 X98.791 Y100.821 E20.10604
G1 X99.451 Y100.576 E20.14117
G1 X100.135 Y100.407 E20.17632
G1 X100.833 Y100.316 E20.21143
G1 X101.28 Y100.3 E20.23375
G1 X104.219 Y100.3 E20.38038
G1 X104.922 Y100.34 E20.41551
G1 X105.616 Y100.459 E20.45064
G1 X106.291 Y100.657 E20.48573
G1 X106.94 Y100.929 E20.52084
G1 X107.331 Y101.137 E20.54293
G1 X108.16 Y101.618 E20.59075
G1 X108.747 Y102.006 E20.62585
G1 X109.288 Y102.457 E20.66099
G1 X109.773 Y102.967 E20.69611
G1 X109.991 Y103.255 E20.71413
G1 X110.354 Y102.818 E20.74247
G1 X110.863 Y102.332 E20.77758
G1 X111.424 Y101.906 E20.81272
G1 X111.772 Y101.688 E20.83321
G1 X112.717 Y101.139 E20.88774
G1 X113.344 Y100.821 E20.92281
G1 X114.004 Y100.575 E20.95795
G1 X114.688 Y100.406 E20.9931
G1 X115.386 Y100.316 E21.02821
G1 X115.831 Y100.3 E21.05043
G1 X118.617 Y100.3 E21.18942
G1 X119.32 Y100.34 E21.22455
G1 X120.014 Y100.459 E21.25968
G1 X120.689 Y100.657 E21.29478
G1 X121.338 Y100.929 E21.32988
G1 X121.728 Y101.137 E21.35194
G1 X122.671 Y101.684 E21.40632
G1 X123.259 Y102.071 E21.44144
G1 X123.799 Y102.523 E21.47658
G1 X124.285 Y103.032 E21.51169
G1 X124.709 Y103.594 E21.54681
G1 X124.981 Y104.039 E21.57283
G1 X126.388 Y106.575 E21.71752
G1 X126.695 Y107.209 E21.75266
G1 X126.927 Y107.874 E21.7878
G1 X127.082 Y108.56 E21.82289
G1 X127.159 Y109.26 E21.85802
G1 X127.166 Y109.711 E21.88052
G1 X127.146 Y110.678 E21.92878
G1 X127.091 Y111.38 E21.96391
G1 X126.957 Y112.071 E21.99903
G1 X126.746 Y112.743 E22.03417
G1 X126.317 Y113.65 E22.08422
G1 X124.931 Y116.051 E22.22253
G1 X124.545 Y116.639 E22.25763
G1 X124.094 Y117.181 E22.2928
G1 X123.586 Y117.667 E22.32788
G1 X123.025 Y118.093 E22.36302
G1 X122.678 Y118.311 E22.38347
G1 X121.734 Y118.86 E22.43795
G1 X121.106 Y119.178 E22.47307
G1 X120.447 Y119.424 E22.50816
G1 X119.763 Y119.593 E22.54331
G1 X119.065 Y119.684 E22.57843
G1 X118.617 Y119.7 E22.60079
G1 X115.83 Y119.7 E22.73984
G1 X115.127 Y119.66 E22.77497
G1 X114.433 Y119.541 E22.8101
G1 X113.758 Y119.343 E22.84519
G1 X113.423 Y119.214 E22.8631
G1 X113.207 Y119.123 E22.8748
G1 X112.32 Y118.661 E22.92469
G1 X111.593 Y118.205 E22.96751
G1 X111.018 Y117.798 E23.00265
G1 X110.494 Y117.328 E23.03777
G1 X110.026 Y116.802 E23.07289
G1 X109.994 Y116.753 E23.07581
G1 X109.581 Y117.249 E23.10802
G1 X109.073 Y117.735 E23.14309
G1 X108.512 Y118.161 E23.17823
G1 X108.165 Y118.378 E23.19865
G1 X107.336 Y118.86 E23.24649
G1 X106.709 Y119.179 E23.28159
