;FLAVOR:Marlin
;TIME:1193
;Filament used: 0.46576m
;Layer height: 0.1
;Generated with Cura_SteamEngine 3.1.0
M190 S70
M104 S250
M109 S250
M82 ; absolute extrusion mode
G28 ;Home
G1 Z15.0 F6000 ;Move the platform down 15mm
;Prime the extruder
G92 E0
G1 F200 E3
G92 E0
;LAYER_COUNT:239
;LAYER:0
M107
G0 F3600 X93.513 Y100.492 Z0.3
;TYPE:SKIRT
G1 F1800 X94.212 Y99.938 E0.0445
G1 X95.222 Y99.227 E0.10612
G1 X95.89 Y98.806 E0.14551
G1 X96.742 Y98.393 E0.19275
G1 X97.66 Y98.015 E0.24228
G1 X98.405 Y97.751 E0.28171
G1 X99.016 Y97.596 E0.31316
G1 X99.834 Y97.423 E0.35487
G1 X100.614 Y97.299 E0.39428
G1 X101.365 Y97.254 E0.43181
G1 X102.498 Y97.242 E0.48834
G1 X103.287 Y97.274 E0.52774
G1 X104.326 Y97.44 E0.58023
G1 X105.489 Y97.707 E0.63976
G1 X106.249 Y97.922 E0.67917
G1 X107.248 Y98.34 E0.73319
G1 X108.334 Y98.886 E0.79384
G1 X109.02 Y99.276 E0.83321
G1 X109.915 Y99.94 E0.8888
G1 X110.032 Y100.041 E0.89652
G1 X110.345 Y99.785 E0.91669
G1 X111.126 Y99.278 E0.96314
G1 X112.173 Y98.684 E1.0232
G1 X112.879 Y98.329 E1.06262
G1 X113.752 Y98.006 E1.10906
G1 X114.669 Y97.727 E1.15688
G1 X115.435 Y97.535 E1.19628
G1 X116.172 Y97.427 E1.23344
G1 X117.144 Y97.331 E1.28217
G1 X117.933 Y97.293 E1.32158
G1 X118.671 Y97.33 E1.35845
G1 X119.621 Y97.423 E1.40607
G1 X120.402 Y97.54 E1.44547
G1 X121.228 Y97.754 E1.48804
G1 X122.258 Y98.082 E1.54197
G1 X122.997 Y98.359 E1.58134
G1 X123.732 Y98.725 E1.62231
G1 X124.568 Y99.198 E1.67023
G1 X125.235 Y99.621 E1.70963
G1 X125.817 Y100.077 E1.74652
G1 X126.545 Y100.704 E1.79445
G1 X127.117 Y101.249 E1.83387
G1 X127.612 Y101.825 E1.87176
G1 X128.204 Y102.586 E1.91986
G1 X128.656 Y103.233 E1.95924
G1 X129.095 Y104.033 E2.00476
G1 X129.609 Y105.117 E2.06462
G1 X129.911 Y105.847 E2.10403
G1 X130.152 Y106.665 E2.14657
G1 X130.346 Y107.486 E2.18866
G1 X130.488 Y108.263 E2.22807
G1 X130.545 Y108.891 E2.25953
G1 X130.593 Y109.852 E2.30753
G1 X130.593 Y110.642 E2.34695
G1 X130.504 Y111.482 E2.38909
G1 X130.332 Y112.549 E2.44301
G1 X130.167 Y113.322 E2.48244
G1 X129.843 Y114.279 E2.53285
G1 X129.385 Y115.391 E2.59285
G1 X129.048 Y116.105 E2.63224
G1 X128.545 Y116.919 E2.67998
G1 X127.99 Y117.705 E2.72798
G1 X127.502 Y118.326 E2.76738
G1 X126.99 Y118.862 E2.80437
G1 X126.293 Y119.524 E2.85232
G1 X125.693 Y120.038 E2.89174
G1 X124.775 Y120.65 E2.94678
G1 X123.522 Y121.362 E3.01868
G1 X122.816 Y121.716 E3.05809
G1 X121.84 Y122.071 E3.1099
G1 X121.033 Y122.305 E3.15182
G1 X120.265 Y122.487 E3.1912
G1 X119.787 Y122.559 E3.21531
G1 X119.068 Y122.645 E3.25144
G1 X118.281 Y122.699 E3.2908
G1 X117.578 Y122.68 E3.32588
G1 X116.378 Y122.593 E3.38591
G1 X115.594 Y122.496 E3.42532
G1 X114.772 Y122.305 E3.46742
G1 X113.964 Y122.071 E3.50939
G1 X113.218 Y121.813 E3.54877
G1 X112.62 Y121.542 E3.58152
G1 X111.762 Y121.109 E3.62947
G1 X111.076 Y120.718 E3.66887
G1 X110.479 Y120.296 E3.70534
G1 X110.038 Y119.952 E3.73324
G1 X109.912 Y120.061 E3.74156
G1 X109.288 Y120.544 E3.78092
G1 X108.475 Y121.04 E3.82844
G1 X107.576 Y121.515 E3.87916
G1 X106.86 Y121.848 E3.91856
G1 X106.233 Y122.071 E3.95176
G1 X105.368 Y122.338 E3.99692
G1 X104.602 Y122.532 E4.03635
G1 X103.992 Y122.63 E4.06717
G1 X103.18 Y122.727 E4.10797
G1 X102.392 Y122.781 E4.14737
G1 X101.67 Y122.76 E4.18341
G1 X100.54 Y122.675 E4.23995
G1 X99.756 Y122.576 E4.27937
G1 X98.648 Y122.293 E4.33642
G1 X97.418 Y121.881 E4.40114
G1 X96.682 Y121.593 E4.44057
G1 X95.687 Y121.053 E4.49705
G1 X94.674 Y120.404 E4.55707
G1 X94.032 Y119.945 E4.59644
G1 X93.218 Y119.198 E4.65156
G1 X92.383 Y118.316 E4.71216
G1 X91.87 Y117.716 E4.75154
G1 X91.416 Y117.062 E4.79126
G1 X90.996 Y116.384 E4.83105
G1 X90.615 Y115.692 E4.87046
G1 X90.451 Y115.332 E4.8902
G1 X90.178 Y114.691 E4.92496
G1 X89.905 Y113.95 E4.96436
G1 X89.77 Y113.459 E4.98976
G1 X89.549 Y112.54 E5.03692
G1 X89.404 Y111.764 E5.0763
G1 X89.341 Y111.067 E5.11122
G1 X89.296 Y110.068 E5.16111
G1 X89.3 Y109.278 E5.20052
G1 X89.38 Y108.525 E5.2383
G1 X89.528 Y107.568 E5.28661
G1 X89.688 Y106.795 E5.326
G1 X89.857 Y106.232 E5.35532
G1 X90.114 Y105.482 E5.39488
G1 X90.408 Y104.748 E5.43432
G1 X90.785 Y104.03 E5.47478
G1 X91.415 Y102.968 E5.53639
G1 X91.851 Y102.311 E5.57573
G1 X92.372 Y101.679 E5.61659
G1 X92.951 Y101.047 E5.65935
G1 X93.513 Y100.492 E5.69876
G0 F3600 X93.794 Y100.778
G1 F1800 X94.442 Y100.265 E5.73999
G1 X95.452 Y99.554 E5.80161
G1 X96.103 Y99.144 E5.84
G1 X96.894 Y98.762 E5.88382
G1 X97.812 Y98.384 E5.93335
G1 X98.538 Y98.129 E5.97174
G1 X99.099 Y97.987 E6.00061
G1 X99.917 Y97.814 E6.04232
G1 X100.677 Y97.694 E6.08071
G1 X101.37 Y97.654 E6.11534
G1 X102.503 Y97.642 E6.17187
G1 X103.271 Y97.674 E6.21022
G1 X104.237 Y97.83 E6.25904
G1 X105.4 Y98.097 E6.31857
G1 X106.14 Y98.307 E6.35695
G1 X107.068 Y98.698 E6.40719
G1 X108.154 Y99.244 E6.46783
G1 X108.822 Y99.624 E6.50617
G1 X109.654 Y100.244 E6.55794
G1 X110.026 Y100.563 E6.58238
G1 X110.598 Y100.095 E6.61926
G1 X111.323 Y99.626 E6.66234
G1 X112.37 Y99.032 E6.72239
G1 X113.058 Y98.687 E6.76079
G1 X113.868 Y98.388 E6.80387
G1 X114.785 Y98.109 E6.85169
G1 X115.532 Y97.924 E6.89008
G1 X116.212 Y97.825 E6.92436
G1 X117.184 Y97.729 E6.97309
G1 X117.952 Y97.693 E7.01145
G1 X118.632 Y97.728 E7.04542
G1 X119.582 Y97.821 E7.09304
G1 X120.343 Y97.936 E7.13144
G1 X121.106 Y98.135 E7.17078
G1 X122.136 Y98.463 E7.22471
G1 X122.856 Y98.734 E7.26309
G1 X123.535 Y99.073 E7.30095
G1 X124.371 Y99.546 E7.34887
G1 X125.02 Y99.959 E7.38725
G1 X125.556 Y100.38 E7.42126
G1 X126.284 Y101.007 E7.46919
G1 X126.84 Y101.538 E7.50755
G1 X127.296 Y102.07 E7.5425
G1 X127.888 Y102.831 E7.59061
G1 X128.328 Y103.462 E7.62898
G1 X128.733 Y104.205 E7.6712
G1 X129.247 Y105.289 E7.73106
G1 X129.54 Y106 E7.76942
G1 X129.763 Y106.757 E7.80879
G1 X129.957 Y107.578 E7.85088
G1 X130.094 Y108.335 E7.88926
G1 X130.146 Y108.911 E7.91811
G1 X130.194 Y109.872 E7.96612
G1 X130.192 Y110.641 E8.00448
G1 X130.109 Y111.419 E8.04352
G1 X129.937 Y112.486 E8.09744
G1 X129.775 Y113.238 E8.13582
G1 X129.473 Y114.126 E8.18261
G1 X129.015 Y115.238 E8.24261
G1 X128.686 Y115.933 E8.28097
G1 X128.218 Y116.688 E8.32529
G1 X127.663 Y117.474 E8.37329
G1 X127.187 Y118.079 E8.4117
G1 X126.714 Y118.572 E8.44579
G1 X126.017 Y119.234 E8.49374
G1 X125.433 Y119.734 E8.5321
G1 X124.577 Y120.302 E8.58335
G1 X123.324 Y121.014 E8.65525
G1 X122.636 Y121.359 E8.69365
G1 X121.729 Y121.687 E8.74177
G1 X120.922 Y121.921 E8.78369
G1 X120.173 Y122.097 E8.82207
G1 X119.74 Y122.162 E8.84392
G1 X119.021 Y122.248 E8.88005
G1 X118.253 Y122.299 E8.91845
G1 X117.607 Y122.281 E8.95069
G1 X116.407 Y122.194 E9.01071
G1 X115.644 Y122.098 E9.04908
G1 X114.884 Y121.921 E9.08801
G1 X114.076 Y121.687 E9.12998
G1 X113.349 Y121.435 E9.16837
G1 X112.8 Y121.185 E9.19846
G1 X111.942 Y120.752 E9.24641
G1 X111.274 Y120.371 E9.28478
G1 X110.725 Y119.981 E9.31837
G1 X110.026 Y119.436 E9.36259
G1 X109.652 Y119.757 E9.38718
G1 X109.043 Y120.227 E9.42556
G1 X108.288 Y120.686 E9.46964
G1 X107.389 Y121.161 E9.52037
G1 X106.691 Y121.484 E9.55874
G1 X106.115 Y121.689 E9.58924
G1 X105.25 Y121.956 E9.63441
G1 X104.504 Y122.144 E9.67279
G1 X103.945 Y122.233 E9.70103
G1 X103.133 Y122.33 E9.74183
G1 X102.365 Y122.381 E9.78023
G1 X101.7 Y122.361 E9.81342
G1 X100.57 Y122.276 E9.86996
G1 X99.807 Y122.179 E9.90833
G1 X98.775 Y121.914 E9.96149
G1 X97.545 Y121.502 E10.0262
G1 X96.829 Y121.22 E10.06459
G1 X95.903 Y120.716 E10.11719
G1 X94.89 Y120.067 E10.17721
G1 X94.265 Y119.619 E10.21558
G1 X93.508 Y118.923 E10.26688
G1 X92.673 Y118.041 E10.32748
G1 X92.174 Y117.456 E10.36584
G1 X91.756 Y116.851 E10.40252
G1 X91.336 Y116.173 E10.44231
G1 X90.819 Y115.176 E10.49834
G1 X90.546 Y114.535 E10.5331
G1 X90.282 Y113.812 E10.5715
G1 X90.159 Y113.365 E10.59463
G1 X89.938 Y112.446 E10.64179
G1 X89.797 Y111.69 E10.68016
G1 X89.74 Y111.049 E10.71226
G1 X89.695 Y110.05 E10.76215
G1 X89.701 Y109.281 E10.80052
G1 X89.775 Y108.586 E10.83539
G1 X89.923 Y107.629 E10.8837
G1 X90.08 Y106.876 E10.92208
G1 X90.236 Y106.361 E10.94892
G1 X90.493 Y105.611 E10.98848
G1 X90.779 Y104.898 E11.0268
G1 X91.129 Y104.235 E11.06421
G1 X91.759 Y103.173 E11.12581
G1 X92.185 Y102.532 E11.16421
G1 X92.667 Y101.949 E11.20195
G1 X93.246 Y101.317 E11.24471
G1 X93.794 Y100.778 E11.28306
G0 F3600 X94.075 Y101.064
G1 F1800 X94.673 Y100.592 E11.32107
G1 X95.683 Y99.881 E11.38269
G1 X96.316 Y99.484 E11.41997
G1 X97.047 Y99.132 E11.46044
G1 X97.965 Y98.754 E11.50997
G1 X98.671 Y98.507 E11.54729
G1 X99.182 Y98.378 E11.57358
G1 X100 Y98.205 E11.6153
G1 X100.739 Y98.09 E11.65261
G1 X101.374 Y98.054 E11.68434
G1 X102.507 Y98.042 E11.74087
G1 X103.254 Y98.074 E11.77817
G1 X104.147 Y98.219 E11.82331
G1 X105.31 Y98.486 E11.88284
G1 X106.029 Y98.693 E11.92017
G1 X106.888 Y99.055 E11.96667
G1 X107.974 Y99.601 E12.02732
G1 X108.624 Y99.972 E12.06466
G1 X109.394 Y100.547 E12.1126
G1 X110.032 Y101.095 E12.15456
G1 X110.271 Y100.878 E12.17066
G1 X110.851 Y100.405 E12.208
G1 X111.521 Y99.974 E12.24775
G1 X112.568 Y99.38 E12.3078
G1 X113.237 Y99.046 E12.34511
G1 X113.984 Y98.771 E12.38482
G1 X114.901 Y98.492 E12.43264
G1 X115.628 Y98.313 E12.47
G1 X116.251 Y98.223 E12.5014
G1 X117.223 Y98.127 E12.55013
G1 X117.97 Y98.093 E12.58744
G1 X118.593 Y98.126 E12.61856
G1 X119.543 Y98.219 E12.66618
G1 X120.283 Y98.332 E12.70353
G1 X120.985 Y98.516 E12.73974
G1 X122.015 Y98.844 E12.79367
G1 X122.715 Y99.109 E12.83101
G1 X123.338 Y99.422 E12.86579
G1 X124.174 Y99.895 E12.91371
G1 X124.805 Y100.297 E12.95104
G1 X125.295 Y100.683 E12.98216
G1 X126.023 Y101.31 E13.03009
G1 X126.563 Y101.828 E13.06743
G1 X126.98 Y102.316 E13.09945
G1 X127.572 Y103.077 E13.14755
G1 X127.999 Y103.691 E13.18486
G1 X128.372 Y104.376 E13.22378
G1 X128.886 Y105.46 E13.28363
G1 X129.17 Y106.152 E13.32095
G1 X129.373 Y106.849 E13.35717
G1 X129.567 Y107.67 E13.39925
G1 X129.7 Y108.406 E13.43657
G1 X129.746 Y108.931 E13.46286
G1 X129.794 Y109.892 E13.51086
G1 X129.792 Y110.64 E13.54818
G1 X129.714 Y111.355 E13.58407
G1 X129.542 Y112.422 E13.63799
G1 X129.383 Y113.153 E13.67531
G1 X129.104 Y113.974 E13.71857
G1 X128.646 Y115.086 E13.77857
G1 X128.324 Y115.761 E13.81588
G1 X127.891 Y116.458 E13.85682
G1 X127.336 Y117.244 E13.90482
G1 X126.873 Y117.831 E13.94212
G1 X126.439 Y118.282 E13.97335
G1 X125.742 Y118.944 E14.0213
G1 X125.173 Y119.429 E14.0586
G1 X124.379 Y119.954 E14.10609
G1 X123.126 Y120.666 E14.17799
G1 X122.457 Y121 E14.2153
G1 X121.617 Y121.303 E14.25985
G1 X120.81 Y121.537 E14.30177
G1 X120.082 Y121.707 E14.33907
G1 X119.692 Y121.764 E14.35873
G1 X118.973 Y121.85 E14.39486
G1 X118.227 Y121.899 E14.43216
G1 X117.636 Y121.882 E14.46165
G1 X116.436 Y121.795 E14.52168
G1 X115.694 Y121.701 E14.55899
G1 X114.995 Y121.537 E14.59481
G1 X114.187 Y121.303 E14.63678
G1 X113.48 Y121.057 E14.67413
G1 X112.98 Y120.828 E14.70156
G1 X112.122 Y120.395 E14.74951
G1 X111.473 Y120.023 E14.78683
G1 X110.971 Y119.666 E14.81756
G1 X110.212 Y119.074 E14.86559
G1 X110.024 Y118.911 E14.878
G1 X109.391 Y119.454 E14.91961
G1 X108.798 Y119.91 E14.95693
G1 X108.101 Y120.332 E14.99758
G1 X107.202 Y120.807 E15.04831
G1 X106.523 Y121.121 E15.08563
G1 X105.997 Y121.307 E15.11346
G1 X105.132 Y121.574 E15.15863
G1 X104.406 Y121.756 E15.19597
G1 X103.897 Y121.836 E15.22168
G1 X103.085 Y121.933 E15.26247
G1 X102.339 Y121.981 E15.29977
G1 X101.73 Y121.962 E15.33017
G1 X100.6 Y121.877 E15.3867
G1 X99.858 Y121.781 E15.42403
G1 X98.902 Y121.535 E15.47328
G1 X97.672 Y121.123 E15.53799
G1 X96.976 Y120.847 E15.57535
G1 X96.119 Y120.379 E15.62406
G1 X95.106 Y119.73 E15.68409
G1 X94.498 Y119.293 E15.72144
G1 X93.799 Y118.648 E15.76889
G1 X92.964 Y117.766 E15.82949
G1 X92.479 Y117.197 E15.86679
G1 X92.096 Y116.64 E15.90051
G1 X91.676 Y115.962 E15.9403
G1 X91.187 Y115.019 E15.9933
G1 X90.914 Y114.378 E16.02806
G1 X90.658 Y113.675 E16.06538
G1 X90.548 Y113.272 E16.08622
G1 X90.327 Y112.353 E16.13338
G1 X90.191 Y111.617 E16.17072
G1 X90.14 Y111.031 E16.20007
G1 X90.095 Y110.032 E16.24996
G1 X90.101 Y109.284 E16.28728
G1 X90.17 Y108.647 E16.31924
G1 X90.318 Y107.69 E16.36756
G1 X90.472 Y106.958 E16.40487
G1 X90.614 Y106.491 E16.42923
G1 X90.871 Y105.741 E16.46878
G1 X91.151 Y105.047 E16.50612
G1 X91.473 Y104.439 E16.54044
G1 X92.103 Y103.377 E16.60204
G1 X92.518 Y102.755 E16.63935
G1 X92.962 Y102.219 E16.67407
G1 X93.541 Y101.587 E16.71684
G1 X94.075 Y101.064 E16.75413
G0 F3600 X94.355 Y101.35
G1 F1800 X94.903 Y100.919 E16.78891
G1 X95.913 Y100.208 E16.85053
G1 X96.529 Y99.823 E16.88677
G1 X97.199 Y99.502 E16.92384
G1 X98.117 Y99.124 E16.97337
G1 X98.803 Y98.885 E17.00961
G1 X99.264 Y98.77 E17.03331
G1 X100.082 Y98.597 E17.07503
G1 X100.8 Y98.486 E17.11127
G1 X101.378 Y98.454 E17.14015
G1 X102.511 Y98.442 E17.19668
G1 X103.237 Y98.475 E17.23294
G1 X104.058 Y98.609 E17.27444
G1 X105.221 Y98.876 E17.33397
G1 X105.919 Y99.078 E17.37023
G1 X106.709 Y99.412 E17.41302
G1 X107.795 Y99.958 E17.47366
G1 X108.425 Y100.32 E17.50991
G1 X109.133 Y100.85 E17.55403
G1 X110.039 Y101.629 E17.61364
G1 X110.54 Y101.174 E17.64741
G1 X111.104 Y100.716 E17.68366
G1 X111.718 Y100.322 E17.72005
G1 X112.765 Y99.728 E17.78011
G1 X113.416 Y99.404 E17.81639
G1 X114.101 Y99.154 E17.85277
G1 X115.018 Y98.875 E17.90059
G1 X115.723 Y98.702 E17.9368
G1 X116.29 Y98.621 E17.96538
G1 X117.262 Y98.525 E18.01411
G1 X117.988 Y98.493 E18.05036
G1 X118.554 Y98.524 E18.07864
G1 X119.504 Y98.617 E18.12627
G1 X120.222 Y98.728 E18.16251
G1 X120.864 Y98.897 E18.19563
G1 X121.894 Y99.225 E18.24956
G1 X122.573 Y99.483 E18.2858
G1 X123.141 Y99.77 E18.31755
G1 X123.977 Y100.243 E18.36547
G1 X124.589 Y100.635 E18.40173
G1 X125.034 Y100.986 E18.43001
G1 X125.762 Y101.613 E18.47794
G1 X126.286 Y102.117 E18.51421
G1 X126.664 Y102.562 E18.54334
G1 X127.256 Y103.323 E18.59145
G1 X127.67 Y103.92 E18.62769
G1 X128.011 Y104.547 E18.6633
G1 X128.525 Y105.631 E18.72315
G1 X128.799 Y106.304 E18.7594
G1 X128.984 Y106.941 E18.7925
G1 X129.178 Y107.762 E18.83458
G1 X129.306 Y108.477 E18.87082
G1 X129.347 Y108.951 E18.89456
G1 X129.395 Y109.912 E18.94256
G1 X129.391 Y110.638 E18.97878
G1 X129.319 Y111.291 E19.01156
G1 X129.147 Y112.358 E19.06548
G1 X128.992 Y113.068 E19.10174
G1 X128.734 Y113.822 E19.1415
G1 X128.276 Y114.934 E19.20149
G1 X127.962 Y115.589 E19.23773
G1 X127.564 Y116.227 E19.27525
G1 X127.009 Y117.013 E19.32325
G1 X126.558 Y117.582 E19.35948
G1 X126.163 Y117.992 E19.38788
G1 X125.466 Y118.654 E19.43584
G1 X124.913 Y119.124 E19.47205
G1 X124.182 Y119.606 E19.51573
G1 X122.929 Y120.318 E19.58763
G1 X122.278 Y120.642 E19.62391
G1 X121.506 Y120.919 E19.66483
G1 X120.699 Y121.153 E19.70675
G1 X119.645 Y121.367 E19.7604
G1 X118.926 Y121.453 E19.79653
G1 X118.201 Y121.5 E19.83278
G1 X117.665 Y121.483 E19.85953
G1 X116.465 Y121.396 E19.91956
G1 X115.744 Y121.303 E19.95583
G1 X115.106 Y121.153 E19.98852
G1 X114.298 Y120.919 E20.03049
G1 X113.613 Y120.678 E20.06672
G1 X113.16 Y120.471 E20.09157
G1 X112.302 Y120.038 E20.13952
G1 X111.673 Y119.676 E20.17572
G1 X111.217 Y119.35 E20.20369
G1 X110.458 Y118.758 E20.25171
G1 X110.026 Y118.381 E20.28032
G1 X109.131 Y119.15 E20.33919
G1 X108.554 Y119.592 E20.37545
G1 X107.914 Y119.979 E20.41276
G1 X107.015 Y120.454 E20.46349
G1 X106.355 Y120.757 E20.49972
G1 X105.879 Y120.924 E20.52489
G1 X105.014 Y121.191 E20.57005
G1 X104.309 Y121.367 E20.6063
G1 X103.85 Y121.438 E20.62948
G1 X103.038 Y121.535 E20.67028
G1 X102.313 Y121.582 E20.70652
G1 X101.76 Y121.563 E20.73413
G1 X100.63 Y121.478 E20.79066
G1 X99.91 Y121.384 E20.82689
G1 X99.029 Y121.155 E20.8723
G1 X97.799 Y120.743 E20.93702
G1 X97.124 Y120.475 E20.97325
G1 X96.335 Y120.042 E21.01815
G1 X95.322 Y119.393 E21.07817
G1 X94.732 Y118.968 E21.11445
G1 X94.089 Y118.373 E21.15816
G1 X93.254 Y117.491 E21.21875
G1 X92.785 Y116.937 E21.25497
G1 X92.436 Y116.43 E21.28567
G1 X92.016 Y115.752 E21.32546
G1 X91.555 Y114.862 E21.37547
G1 X91.282 Y114.221 E21.41023
G1 X91.034 Y113.538 E21.44648
G1 X90.937 Y113.178 E21.46508
G1 X90.716 Y112.259 E21.51224
G1 X90.585 Y111.545 E21.54845
G1 X90.54 Y111.013 E21.57509
G1 X90.495 Y110.014 E21.62498
G1 X90.502 Y109.288 E21.6612
G1 X90.566 Y108.708 E21.69031
G1 X90.714 Y107.751 E21.73863
G1 X90.864 Y107.041 E21.77483
G1 X90.992 Y106.621 E21.79674
