;FLAVOR:Marlin
;TIME:1939
;Filament used: 0.810795m
;Layer height: 0.1
;Generated with Cura_SteamEngine 3.1.0
M190 S70
M104 S250
M109 S250
M82 ; absolute extrusion mode
G28 ;Home
G1 Z15.0 F6000 ;Move the platform down 15mm
;Prime the extruder
G92 E0
G1 F200 E3
G92 E0
;LAYER_COUNT:252
;LAYER:0
M107
G0 F3600 X90.477 Y99.599 Z0.3
;TYPE:SKIRT
G1 F1800 X91.056 Y99.125 E0.03733
G1 X92.036 Y98.399 E0.09818
G1 X92.693 Y97.962 E0.13755
G1 X93.34 Y97.618 E0.1741
G1 X94.44 Y97.097 E0.23483
G1 X95.17 Y96.795 E0.27424
G1 X95.689 Y96.631 E0.3014
G1 X96.57 Y96.386 E0.34702
G1 X97.724 Y96.157 E0.40571
G1 X98.634 Y96.047 E0.45144
G1 X99.422 Y95.992 E0.49085
G1 X100.098 Y96.009 E0.52459
G1 X101.527 Y96.106 E0.59605
G1 X102.311 Y96.199 E0.63543
G1 X102.963 Y96.339 E0.6687
G1 X103.847 Y96.569 E0.71427
G1 X104.6 Y96.807 E0.75367
G1 X104.978 Y96.958 E0.77398
G1 X105.901 Y97.357 E0.82415
G1 X106.609 Y97.707 E0.86355
G1 X107.136 Y98.029 E0.89436
G1 X108.149 Y98.705 E0.95512
G1 X108.782 Y99.176 E0.99448
G1 X109.334 Y99.678 E1.03171
G1 X110.106 Y100.45 E1.08618
G1 X110.173 Y100.379 E1.09105
G1 X111.036 Y99.558 E1.15047
G1 X111.635 Y99.043 E1.18989
G1 X112.235 Y98.622 E1.22645
G1 X113.241 Y97.984 E1.28589
G1 X113.928 Y97.595 E1.32527
G1 X114.876 Y97.197 E1.37657
G1 X116.422 Y96.664 E1.45815
G1 X117.18 Y96.445 E1.49752
G1 X118.032 Y96.294 E1.54069
G1 X118.921 Y96.187 E1.58536
G1 X119.709 Y96.132 E1.62477
G1 X120.418 Y96.152 E1.66015
G1 X121.904 Y96.26 E1.73449
G1 X122.688 Y96.357 E1.7739
G1 X123.518 Y96.55 E1.81641
G1 X124.518 Y96.841 E1.86837
G1 X125.264 Y97.099 E1.90775
G1 X125.846 Y97.363 E1.93964
G1 X126.909 Y97.898 E1.99901
G1 X127.595 Y98.288 E2.03838
G1 X128.194 Y98.711 E2.07496
G1 X129.134 Y99.443 E2.1344
G1 X129.732 Y99.959 E2.17381
G1 X130.248 Y100.503 E2.21121
G1 X131.026 Y101.405 E2.27064
G1 X131.511 Y102.028 E2.31003
G1 X131.996 Y102.817 E2.35624
G1 X132.699 Y104.13 E2.43054
G1 X133.036 Y104.844 E2.46993
G1 X133.313 Y105.635 E2.51174
G1 X133.604 Y106.636 E2.56375
G1 X133.786 Y107.404 E2.60313
G1 X133.857 Y107.87 E2.62664
G1 X133.965 Y108.757 E2.67122
G1 X134.02 Y109.545 E2.71063
G1 X134.012 Y110.086 E2.73763
G1 X133.953 Y111.278 E2.79717
G1 X133.875 Y112.063 E2.83653
G1 X133.706 Y112.877 E2.878
G1 X133.365 Y114.173 E2.94486
G1 X133.126 Y114.925 E2.98423
G1 X132.87 Y115.529 E3.01696
G1 X132.487 Y116.337 E3.06157
G1 X132.113 Y117.032 E3.10094
G1 X131.819 Y117.483 E3.1278
G1 X131.134 Y118.457 E3.18721
G1 X130.648 Y119.079 E3.22659
G1 X130.13 Y119.621 E3.26399
G1 X129.267 Y120.442 E3.32342
G1 X128.668 Y120.957 E3.36283
G1 X127.902 Y121.481 E3.40913
G1 X126.626 Y122.246 E3.48336
G1 X125.929 Y122.617 E3.52275
G1 X124.98 Y122.989 E3.5736
G1 X123.704 Y123.395 E3.64041
G1 X122.94 Y123.596 E3.67982
G1 X122.271 Y123.706 E3.71364
G1 X121.382 Y123.813 E3.75832
G1 X120.594 Y123.868 E3.79773
G1 X119.885 Y123.848 E3.83311
G1 X118.399 Y123.74 E3.90744
G1 X117.615 Y123.643 E3.94686
G1 X116.785 Y123.45 E3.98937
G1 X115.785 Y123.159 E4.04133
G1 X115.039 Y122.901 E4.08071
G1 X114.457 Y122.637 E4.1126
G1 X113.392 Y122.101 E4.17208
G1 X112.706 Y121.711 E4.21145
G1 X112.103 Y121.286 E4.24825
G1 X111.164 Y120.554 E4.30765
G1 X110.567 Y120.037 E4.34705
G1 X110.117 Y119.563 E4.37966
G1 X110.051 Y119.636 E4.38457
G1 X109.218 Y120.428 E4.44191
G1 X108.275 Y121.201 E4.50275
G1 X107.64 Y121.67 E4.54213
G1 X107.009 Y122.047 E4.5788
G1 X105.934 Y122.622 E4.63962
G1 X105.22 Y122.959 E4.67902
G1 X104.529 Y123.205 E4.71561
G1 X103.364 Y123.56 E4.77637
G1 X102.598 Y123.752 E4.81577
G1 X102.026 Y123.843 E4.84466
G1 X101.116 Y123.953 E4.89039
G1 X100.328 Y124.008 E4.9298
G1 X99.652 Y123.991 E4.96354
G1 X98.223 Y123.894 E5.035
G1 X97.439 Y123.801 E5.07438
G1 X96.787 Y123.661 E5.10765
G1 X95.903 Y123.431 E5.15323
G1 X95.15 Y123.193 E5.19263
G1 X94.772 Y123.042 E5.21293
G1 X93.849 Y122.643 E5.2631
G1 X93.141 Y122.293 E5.3025
G1 X92.613 Y121.97 E5.33338
G1 X91.599 Y121.293 E5.39421
G1 X90.965 Y120.822 E5.43361
G1 X90.415 Y120.321 E5.47073
G1 X89.553 Y119.459 E5.53155
G1 X89.023 Y118.873 E5.57097
G1 X88.688 Y118.431 E5.59864
G1 X88.162 Y117.683 E5.64426
G1 X87.741 Y117.015 E5.68365
G1 X87.413 Y116.361 E5.72015
G1 X86.796 Y114.971 E5.79603
G1 X86.512 Y114.233 E5.83548
G1 X86.314 Y113.511 E5.87283
G1 X86.114 Y112.618 E5.91848
G1 X85.98 Y111.839 E5.95792
G1 X85.936 Y111.334 E5.98321
G1 X85.875 Y110.206 E6.03957
G1 X85.873 Y109.417 E6.07893
G1 X85.932 Y108.755 E6.11209
G1 X86.093 Y107.546 E6.17294
G1 X86.237 Y106.77 E6.21232
G1 X86.384 Y106.238 E6.23985
G1 X86.658 Y105.366 E6.28545
G1 X86.932 Y104.625 E6.32487
G1 X87.28 Y103.917 E6.36423
G1 X88.062 Y102.509 E6.44458
G1 X88.48 Y101.839 E6.48398
G1 X89.1 Y101.059 E6.53369
G1 X89.918 Y100.156 E6.59447
G1 X90.477 Y99.599 E6.63384
G0 F3600 X90.76 Y99.882
G1 F1800 X91.294 Y99.447 E6.66821
G1 X92.274 Y98.721 E6.72905
G1 X92.915 Y98.296 E6.76742
G1 X93.511 Y97.979 E6.8011
G1 X94.611 Y97.458 E6.86183
G1 X95.323 Y97.166 E6.90022
G1 X95.796 Y97.017 E6.92496
G1 X96.677 Y96.772 E6.97058
G1 X97.772 Y96.554 E7.02628
G1 X98.682 Y96.444 E7.07201
G1 X99.449 Y96.392 E7.11037
G1 X100.071 Y96.408 E7.14141
G1 X101.5 Y96.505 E7.21287
G1 X102.264 Y96.597 E7.25126
G1 X102.862 Y96.726 E7.28178
G1 X103.746 Y96.956 E7.32735
G1 X104.819 Y97.325 E7.38396
G1 X105.742 Y97.724 E7.43413
G1 X106.432 Y98.066 E7.47255
G1 X106.914 Y98.362 E7.50077
G1 X107.927 Y99.038 E7.56153
G1 X108.543 Y99.497 E7.59985
G1 X109.052 Y99.96 E7.63418
G1 X109.913 Y100.821 E7.69493
G1 X110.102 Y101.031 E7.70902
G1 X110.448 Y100.669 E7.73401
G1 X111.311 Y99.848 E7.79343
G1 X111.896 Y99.347 E7.83186
G1 X112.449 Y98.96 E7.86553
G1 X113.455 Y98.322 E7.92496
G1 X114.125 Y97.944 E7.96334
G1 X115.006 Y97.575 E8.011
G1 X116.552 Y97.042 E8.09258
G1 X117.291 Y96.83 E8.13094
G1 X118.08 Y96.691 E8.17091
G1 X118.969 Y96.584 E8.21558
G1 X119.736 Y96.532 E8.25393
G1 X120.389 Y96.55 E8.28652
G1 X121.875 Y96.658 E8.36086
G1 X122.639 Y96.754 E8.39927
G1 X123.407 Y96.934 E8.43863
G1 X124.407 Y97.225 E8.49059
G1 X125.133 Y97.478 E8.52894
G1 X125.666 Y97.72 E8.55815
G1 X126.729 Y98.255 E8.61752
G1 X127.397 Y98.636 E8.65588
G1 X127.949 Y99.026 E8.6896
G1 X128.889 Y99.758 E8.74904
G1 X129.47 Y100.262 E8.78742
G1 X129.946 Y100.764 E8.82193
G1 X130.724 Y101.666 E8.88136
G1 X131.195 Y102.274 E8.91973
G1 X131.644 Y103.006 E8.96257
G1 X132.347 Y104.319 E9.03687
G1 X132.674 Y105.015 E9.07524
G1 X132.929 Y105.746 E9.11386
G1 X133.22 Y106.747 E9.16587
G1 X133.396 Y107.496 E9.20426
G1 X133.46 Y107.919 E9.2256
G1 X133.568 Y108.806 E9.27018
G1 X133.621 Y109.573 E9.30854
G1 X133.613 Y110.066 E9.33314
G1 X133.554 Y111.258 E9.39268
G1 X133.476 Y112.023 E9.43104
G1 X133.319 Y112.775 E9.46937
G1 X132.978 Y114.071 E9.53623
G1 X132.744 Y114.804 E9.57461
G1 X132.509 Y115.358 E9.60464
G1 X132.126 Y116.166 E9.64925
G1 X131.761 Y116.843 E9.68762
G1 X131.492 Y117.253 E9.71208
G1 X130.807 Y118.227 E9.77149
G1 X130.332 Y118.832 E9.80987
G1 X129.855 Y119.331 E9.84431
G1 X128.992 Y120.152 E9.90373
G1 X128.407 Y120.653 E9.94216
G1 X127.696 Y121.138 E9.9851
G1 X126.42 Y121.903 E10.05932
G1 X125.741 Y122.263 E10.09766
G1 X124.859 Y122.608 E10.14491
G1 X123.583 Y123.014 E10.21172
G1 X122.839 Y123.208 E10.25008
G1 X122.223 Y123.309 E10.28122
G1 X121.334 Y123.416 E10.32589
G1 X120.567 Y123.468 E10.36425
G1 X119.914 Y123.45 E10.39684
G1 X118.428 Y123.342 E10.47117
G1 X117.664 Y123.246 E10.50958
G1 X116.896 Y123.066 E10.54894
G1 X115.896 Y122.775 E10.6009
G1 X115.17 Y122.522 E10.63926
G1 X114.637 Y122.28 E10.66846
G1 X113.572 Y121.744 E10.72794
G1 X112.904 Y121.363 E10.76631
G1 X112.349 Y120.97 E10.80024
G1 X111.41 Y120.238 E10.85964
G1 X110.829 Y119.734 E10.89801
G1 X110.356 Y119.235 E10.93231
G1 X110.121 Y118.963 E10.95024
G1 X109.755 Y119.367 E10.97744
G1 X108.964 Y120.119 E11.03189
G1 X108.021 Y120.892 E11.09272
G1 X107.402 Y121.348 E11.13108
G1 X106.82 Y121.694 E11.16486
G1 X105.745 Y122.269 E11.22568
G1 X105.049 Y122.596 E11.26405
G1 X104.412 Y122.823 E11.29779
G1 X103.247 Y123.178 E11.35855
G1 X102.501 Y123.363 E11.39689
G1 X101.978 Y123.446 E11.42331
G1 X101.068 Y123.556 E11.46904
G1 X100.301 Y123.608 E11.5074
G1 X99.679 Y123.592 E11.53844
G1 X98.25 Y123.495 E11.60989
G1 X97.486 Y123.403 E11.64829
G1 X96.888 Y123.274 E11.67881
G1 X96.004 Y123.044 E11.72438
G1 X94.931 Y122.675 E11.78099
G1 X94.008 Y122.276 E11.83115
G1 X93.318 Y121.934 E11.86958
G1 X92.835 Y121.637 E11.89786
G1 X91.821 Y120.96 E11.95869
G1 X91.204 Y120.501 E11.99706
G1 X90.697 Y120.039 E12.03128
G1 X89.835 Y119.177 E12.0921
G1 X89.321 Y118.605 E12.13046
G1 X89.015 Y118.201 E12.15575
G1 X88.489 Y117.453 E12.20137
G1 X88.08 Y116.801 E12.23977
G1 X87.778 Y116.198 E12.27341
G1 X87.161 Y114.808 E12.34929
G1 X86.886 Y114.09 E12.38764
G1 X86.704 Y113.423 E12.42214
G1 X86.504 Y112.53 E12.46779
G1 X86.375 Y111.772 E12.50615
G1 X86.336 Y111.313 E12.52914
G1 X86.275 Y110.185 E12.58549
G1 X86.273 Y109.415 E12.62391
G1 X86.329 Y108.808 E12.65432
G1 X86.49 Y107.599 E12.71517
G1 X86.631 Y106.843 E12.75354
G1 X86.765 Y106.358 E12.77864
G1 X87.039 Y105.486 E12.82424
G1 X87.308 Y104.765 E12.86264
G1 X87.63 Y104.111 E12.899
G1 X88.412 Y102.703 E12.97936
G1 X88.82 Y102.051 E13.01773
G1 X89.397 Y101.328 E13.06388
G1 X90.215 Y100.425 E13.12467
G1 X90.76 Y99.882 E13.16305
G0 F3600 X91.042 Y100.167
G1 F1800 X91.532 Y99.768 E13.19457
G1 X92.512 Y99.042 E13.25542
G1 X93.136 Y98.63 E13.29273
G1 X93.683 Y98.341 E13.32359
G1 X94.783 Y97.82 E13.38431
G1 X95.475 Y97.536 E13.42163
G1 X95.904 Y97.402 E13.44406
G1 X96.785 Y97.157 E13.48968
G1 X97.82 Y96.952 E13.54232
G1 X98.73 Y96.842 E13.58805
G1 X99.476 Y96.792 E13.62535
G1 X100.044 Y96.807 E13.6537
G1 X101.473 Y96.904 E13.72515
G1 X102.216 Y96.995 E13.7625
G1 X102.762 Y97.114 E13.79038
G1 X103.646 Y97.344 E13.83595
G1 X104.661 Y97.693 E13.8895
G1 X105.584 Y98.092 E13.93966
G1 X106.253 Y98.425 E13.97695
G1 X106.692 Y98.694 E14.00263
G1 X107.705 Y99.37 E14.06339
G1 X108.304 Y99.818 E14.10071
G1 X108.769 Y100.243 E14.13214
G1 X109.63 Y101.104 E14.19289
G1 X110.11 Y101.639 E14.22875
G1 X110.286 Y101.415 E14.24296
G1 X110.724 Y100.958 E14.27454
G1 X111.587 Y100.137 E14.33397
G1 X112.156 Y99.651 E14.3713
G1 X112.663 Y99.298 E14.40212
G1 X113.669 Y98.66 E14.46155
G1 X114.321 Y98.293 E14.49888
G1 X115.136 Y97.953 E14.54294
G1 X116.682 Y97.42 E14.62452
G1 X117.402 Y97.215 E14.66187
G1 X118.128 Y97.088 E14.69864
G1 X119.017 Y96.981 E14.74331
G1 X119.763 Y96.932 E14.78061
G1 X120.36 Y96.949 E14.81041
G1 X121.846 Y97.057 E14.88474
G1 X122.589 Y97.151 E14.9221
G1 X123.295 Y97.318 E14.9583
G1 X124.295 Y97.609 E15.01026
G1 X125.001 Y97.856 E15.04757
G1 X125.486 Y98.077 E15.07416
G1 X126.549 Y98.612 E15.13354
G1 X127.198 Y98.984 E15.17086
G1 X127.703 Y99.342 E15.20174
G1 X128.643 Y100.074 E15.26118
G1 X129.208 Y100.565 E15.29852
G1 X129.643 Y101.025 E15.33011
G1 X130.421 Y101.927 E15.38954
G1 X130.878 Y102.519 E15.42685
G1 X131.291 Y103.195 E15.46637
G1 X131.994 Y104.508 E15.54067
G1 X132.311 Y105.185 E15.57797
G1 X132.545 Y105.858 E15.61352
G1 X132.836 Y106.859 E15.66552
G1 X133.006 Y107.587 E15.70282
G1 X133.063 Y107.967 E15.72199
G1 X133.171 Y108.854 E15.76657
G1 X133.221 Y109.6 E15.80387
G1 X133.213 Y110.046 E15.82613
G1 X133.154 Y111.238 E15.88567
G1 X133.078 Y111.982 E15.92298
G1 X132.933 Y112.673 E15.95821
G1 X132.592 Y113.969 E16.02506
G1 X132.363 Y114.681 E16.06238
G1 X132.147 Y115.186 E16.08978
G1 X131.764 Y115.994 E16.13439
G1 X131.408 Y116.652 E16.17172
G1 X131.165 Y117.023 E16.19384
G1 X130.48 Y117.997 E16.25325
G1 X130.017 Y118.585 E16.29059
G1 X129.579 Y119.042 E16.32217
G1 X128.716 Y119.863 E16.38159
G1 X128.147 Y120.349 E16.41893
G1 X127.49 Y120.795 E16.45854
G1 X126.214 Y121.56 E16.53277
G1 X125.553 Y121.91 E16.57008
G1 X124.737 Y122.226 E16.61374
G1 X123.461 Y122.632 E16.68054
G1 X122.737 Y122.821 E16.71788
G1 X122.175 Y122.912 E16.74628
G1 X121.286 Y123.019 E16.79095
G1 X120.54 Y123.068 E16.82825
G1 X119.943 Y123.051 E16.85805
G1 X118.457 Y122.943 E16.93238
G1 X117.714 Y122.849 E16.96974
G1 X117.008 Y122.682 E17.00594
G1 X116.008 Y122.391 E17.0579
G1 X115.302 Y122.144 E17.09521
G1 X114.817 Y121.923 E17.1218
G1 X113.752 Y121.387 E17.18129
G1 X113.103 Y121.015 E17.21861
G1 X112.595 Y120.655 E17.24967
G1 X111.656 Y119.923 E17.30907
G1 X111.092 Y119.432 E17.34638
G1 X110.659 Y118.974 E17.37782
G1 X110.12 Y118.349 E17.419
G1 X109.867 Y118.647 E17.4385
G1 X109.458 Y119.098 E17.46887
G1 X108.711 Y119.81 E17.52036
G1 X107.768 Y120.583 E17.58119
G1 X107.165 Y121.025 E17.61849
G1 X106.632 Y121.341 E17.64941
G1 X105.557 Y121.916 E17.71023
G1 X104.879 Y122.234 E17.74759
G1 X104.295 Y122.44 E17.77848
G1 X103.13 Y122.795 E17.83924
G1 X102.404 Y122.975 E17.87656
G1 X101.93 Y123.048 E17.90049
G1 X101.02 Y123.158 E17.94622
G1 X100.274 Y123.208 E17.98352
G1 X99.706 Y123.193 E18.01187
G1 X98.277 Y123.096 E18.08333
G1 X97.534 Y123.005 E18.12067
G1 X96.988 Y122.886 E18.14855
G1 X96.104 Y122.656 E18.19412
G1 X95.089 Y122.307 E18.24767
G1 X94.166 Y121.908 E18.29784
G1 X93.497 Y121.575 E18.33512
G1 X93.057 Y121.305 E18.36087
G1 X92.043 Y120.628 E18.4217
G1 X91.444 Y120.18 E18.45902
G1 X90.98 Y119.756 E18.49038
G1 X90.118 Y118.894 E18.5512
G1 X89.618 Y118.337 E18.58854
G1 X89.342 Y117.971 E18.61141
G1 X88.816 Y117.223 E18.65703
G1 X88.419 Y116.589 E18.69435
G1 X88.144 Y116.036 E18.72516
G1 X87.527 Y114.646 E18.80104
G1 X87.26 Y113.947 E18.83837
G1 X87.094 Y113.336 E18.86995
G1 X86.894 Y112.443 E18.91561
G1 X86.77 Y111.705 E18.95295
G1 X86.735 Y111.291 E18.97367
G1 X86.674 Y110.163 E19.03003
G1 X86.674 Y109.415 E19.06735
G1 X86.725 Y108.861 E19.09511
G1 X86.886 Y107.652 E19.15596
G1 X87.024 Y106.917 E19.19327
G1 X87.147 Y106.478 E19.21601
G1 X87.421 Y105.606 E19.26161
G1 X87.683 Y104.905 E19.29895
G1 X87.979 Y104.305 E19.33233
G1 X88.761 Y102.897 E19.41268
G1 X89.159 Y102.264 E19.44998
G1 X89.693 Y101.596 E19.49265
G1 X90.511 Y100.693 E19.55344
G1 X91.042 Y100.167 E19.59073
G0 F3600 X91.324 Y100.451
G1 F1800 X91.77 Y100.09 E19.61935
G1 X92.75 Y99.364 E19.6802
G1 X93.357 Y98.964 E19.71647
G1 X93.854 Y98.702 E19.7445
G1 X94.954 Y98.181 E19.80522
G1 X95.626 Y97.907 E19.84143
G1 X96.011 Y97.787 E19.86155
G1 X96.892 Y97.542 E19.90717
G1 X97.868 Y97.349 E19.9568
G1 X98.778 Y97.239 E20.00253
G1 X99.503 Y97.191 E20.03878
G1 X100.017 Y97.206 E20.06444
G1 X101.446 Y97.303 E20.13589
G1 X102.167 Y97.392 E20.17214
G1 X102.661 Y97.501 E20.19738
G1 X103.545 Y97.731 E20.24295
G1 X104.502 Y98.06 E20.29344
G1 X105.425 Y98.459 E20.3436
G1 X106.075 Y98.783 E20.37984
G1 X106.47 Y99.027 E20.403
G1 X107.483 Y99.703 E20.46376
G1 X108.064 Y100.139 E20.5
G1 X108.486 Y100.526 E20.52856
G1 X109.347 Y101.387 E20.58931
G1 X109.831 Y101.928 E20.62553
G1 X110.077 Y102.255 E20.64594
G1 X110.106 Y102.296 E20.64845
G1 X110.15 Y102.233 E20.65228
G1 X110.6 Y101.663 E20.68851
G1 X111 Y101.248 E20.71727
G1 X111.863 Y100.427 E20.7767
G1 X112.416 Y99.956 E20.81294
G1 X112.877 Y99.635 E20.84096
G1 X113.883 Y98.997 E20.90039
G1 X114.517 Y98.643 E20.93662
G1 X115.267 Y98.331 E20.97715
G1 X116.813 Y97.798 E21.05873
G1 X117.512 Y97.6 E21.09498
G1 X118.175 Y97.485 E21.12855
G1 X119.064 Y97.378 E21.17322
G1 X119.789 Y97.331 E21.20947
G1 X120.331 Y97.348 E21.23652
G1 X121.817 Y97.456 E21.31085
G1 X122.538 Y97.549 E21.34712
G1 X123.183 Y97.702 E21.38019
G1 X124.183 Y97.993 E21.43215
G1 X124.868 Y98.234 E21.46838
G1 X125.306 Y98.435 E21.49243
G1 X126.369 Y98.97 E21.5518
G1 X126.999 Y99.331 E21.58802
G1 X127.457 Y99.658 E21.6161
G1 X128.397 Y100.39 E21.67554
G1 X128.945 Y100.867 E21.71178
G1 X129.34 Y101.286 E21.74051
G1 X130.118 Y102.188 E21.79994
G1 X130.561 Y102.764 E21.83619
G1 X130.938 Y103.384 E21.87239
G1 X131.641 Y104.697 E21.9467
G1 X131.949 Y105.355 E21.98294
G1 X132.161 Y105.97 E22.0154
G1 X132.452 Y106.971 E22.06741
G1 X132.666 Y108.015 E22.12057
G1 X132.774 Y108.902 E22.16515
G1 X132.822 Y109.627 E22.2014
G1 X132.814 Y110.026 E22.22131
G1 X132.755 Y111.218 E22.28086
G1 X132.679 Y111.941 E22.31713
G1 X132.546 Y112.571 E22.34925
G1 X132.205 Y113.867 E22.41611
G1 X131.982 Y114.559 E22.45238
G1 X131.786 Y115.015 E22.47714
G1 X131.403 Y115.823 E22.52175
G1 X131.056 Y116.461 E22.55799
