;FLAVOR:Marlin
;TIME:4931
;Filament used: 2.6053m
;Layer height: 0.1
;Generated with Cura_SteamEngine 3.1.0
M190 S70
M104 S250
M109 S250
M82 ; absolute extrusion mode
G28 ;Home
G1 Z15.0 F6000 ;Move the platform down 15mm
;Prime the extruder
G92 E0
G1 F200 E3
G92 E0
;LAYER_COUNT:249
;LAYER:0
M107
G0 F3600 X92.123 Y91.849 Z0.3
;TYPE:SKIRT
G1 F1800 X92.722 Y91.334 E0.03941
G1 X93.37 Y90.883 E0.0788
G1 X94.061 Y90.499 E0.11824
G1 X94.786 Y90.187 E0.15762
G1 X95.539 Y89.95 E0.197
G1 X96.313 Y89.791 E0.23642
G1 X97.098 Y89.71 E0.27579
G1 X97.5 Y89.7 E0.29586
G1 X122.5 Y89.7 E1.54311
G1 X123.289 Y89.74 E1.58252
G1 X124.069 Y89.859 E1.62189
G1 X124.834 Y90.057 E1.66131
G1 X125.574 Y90.331 E1.70068
G1 X126.283 Y90.679 E1.74008
G1 X126.954 Y91.097 E1.77953
G1 X127.578 Y91.58 E1.81889
G1 X128.151 Y92.123 E1.85828
G1 X128.666 Y92.722 E1.89769
G1 X129.117 Y93.37 E1.93708
G1 X129.501 Y94.061 E1.97652
G1 X129.813 Y94.786 E2.01589
G1 X130.05 Y95.539 E2.05528
G1 X130.209 Y96.313 E2.0947
G1 X130.29 Y97.098 E2.13407
G1 X130.3 Y97.5 E2.15413
G1 X130.3 Y122.5 E3.40139
G1 X130.26 Y123.289 E3.4408
G1 X130.141 Y124.069 E3.48017
G1 X129.943 Y124.834 E3.51959
G1 X129.669 Y125.574 E3.55896
G1 X129.321 Y126.283 E3.59836
G1 X128.903 Y126.954 E3.6378
G1 X128.42 Y127.578 E3.67717
G1 X127.877 Y128.151 E3.71655
G1 X127.278 Y128.666 E3.75597
G1 X126.63 Y129.117 E3.79535
G1 X125.939 Y129.501 E3.83479
G1 X125.214 Y129.813 E3.87417
G1 X124.461 Y130.05 E3.91355
G1 X123.687 Y130.209 E3.95298
G1 X122.902 Y130.29 E3.99235
G1 X122.5 Y130.3 E4.01241
G1 X97.5 Y130.3 E5.25966
G1 X96.711 Y130.26 E5.29908
G1 X95.931 Y130.141 E5.33844
G1 X95.166 Y129.943 E5.37787
G1 X94.426 Y129.669 E5.41724
G1 X93.717 Y129.321 E5.45664
G1 X93.046 Y128.903 E5.49608
G1 X92.422 Y128.42 E5.53545
G1 X91.849 Y127.877 E5.57483
G1 X91.334 Y127.278 E5.61424
G1 X90.883 Y126.63 E5.65363
G1 X90.499 Y125.939 E5.69307
G1 X90.187 Y125.214 E5.73245
G1 X89.95 Y124.461 E5.77183
G1 X89.791 Y123.687 E5.81125
G1 X89.71 Y122.902 E5.85062
G1 X89.7 Y122.5 E5.87069
G1 X89.7 Y97.5 E7.11794
G1 X89.74 Y96.711 E7.15736
G1 X89.859 Y95.931 E7.19672
G1 X90.057 Y95.166 E7.23614
G1 X90.331 Y94.426 E7.27551
G1 X90.679 Y93.717 E7.31492
G1 X91.097 Y93.046 E7.35436
G1 X91.58 Y92.422 E7.39372
G1 X92.123 Y91.849 E7.43311
G0 F3600 X92.516 Y92.03
G1 F1800 X93.111 Y91.542 E7.4715
G1 X93.753 Y91.119 E7.50986
G1 X94.436 Y90.764 E7.54826
G1 X95.151 Y90.483 E7.58659
G1 X95.893 Y90.277 E7.62501
G1 X96.651 Y90.149 E7.66336
G1 X97.5 Y90.1 E7.70579
G1 X122.5 Y90.1 E8.95304
G1 X123.268 Y90.14 E8.99141
G1 X124.028 Y90.259 E9.02979
G1 X124.771 Y90.457 E9.06815
G1 X125.49 Y90.731 E9.10654
G1 X126.176 Y91.078 E9.14489
G1 X126.823 Y91.494 E9.18327
G1 X127.423 Y91.975 E9.22163
G1 X127.97 Y92.516 E9.26001
G1 X128.458 Y93.111 E9.29841
G1 X128.881 Y93.753 E9.33676
G1 X129.236 Y94.436 E9.37517
G1 X129.517 Y95.151 E9.41349
G1 X129.723 Y95.893 E9.45191
G1 X129.851 Y96.651 E9.49026
G1 X129.9 Y97.5 E9.53269
G1 X129.9 Y122.5 E10.77995
G1 X129.86 Y123.268 E10.81831
G1 X129.741 Y124.028 E10.85669
G1 X129.543 Y124.771 E10.89505
G1 X129.269 Y125.49 E10.93344
G1 X128.922 Y126.176 E10.9718
G1 X128.506 Y126.823 E11.01017
G1 X128.025 Y127.423 E11.04854
G1 X127.484 Y127.97 E11.08692
G1 X126.889 Y128.458 E11.12531
G1 X126.247 Y128.881 E11.16367
G1 X125.564 Y129.236 E11.20207
G1 X124.849 Y129.517 E11.2404
G1 X124.107 Y129.723 E11.27882
G1 X123.349 Y129.851 E11.31717
G1 X122.5 Y129.9 E11.3596
G1 X97.5 Y129.9 E12.60685
G1 X96.732 Y129.86 E12.64522
G1 X95.972 Y129.741 E12.6836
G1 X95.229 Y129.543 E12.72196
G1 X94.51 Y129.269 E12.76035
G1 X93.824 Y128.922 E12.7987
G1 X93.177 Y128.506 E12.83708
G1 X92.577 Y128.025 E12.87544
G1 X92.03 Y127.484 E12.91383
G1 X91.542 Y126.889 E12.95222
G1 X91.119 Y126.247 E12.99057
G1 X90.764 Y125.564 E13.02898
G1 X90.483 Y124.849 E13.0673
G1 X90.277 Y124.107 E13.10572
G1 X90.149 Y123.349 E13.14408
G1 X90.1 Y122.5 E13.1865
G1 X90.1 Y97.5 E14.43376
G1 X90.14 Y96.732 E14.47213
G1 X90.259 Y95.972 E14.5105
G1 X90.457 Y95.229 E14.54887
G1 X90.731 Y94.51 E14.58725
G1 X91.078 Y93.824 E14.62561
G1 X91.494 Y93.177 E14.66398
G1 X91.975 Y92.577 E14.70235
G1 X92.516 Y92.03 E14.74073
G0 F3600 X92.908 Y92.216
G1 F1800 X93.498 Y91.757 E14.77802
G1 X94.134 Y91.362 E14.81538
G1 X94.808 Y91.038 E14.85269
G1 X95.513 Y90.788 E14.89
G1 X96.241 Y90.614 E14.92735
G1 X96.983 Y90.519 E14.96467
G1 X97.5 Y90.5 E14.99048
G1 X122.5 Y90.5 E16.23773
G1 X123.247 Y90.54 E16.27506
G1 X123.985 Y90.659 E16.31235
G1 X124.707 Y90.857 E16.3497
G1 X125.403 Y91.13 E16.387
G1 X126.066 Y91.477 E16.42433
G1 X126.689 Y91.892 E16.46168
G1 X127.263 Y92.371 E16.49898
G1 X127.784 Y92.908 E16.53631
G1 X128.243 Y93.498 E16.5736
G1 X128.638 Y94.134 E16.61095
G1 X128.962 Y94.808 E16.64826
G1 X129.212 Y95.513 E16.68558
G1 X129.386 Y96.241 E16.72292
G1 X129.481 Y96.983 E16.76024
G1 X129.5 Y97.5 E16.78605
G1 X129.5 Y122.5 E18.03331
G1 X129.46 Y123.247 E18.07063
G1 X129.341 Y123.985 E18.10792
G1 X129.143 Y124.707 E18.14528
G1 X128.87 Y125.403 E18.18257
G1 X128.523 Y126.066 E18.21991
G1 X128.108 Y126.689 E18.25725
G1 X127.629 Y127.263 E18.29455
G1 X127.092 Y127.784 E18.33188
G1 X126.502 Y128.243 E18.36917
G1 X125.866 Y128.638 E18.40653
G1 X125.192 Y128.962 E18.44384
G1 X124.487 Y129.212 E18.48115
G1 X123.759 Y129.386 E18.5185
G1 X123.017 Y129.481 E18.55582
G1 X122.5 Y129.5 E18.58163
G1 X97.5 Y129.5 E19.82888
G1 X96.753 Y129.46 E19.86621
G1 X96.015 Y129.341 E19.9035
G1 X95.293 Y129.143 E19.94085
G1 X94.597 Y128.87 E19.97815
G1 X93.934 Y128.523 E20.01548
G1 X93.311 Y128.108 E20.05283
G1 X92.737 Y127.629 E20.09013
G1 X92.216 Y127.092 E20.12746
G1 X91.757 Y126.502 E20.16475
G1 X91.362 Y125.866 E20.2021
G1 X91.038 Y125.192 E20.23941
G1 X90.788 Y124.487 E20.27673
G1 X90.614 Y123.759 E20.31407
G1 X90.519 Y123.017 E20.35139
G1 X90.5 Y122.5 E20.3772
G1 X90.5 Y97.5 E21.62446
G1 X90.54 Y96.753 E21.66178
G1 X90.659 Y96.015 E21.69908
G1 X90.857 Y95.293 E21.73643
G1 X91.13 Y94.597 E21.77373
G1 X91.477 Y93.934 E21.81106
G1 X91.892 Y93.311 E21.84841
G1 X92.371 Y92.737 E21.8857
G1 X92.908 Y92.216 E21.92303
G0 F3600 X92.765 Y92.902
G1 F1800 X93.299 Y92.409 E21.95929
G1 X93.884 Y91.979 E21.99551
G1 X94.513 Y91.615 E22.03177
G1 X95.178 Y91.322 E22.06802
G1 X95.871 Y91.104 E22.10427
G1 X96.583 Y90.964 E22.14047
G1 X97.5 Y90.9 E22.18633
G1 X122.5 Y90.9 E23.43359
G1 X123.225 Y90.94 E23.46981
G1 X123.942 Y91.059 E23.50607
G1 X124.641 Y91.257 E23.54232
G1 X125.314 Y91.53 E23.57855
G1 X125.953 Y91.875 E23.61478
G1 X126.55 Y92.289 E23.65103
G1 X127.098 Y92.765 E23.68724
G1 X127.591 Y93.299 E23.7235
G1 X128.021 Y93.884 E23.75972
G1 X128.385 Y94.513 E23.79598
G1 X128.678 Y95.178 E23.83223
G1 X128.896 Y95.871 E23.86848
G1 X129.036 Y96.583 E23.90468
G1 X129.1 Y97.5 E23.95054
G1 X129.1 Y122.5 E25.19779
G1 X129.06 Y123.225 E25.23402
G1 X128.941 Y123.942 E25.27028
G1 X128.743 Y124.641 E25.30652
G1 X128.47 Y125.314 E25.34276
G1 X128.125 Y125.953 E25.37899
G1 X127.711 Y126.55 E25.41523
G1 X127.235 Y127.098 E25.45145
G1 X126.701 Y127.591 E25.48771
G1 X126.116 Y128.021 E25.52393
G1 X125.487 Y128.385 E25.56018
G1 X124.822 Y128.678 E25.59644
G1 X124.129 Y128.896 E25.63268
G1 X123.417 Y129.036 E25.66888
G1 X122.5 Y129.1 E25.71475
G1 X97.5 Y129.1 E26.962
G1 X96.775 Y129.06 E26.99823
G1 X96.058 Y128.941 E27.03449
G1 X95.359 Y128.743 E27.07073
G1 X94.686 Y128.47 E27.10697
G1 X94.047 Y128.125 E27.14319
G1 X93.45 Y127.711 E27.17944
G1 X92.902 Y127.235 E27.21565
G1 X92.409 Y126.701 E27.25191
G1 X91.979 Y126.116 E27.28813
G1 X91.615 Y125.487 E27.32439
G1 X91.322 Y124.822 E27.36065
G1 X91.104 Y124.129 E27.39689
G1 X90.964 Y123.417 E27.43309
G1 X90.9 Y122.5 E27.47895
G1 X90.9 Y97.5 E28.72621
G1 X90.94 Y96.775 E28.76243
G1 X91.059 Y96.058 E28.79869
G1 X91.257 Y95.359 E28.83494
G1 X91.53 Y94.686 E28.87117
G1 X91.875 Y94.047 E28.9074
G1 X92.289 Y93.45 E28.94365
G1 X92.765 Y92.902 E28.97986
G0 F3600 X93.159 Y93.073
G1 F1800 X93.689 Y92.609 E29.015
G1 X94.268 Y92.209 E29.05011
G1 X94.889 Y91.877 E29.08525
G1 X95.543 Y91.617 E29.12036
G1 X96.223 Y91.433 E29.1555
G1 X96.919 Y91.327 E29.19063
G1 X97.5 Y91.3 E29.21964
G1 X122.5 Y91.3 E30.4669
G1 X123.203 Y91.34 E30.50203
G1 X123.897 Y91.459 E30.53716
G1 X124.572 Y91.657 E30.57225
G1 X125.221 Y91.929 E30.60736
G1 X125.835 Y92.274 E30.6425
G1 X126.406 Y92.685 E30.6776
G1 X126.927 Y93.159 E30.71274
G1 X127.391 Y93.689 E30.74788
G1 X127.791 Y94.268 E30.78299
G1 X128.123 Y94.889 E30.81812
G1 X128.383 Y95.543 E30.85323
G1 X128.567 Y96.223 E30.88838
G1 X128.673 Y96.919 E30.9235
G1 X128.7 Y97.5 E30.95252
G1 X128.7 Y122.5 E32.19978
G1 X128.66 Y123.203 E32.2349
G1 X128.541 Y123.897 E32.27003
G1 X128.343 Y124.572 E32.30513
G1 X128.071 Y125.221 E32.34024
G1 X127.726 Y125.835 E32.37537
G1 X127.315 Y126.406 E32.41047
G1 X126.841 Y126.927 E32.44561
G1 X126.311 Y127.391 E32.48076
G1 X125.732 Y127.791 E32.51587
G1 X125.111 Y128.123 E32.551
G1 X124.457 Y128.383 E32.58611
G1 X123.777 Y128.567 E32.62125
G1 X123.081 Y128.673 E32.65638
G1 X122.5 Y128.7 E32.6854
G1 X97.5 Y128.7 E33.93265
G1 X96.797 Y128.66 E33.96778
G1 X96.103 Y128.541 E34.00291
G1 X95.428 Y128.343 E34.038
G1 X94.779 Y128.071 E34.07311
G1 X94.165 Y127.726 E34.10825
G1 X93.594 Y127.315 E34.14335
G1 X93.073 Y126.841 E34.17849
G1 X92.609 Y126.311 E34.21363
G1 X92.209 Y125.732 E34.24874
G1 X91.877 Y125.111 E34.28387
G1 X91.617 Y124.457 E34.31899
G1 X91.433 Y123.777 E34.35413
G1 X91.327 Y123.081 E34.38925
G1 X91.3 Y122.5 E34.41827
G1 X91.3 Y97.5 E35.66553
G1 X91.34 Y96.797 E35.70066
G1 X91.459 Y96.103 E35.73579
G1 X91.657 Y95.428 E35.77088
G1 X91.929 Y94.779 E35.80599
G1 X92.274 Y94.165 E35.84113
G1 X92.685 Y93.594 E35.87622
G1 X93.159 Y93.073 E35.91137
G0 F3600 X93.553 Y93.251
G1 F1800 X94.078 Y92.817 E35.94535
G1 X94.65 Y92.448 E35.97931
G1 X95.262 Y92.149 E36.01329
G1 X95.904 Y91.924 E36.04723
G1 X96.569 Y91.775 E36.08123
G1 X97.5 Y91.7 E36.12783
G1 X122.5 Y91.7 E37.37508
G1 X123.18 Y91.74 E37.40907
G1 X123.85 Y91.859 E37.44302
G1 X124.502 Y92.056 E37.477
G1 X125.126 Y92.328 E37.51096
G1 X125.714 Y92.672 E37.54494
G1 X126.258 Y93.082 E37.57893
G1 X126.749 Y93.553 E37.61287
G1 X127.183 Y94.078 E37.64686
G1 X127.552 Y94.65 E37.68082
G1 X127.851 Y95.262 E37.7148
G1 X128.076 Y95.904 E37.74874
G1 X128.225 Y96.569 E37.78274
G1 X128.3 Y97.5 E37.82934
G1 X128.3 Y122.5 E39.07659
G1 X128.26 Y123.18 E39.11058
G1 X128.141 Y123.85 E39.14453
G1 X127.944 Y124.502 E39.17851
G1 X127.672 Y125.126 E39.21247
G1 X127.328 Y125.714 E39.24645
G1 X126.918 Y126.258 E39.28044
G1 X126.447 Y126.749 E39.31438
G1 X125.922 Y127.183 E39.34837
G1 X125.35 Y127.552 E39.38233
G1 X124.738 Y127.851 E39.41631
G1 X124.096 Y128.076 E39.45025
G1 X123.431 Y128.225 E39.48425
G1 X122.5 Y128.3 E39.53085
G1 X97.5 Y128.3 E40.7781
G1 X96.82 Y128.26 E40.81209
G1 X96.15 Y128.141 E40.84604
G1 X95.498 Y127.944 E40.88002
G1 X94.874 Y127.672 E40.91398
G1 X94.286 Y127.328 E40.94796
G1 X93.742 Y126.918 E40.98195
G1 X93.251 Y126.447 E41.01589
G1 X92.817 Y125.922 E41.04988
G1 X92.448 Y125.35 E41.08384
G1 X92.149 Y124.738 E41.11782
G1 X91.924 Y124.096 E41.15176
G1 X91.775 Y123.431 E41.18576
G1 X91.7 Y122.5 E41.23236
G1 X91.7 Y97.5 E42.47961
G1 X91.74 Y96.82 E42.51359
G1 X91.859 Y96.15 E42.54754
G1 X92.056 Y95.498 E42.58153
G1 X92.328 Y94.874 E42.61549
G1 X92.672 Y94.286 E42.64947
G1 X93.082 Y93.742 E42.68346
G1 X93.553 Y93.251 E42.7174
G0 F3600 X93.945 Y93.435
G1 F1800 X94.465 Y93.034 E42.75016
G1 X95.029 Y92.698 E42.78292
G1 X95.631 Y92.434 E42.81571
G1 X96.26 Y92.244 E42.84849
G1 X96.907 Y92.133 E42.88124
G1 X97.5 Y92.1 E42.91087
G1 X122.5 Y92.1 E44.15813
G1 X123.156 Y92.14 E44.19092
G1 X123.802 Y92.259 E44.22369
G1 X124.429 Y92.456 E44.25648
G1 X125.027 Y92.728 E44.28925
G1 X125.588 Y93.07 E44.32203
G1 X126.103 Y93.478 E44.35481
G1 X126.565 Y93.945 E44.38759
G1 X126.966 Y94.465 E44.42035
G1 X127.302 Y95.029 E44.4531
G1 X127.566 Y95.631 E44.48589
G1 X127.756 Y96.26 E44.51868
G1 X127.867 Y96.907 E44.55143
G1 X127.9 Y97.5 E44.58106
G1 X127.9 Y122.5 E45.82831
G1 X127.86 Y123.156 E45.8611
G1 X127.741 Y123.802 E45.89387
G1 X127.544 Y124.429 E45.92666
G1 X127.272 Y125.027 E45.95944
G1 X126.93 Y125.588 E45.99222
G1 X126.522 Y126.103 E46.02499
G1 X126.055 Y126.565 E46.05777
G1 X125.535 Y126.966 E46.09053
G1 X124.971 Y127.302 E46.12328
G1 X124.369 Y127.566 E46.15608
G1 X123.74 Y127.756 E46.18886
G1 X123.093 Y127.867 E46.22161
G1 X122.5 Y127.9 E46.25124
G1 X97.5 Y127.9 E47.49849
G1 X96.844 Y127.86 E47.53128
G1 X96.198 Y127.741 E47.56405
G1 X95.571 Y127.544 E47.59684
G1 X94.973 Y127.272 E47.62962
G1 X94.412 Y126.93 E47.6624
G1 X93.897 Y126.522 E47.69518
G1 X93.435 Y126.055 E47.72795
G1 X93.034 Y125.535 E47.76071
G1 X92.698 Y124.971 E47.79347
G1 X92.434 Y124.369 E47.82626
G1 X92.244 Y123.74 E47.85904
G1 X92.133 Y123.093 E47.89179
G1 X92.1 Y122.5 E47.92142
G1 X92.1 Y97.5 E49.16868
G1 X92.14 Y96.844 E49.20147
G1 X92.259 Y96.198 E49.23424
G1 X92.456 Y95.571 E49.26703
G1 X92.728 Y94.973 E49.2998
G1 X93.07 Y94.412 E49.33258
G1 X93.478 Y93.897 E49.36536
G1 X93.945 Y93.435 E49.39813
G0 F3600 X93.873 Y94.059
G1 F1800 X94.336 Y93.629 E49.42966
G1 X94.85 Y93.26 E49.46123
G1 X95.406 Y92.96 E49.49275
G1 X95.995 Y92.732 E49.52426
G1 X96.609 Y92.58 E49.55581
G1 X97.5 Y92.5 E49.60044
G1 X122.5 Y92.5 E50.8477
G1 X123.131 Y92.54 E50.87924
G1 X123.752 Y92.659 E50.91079
G1 X124.352 Y92.856 E50.94229
G1 X124.924 Y93.127 E50.97387
G1 X125.456 Y93.467 E51.00537
G1 X125.941 Y93.873 E51.03693
G1 X126.371 Y94.336 E51.06845
G1 X126.74 Y94.85 E51.10002
G1 X127.04 Y95.406 E51.13154
G1 X127.268 Y95.995 E51.16305
G1 X127.42 Y96.609 E51.19461
G1 X127.5 Y97.5 E51.23924
G1 X127.5 Y122.5 E52.48649
G1 X127.46 Y123.131 E52.51804
G1 X127.341 Y123.752 E52.54958
G1 X127.144 Y124.352 E52.58109
G1 X126.873 Y124.924 E52.61267
G1 X126.533 Y125.456 E52.64416
G1 X126.127 Y125.941 E52.67572
G1 X125.664 Y126.371 E52.70724
G1 X125.15 Y126.74 E52.73881
G1 X124.594 Y127.04 E52.77033
G1 X124.005 Y127.268 E52.80184
G1 X123.391 Y127.42 E52.8334
G1 X122.5 Y127.5 E52.87803
G1 X97.5 Y127.5 E54.12528
G1 X96.869 Y127.46 E54.15683
G1 X96.248 Y127.341 E54.18837
G1 X95.648 Y127.144 E54.21988
G1 X95.076 Y126.873 E54.25146
G1 X94.544 Y126.533 E54.28296
G1 X94.059 Y126.127 E54.31451
G1 X93.629 Y125.664 E54.34604
G1 X93.26 Y125.15 E54.37761
G1 X92.96 Y124.594 E54.40912
G1 X92.732 Y124.005 E54.44063
G1 X92.58 Y123.391 E54.47219
G1 X92.5 Y122.5 E54.51682
G1 X92.5 Y97.5 E55.76408
G1 X92.54 Y96.869 E55.79562
G1 X92.659 Y96.248 E55.82717
G1 X92.856 Y95.648 E55.85867
G1 X93.127 Y95.076 E55.89025
G1 X93.467 Y94.544 E55.92175
G1 X93.873 Y94.059 E55.95331
G0 F3600 X94.267 Y94.228
G1 F1800 X94.725 Y93.831 E55.98355
G1 X95.232 Y93.498 E56.01381
G1 X95.778 Y93.234 E56.04407
G1 X96.354 Y93.045 E56.07431
G1 X96.95 Y92.933 E56.10456
G1 X97.5 Y92.9 E56.13205
G1 X122.5 Y92.9 E57.37931
G1 X123.105 Y92.94 E57.40956
G1 X123.699 Y93.059 E57.43978
G1 X124.273 Y93.255 E57.47004
G1 X124.816 Y93.526 E57.50032
G1 X125.319 Y93.865 E57.53058
G1 X125.772 Y94.267 E57.5608
G1 X126.169 Y94.725 E57.59104
G1 X126.502 Y95.232 E57.6213
G1 X126.766 Y95.778 E57.65156
G1 X126.955 Y96.354 E57.6818
G1 X127.067 Y96.95 E57.71205
G1 X127.1 Y97.5 E57.73954
G1 X127.1 Y122.5 E58.9868
G1 X127.06 Y123.105 E59.01705
G1 X126.941 Y123.699 E59.04727
G1 X126.745 Y124.273 E59.07753
G1 X126.474 Y124.816 E59.10781
G1 X126.135 Y125.319 E59.13807
G1 X125.733 Y125.772 E59.16829
G1 X125.275 Y126.169 E59.19853
G1 X124.768 Y126.502 E59.22879
G1 X124.222 Y126.766 E59.25905
G1 X123.646 Y126.955 E59.28929
G1 X123.05 Y127.067 E59.31954
G1 X122.5 Y127.1 E59.34703
G1 X97.5 Y127.1 E60.59429
G1 X96.895 Y127.06 E60.62454
G1 X96.301 Y126.941 E60.65476
G1 X95.727 Y126.745 E60.68502
G1 X95.184 Y126.474 E60.7153
G1 X94.681 Y126.135 E60.74556
G1 X94.228 Y125.733 E60.77578
G1 X93.831 Y125.275 E60.80602
G1 X93.498 Y124.768 E60.83628
G1 X93.234 Y124.222 E60.86654
G1 X93.045 Y123.646 E60.89678
G1 X92.933 Y123.05 E60.92704
G1 X92.9 Y122.5 E60.95452
G1 X92.9 Y97.5 E62.20178
G1 X92.94 Y96.895 E62.23203
G1 X93.059 Y96.301 E62.26225
G1 X93.255 Y95.727 E62.29251
G1 X93.526 Y95.184 E62.32279
G1 X93.865 Y94.681 E62.35305
