;FLAVOR:Marlin
;TIME:651
;Filament used: 0.250952m
;Layer height: 0.1
;Generated with Cura_SteamEngine 3.1.0
M190 S70
M104 S250
M109 S250
M82 ; absolute extrusion mode
G28 ;Home
G1 Z15.0 F6000 ;Move the platform down 15mm
;Prime the extruder
G92 E0
G1 F200 E3
G92 E0
;LAYER_COUNT:99
;LAYER:0
M107
G0 F3600 X99.623 Y99.349 Z0.3
;TYPE:SKIRT
G1 F1800 X100.222 Y98.834 E0.03941
G1 X100.87 Y98.383 E0.0788
G1 X101.561 Y97.999 E0.11824
G1 X102.286 Y97.687 E0.15762
G1 X103.039 Y97.45 E0.197
G1 X103.813 Y97.291 E0.23642
G1 X104.598 Y97.21 E0.27579
G1 X105 Y97.2 E0.29586
G1 X115 Y97.2 E0.79476
G1 X115.789 Y97.24 E0.83417
G1 X116.569 Y97.359 E0.87354
G1 X117.334 Y97.557 E0.91296
G1 X118.074 Y97.831 E0.95233
G1 X118.783 Y98.179 E0.99173
G1 X119.454 Y98.597 E1.03117
G1 X120.078 Y99.08 E1.07054
G1 X120.651 Y99.623 E1.10992
G1 X121.166 Y100.222 E1.14933
G1 X121.617 Y100.87 E1.18872
G1 X122.001 Y101.561 E1.22816
G1 X122.313 Y102.286 E1.26754
G1 X122.55 Y103.039 E1.30692
G1 X122.709 Y103.813 E1.34635
G1 X122.79 Y104.598 E1.38572
G1 X122.8 Y105 E1.40578
G1 X122.8 Y115 E1.90468
G1 X122.76 Y115.789 E1.9441
G1 X122.641 Y116.569 E1.98346
G1 X122.443 Y117.334 E2.02288
G1 X122.169 Y118.074 E2.06225
G1 X121.821 Y118.783 E2.10166
G1 X121.403 Y119.454 E2.1411
G1 X120.92 Y120.078 E2.18046
G1 X120.377 Y120.651 E2.21985
G1 X119.778 Y121.166 E2.25926
G1 X119.13 Y121.617 E2.29865
G1 X118.439 Y122.001 E2.33809
G1 X117.714 Y122.313 E2.37746
G1 X116.961 Y122.55 E2.41685
G1 X116.187 Y122.709 E2.45627
G1 X115.402 Y122.79 E2.49564
G1 X115 Y122.8 E2.5157
G1 X105 Y122.8 E3.01461
G1 X104.211 Y122.76 E3.05402
G1 X103.431 Y122.641 E3.09338
G1 X102.666 Y122.443 E3.13281
G1 X101.926 Y122.169 E3.17218
G1 X101.217 Y121.821 E3.21158
G1 X100.546 Y121.403 E3.25102
G1 X99.922 Y120.92 E3.29039
G1 X99.349 Y120.377 E3.32977
G1 X98.834 Y119.778 E3.36918
G1 X98.383 Y119.13 E3.40857
G1 X97.999 Y118.439 E3.44801
G1 X97.687 Y117.714 E3.48739
G1 X97.45 Y116.961 E3.52677
G1 X97.291 Y116.187 E3.56619
G1 X97.21 Y115.402 E3.60557
G1 X97.2 Y115 E3.62563
G1 X97.2 Y105 E4.12453
G1 X97.24 Y104.211 E4.16394
G1 X97.359 Y103.431 E4.20331
G1 X97.557 Y102.666 E4.24273
G1 X97.831 Y101.926 E4.2821
G1 X98.179 Y101.217 E4.3215
G1 X98.597 Y100.546 E4.36094
G1 X99.08 Y99.922 E4.40031
G1 X99.623 Y99.349 E4.4397
G0 F3600 X100.016 Y99.53
G1 F1800 X100.611 Y99.042 E4.47809
G1 X101.253 Y98.619 E4.51644
G1 X101.936 Y98.264 E4.55485
G1 X102.651 Y97.983 E4.59318
G1 X103.393 Y97.777 E4.63159
G1 X104.151 Y97.649 E4.66995
G1 X105 Y97.6 E4.71237
G1 X115 Y97.6 E5.21128
G1 X115.768 Y97.64 E5.24964
G1 X116.528 Y97.759 E5.28802
G1 X117.271 Y97.957 E5.32638
G1 X117.99 Y98.231 E5.36477
G1 X118.676 Y98.578 E5.40313
G1 X119.323 Y98.994 E5.4415
G1 X119.923 Y99.475 E5.47987
G1 X120.47 Y100.016 E5.51825
G1 X120.958 Y100.611 E5.55664
G1 X121.381 Y101.253 E5.595
G1 X121.736 Y101.936 E5.6334
G1 X122.017 Y102.651 E5.67173
G1 X122.223 Y103.393 E5.71015
G1 X122.351 Y104.151 E5.7485
G1 X122.4 Y105 E5.79093
G1 X122.4 Y115 E6.28983
G1 X122.36 Y115.768 E6.3282
G1 X122.241 Y116.528 E6.36657
G1 X122.043 Y117.271 E6.40494
G1 X121.769 Y117.99 E6.44332
G1 X121.422 Y118.676 E6.48168
G1 X121.006 Y119.323 E6.52005
G1 X120.525 Y119.923 E6.55842
G1 X119.984 Y120.47 E6.5968
G1 X119.389 Y120.958 E6.63519
G1 X118.747 Y121.381 E6.67355
G1 X118.064 Y121.736 E6.71195
G1 X117.349 Y122.017 E6.75028
G1 X116.607 Y122.223 E6.7887
G1 X115.849 Y122.351 E6.82705
G1 X115 Y122.4 E6.86948
G1 X105 Y122.4 E7.36838
G1 X104.232 Y122.36 E7.40675
G1 X103.472 Y122.241 E7.44513
G1 X102.729 Y122.043 E7.48349
G1 X102.01 Y121.769 E7.52188
G1 X101.324 Y121.422 E7.56023
G1 X100.677 Y121.006 E7.59861
G1 X100.077 Y120.525 E7.63697
G1 X99.53 Y119.984 E7.67535
G1 X99.042 Y119.389 E7.71375
G1 X98.619 Y118.747 E7.7521
G1 X98.264 Y118.064 E7.79051
G1 X97.983 Y117.349 E7.82883
G1 X97.777 Y116.607 E7.86725
G1 X97.649 Y115.849 E7.9056
G1 X97.6 Y115 E7.94803
G1 X97.6 Y105 E8.44693
G1 X97.64 Y104.232 E8.4853
G1 X97.759 Y103.472 E8.52368
G1 X97.957 Y102.729 E8.56204
G1 X98.231 Y102.01 E8.60043
G1 X98.578 Y101.324 E8.63878
G1 X98.994 Y100.677 E8.67716
G1 X99.475 Y100.077 E8.71552
G1 X100.016 Y99.53 E8.75391
G0 F3600 X100.408 Y99.716
G1 F1800 X100.998 Y99.257 E8.7912
G1 X101.634 Y98.862 E8.82855
G1 X102.308 Y98.538 E8.86586
G1 X103.013 Y98.288 E8.90318
G1 X103.741 Y98.114 E8.94052
G1 X104.483 Y98.019 E8.97784
G1 X105 Y98 E9.00365
G1 X115 Y98 E9.50256
G1 X115.747 Y98.04 E9.53988
G1 X116.485 Y98.159 E9.57717
G1 X117.207 Y98.357 E9.61452
G1 X117.903 Y98.63 E9.65182
G1 X118.566 Y98.977 E9.68916
G1 X119.189 Y99.392 E9.7265
G1 X119.763 Y99.871 E9.7638
G1 X120.284 Y100.408 E9.80113
G1 X120.743 Y100.998 E9.83842
G1 X121.138 Y101.634 E9.87577
G1 X121.462 Y102.308 E9.91308
G1 X121.712 Y103.013 E9.9504
G1 X121.886 Y103.741 E9.98775
G1 X121.981 Y104.483 E10.02507
G1 X122 Y105 E10.05088
G1 X122 Y115 E10.54978
G1 X121.96 Y115.747 E10.5871
G1 X121.841 Y116.485 E10.62439
G1 X121.643 Y117.207 E10.66175
G1 X121.37 Y117.903 E10.69904
G1 X121.023 Y118.566 E10.73638
G1 X120.608 Y119.189 E10.77372
G1 X120.129 Y119.763 E10.81102
G1 X119.592 Y120.284 E10.84835
G1 X119.002 Y120.743 E10.88564
G1 X118.366 Y121.138 E10.923
G1 X117.692 Y121.462 E10.96031
G1 X116.987 Y121.712 E10.99762
G1 X116.259 Y121.886 E11.03497
G1 X115.517 Y121.981 E11.07229
G1 X115 Y122 E11.0981
G1 X105 Y122 E11.597
G1 X104.253 Y121.96 E11.63432
G1 X103.515 Y121.841 E11.67162
G1 X102.793 Y121.643 E11.70897
G1 X102.097 Y121.37 E11.74627
G1 X101.434 Y121.023 E11.7836
G1 X100.811 Y120.608 E11.82095
G1 X100.237 Y120.129 E11.85824
G1 X99.716 Y119.592 E11.89557
G1 X99.257 Y119.002 E11.93287
G1 X98.862 Y118.366 E11.97022
G1 X98.538 Y117.692 E12.00753
G1 X98.288 Y116.987 E12.04485
G1 X98.114 Y116.259 E12.08219
G1 X98.019 Y115.517 E12.11951
G1 X98 Y115 E12.14532
G1 X98 Y105 E12.64422
G1 X98.04 Y104.253 E12.68154
G1 X98.159 Y103.515 E12.71884
G1 X98.357 Y102.793 E12.75619
G1 X98.63 Y102.097 E12.79349
G1 X98.977 Y101.434 E12.83082
G1 X99.392 Y100.811 E12.86817
G1 X99.871 Y100.237 E12.90547
G1 X100.408 Y99.716 E12.94279
G0 F3600 X100.265 Y100.402
G1 F1800 X100.799 Y99.909 E12.97905
G1 X101.384 Y99.479 E13.01528
G1 X102.013 Y99.115 E13.05153
G1 X102.678 Y98.822 E13.08779
G1 X103.371 Y98.604 E13.12403
G1 X104.083 Y98.464 E13.16023
G1 X105 Y98.4 E13.20609
G1 X115 Y98.4 E13.705
G1 X115.725 Y98.44 E13.74122
G1 X116.442 Y98.559 E13.77748
G1 X117.141 Y98.757 E13.81373
G1 X117.814 Y99.03 E13.84996
G1 X118.453 Y99.375 E13.88619
G1 X119.05 Y99.789 E13.92244
G1 X119.598 Y100.265 E13.95865
G1 X120.091 Y100.799 E13.99491
G1 X120.521 Y101.384 E14.03113
G1 X120.885 Y102.013 E14.06739
G1 X121.178 Y102.678 E14.10364
G1 X121.396 Y103.371 E14.13989
G1 X121.536 Y104.083 E14.17609
G1 X121.6 Y105 E14.22195
G1 X121.6 Y115 E14.72085
G1 X121.56 Y115.725 E14.75708
G1 X121.441 Y116.442 E14.79334
G1 X121.243 Y117.141 E14.82958
G1 X120.97 Y117.814 E14.86582
G1 X120.625 Y118.453 E14.90204
G1 X120.211 Y119.05 E14.93829
G1 X119.735 Y119.598 E14.9745
G1 X119.201 Y120.091 E15.01076
G1 X118.616 Y120.521 E15.04698
G1 X117.987 Y120.885 E15.08324
G1 X117.322 Y121.178 E15.1195
G1 X116.629 Y121.396 E15.15574
G1 X115.917 Y121.536 E15.19194
G1 X115 Y121.6 E15.2378
G1 X105 Y121.6 E15.7367
G1 X104.275 Y121.56 E15.77293
G1 X103.558 Y121.441 E15.80919
G1 X102.859 Y121.243 E15.84544
G1 X102.186 Y120.97 E15.88167
G1 X101.547 Y120.625 E15.9179
G1 X100.95 Y120.211 E15.95414
G1 X100.402 Y119.735 E15.99036
G1 X99.909 Y119.201 E16.02662
G1 X99.479 Y118.616 E16.06284
G1 X99.115 Y117.987 E16.0991
G1 X98.822 Y117.322 E16.13535
G1 X98.604 Y116.629 E16.17159
G1 X98.464 Y115.917 E16.2078
G1 X98.4 Y115 E16.25366
G1 X98.4 Y105 E16.75256
G1 X98.44 Y104.275 E16.78878
G1 X98.559 Y103.558 E16.82505
G1 X98.757 Y102.859 E16.86129
G1 X99.03 Y102.186 E16.89752
G1 X99.375 Y101.547 E16.93375
G1 X99.789 Y100.95 E16.97
G1 X100.265 Y100.402 E17.00621
G0 F3600 X100.659 Y100.573
G1 F1800 X101.189 Y100.109 E17.04136
G1 X101.768 Y99.709 E17.07647
G1 X102.389 Y99.377 E17.1116
G1 X103.043 Y99.117 E17.14671
G1 X103.723 Y98.933 E17.18185
G1 X104.419 Y98.827 E17.21698
G1 X105 Y98.8 E17.246
G1 X115 Y98.8 E17.7449
G1 X115.703 Y98.84 E17.78003
G1 X116.397 Y98.959 E17.81516
G1 X117.072 Y99.157 E17.85025
G1 X117.721 Y99.429 E17.88536
G1 X118.335 Y99.774 E17.9205
G1 X118.906 Y100.185 E17.95559
G1 X119.427 Y100.659 E17.99074
G1 X119.891 Y101.189 E18.02588
G1 X120.291 Y101.768 E18.06099
G1 X120.623 Y102.389 E18.09612
G1 X120.883 Y103.043 E18.13123
G1 X121.067 Y103.723 E18.16638
G1 X121.173 Y104.419 E18.2015
G1 X121.2 Y105 E18.23052
G1 X121.2 Y115 E18.72942
G1 X121.16 Y115.703 E18.76455
G1 X121.041 Y116.397 E18.79968
G1 X120.843 Y117.072 E18.83477
G1 X120.571 Y117.721 E18.86988
G1 X120.226 Y118.335 E18.90502
G1 X119.815 Y118.906 E18.94012
G1 X119.341 Y119.427 E18.97526
G1 X118.811 Y119.891 E19.0104
G1 X118.232 Y120.291 E19.04551
G1 X117.611 Y120.623 E19.08064
G1 X116.957 Y120.883 E19.11575
G1 X116.277 Y121.067 E19.1509
G1 X115.581 Y121.173 E19.18602
G1 X115 Y121.2 E19.21504
G1 X105 Y121.2 E19.71394
G1 X104.297 Y121.16 E19.74907
G1 X103.603 Y121.041 E19.7842
G1 X102.928 Y120.843 E19.8193
G1 X102.279 Y120.571 E19.8544
G1 X101.665 Y120.226 E19.88954
G1 X101.094 Y119.815 E19.92464
G1 X100.573 Y119.341 E19.95978
G1 X100.109 Y118.811 E19.99492
G1 X99.709 Y118.232 E20.03003
G1 X99.377 Y117.611 E20.06517
G1 X99.117 Y116.957 E20.10028
G1 X98.933 Y116.277 E20.13542
G1 X98.827 Y115.581 E20.17055
G1 X98.8 Y115 E20.19956
G1 X98.8 Y105 E20.69847
G1 X98.84 Y104.297 E20.7336
G1 X98.959 Y103.603 E20.76873
G1 X99.157 Y102.928 E20.80382
G1 X99.429 Y102.279 E20.83893
G1 X99.774 Y101.665 E20.87406
G1 X100.185 Y101.094 E20.90916
G1 X100.659 Y100.573 E20.9443
G0 F3600 X101.053 Y100.751
G1 F1800 X101.578 Y100.317 E20.97829
G1 X102.15 Y99.948 E21.01225
G1 X102.762 Y99.649 E21.04623
G1 X103.404 Y99.424 E21.08017
G1 X104.069 Y99.275 E21.11417
G1 X105 Y99.2 E21.16077
G1 X115 Y99.2 E21.65967
G1 X115.68 Y99.24 E21.69365
G1 X116.35 Y99.359 E21.7276
G1 X117.002 Y99.556 E21.76158
G1 X117.626 Y99.828 E21.79554
G1 X118.214 Y100.172 E21.82953
G1 X118.758 Y100.582 E21.86352
G1 X119.249 Y101.053 E21.89746
G1 X119.683 Y101.578 E21.93144
G1 X120.052 Y102.15 E21.9654
G1 X120.351 Y102.762 E21.99939
G1 X120.576 Y103.404 E22.03333
G1 X120.725 Y104.069 E22.06733
G1 X120.8 Y105 E22.11392
G1 X120.8 Y115 E22.61283
G1 X120.76 Y115.68 E22.64681
G1 X120.641 Y116.35 E22.68076
G1 X120.444 Y117.002 E22.71474
G1 X120.172 Y117.626 E22.7487
G1 X119.828 Y118.214 E22.78269
G1 X119.418 Y118.758 E22.81667
G1 X118.947 Y119.249 E22.85062
G1 X118.422 Y119.683 E22.8846
G1 X117.85 Y120.052 E22.91856
G1 X117.238 Y120.351 E22.95254
G1 X116.596 Y120.576 E22.98648
G1 X115.931 Y120.725 E23.02048
G1 X115 Y120.8 E23.06708
G1 X105 Y120.8 E23.56598
G1 X104.32 Y120.76 E23.59997
G1 X103.65 Y120.641 E23.63392
G1 X102.998 Y120.444 E23.6679
G1 X102.374 Y120.172 E23.70186
G1 X101.786 Y119.828 E23.73584
G1 X101.242 Y119.418 E23.76983
G1 X100.751 Y118.947 E23.80377
G1 X100.317 Y118.422 E23.83776
G1 X99.948 Y117.85 E23.87172
G1 X99.649 Y117.238 E23.9057
G1 X99.424 Y116.596 E23.93964
G1 X99.275 Y115.931 E23.97364
G1 X99.2 Y115 E24.02024
G1 X99.2 Y105 E24.51914
G1 X99.24 Y104.32 E24.55312
G1 X99.359 Y103.65 E24.58707
G1 X99.556 Y102.998 E24.62105
G1 X99.828 Y102.374 E24.65501
G1 X100.172 Y101.786 E24.689
G1 X100.582 Y101.242 E24.72299
G1 X101.053 Y100.751 E24.75693
G0 F3600 X101.445 Y100.935
G1 F1800 X101.965 Y100.534 E24.78969
G1 X102.529 Y100.198 E24.82244
G1 X103.131 Y99.934 E24.85524
G1 X103.76 Y99.744 E24.88802
G1 X104.407 Y99.633 E24.92077
G1 X105 Y99.6 E24.9504
G1 X115 Y99.6 E25.4493
G1 X115.656 Y99.64 E25.48209
G1 X116.302 Y99.759 E25.51486
G1 X116.929 Y99.956 E25.54765
G1 X117.527 Y100.228 E25.58043
G1 X118.088 Y100.57 E25.61321
G1 X118.603 Y100.978 E25.64599
G1 X119.065 Y101.445 E25.67876
G1 X119.466 Y101.965 E25.71152
G1 X119.802 Y102.529 E25.74427
G1 X120.066 Y103.131 E25.77707
G1 X120.256 Y103.76 E25.80985
G1 X120.367 Y104.407 E25.8426
G1 X120.4 Y105 E25.87223
G1 X120.4 Y115 E26.37113
G1 X120.36 Y115.656 E26.40392
G1 X120.241 Y116.302 E26.43669
G1 X120.044 Y116.929 E26.46948
G1 X119.772 Y117.527 E26.50226
G1 X119.43 Y118.088 E26.53504
G1 X119.022 Y118.603 E26.56782
G1 X118.555 Y119.065 E26.60059
G1 X118.035 Y119.466 E26.63335
G1 X117.471 Y119.802 E26.6661
G1 X116.869 Y120.066 E26.6989
G1 X116.24 Y120.256 E26.73168
G1 X115.593 Y120.367 E26.76443
G1 X115 Y120.4 E26.79406
G1 X105 Y120.4 E27.29296
G1 X104.344 Y120.36 E27.32575
G1 X103.698 Y120.241 E27.35852
G1 X103.071 Y120.044 E27.39131
G1 X102.473 Y119.772 E27.42409
G1 X101.912 Y119.43 E27.45687
G1 X101.397 Y119.022 E27.48965
G1 X100.935 Y118.555 E27.52242
G1 X100.534 Y118.035 E27.55518
G1 X100.198 Y117.471 E27.58793
G1 X99.934 Y116.869 E27.62073
G1 X99.744 Y116.24 E27.65351
G1 X99.633 Y115.593 E27.68626
G1 X99.6 Y115 E27.71589
G1 X99.6 Y105 E28.21479
G1 X99.64 Y104.344 E28.24758
G1 X99.759 Y103.698 E28.28035
G1 X99.956 Y103.071 E28.31314
G1 X100.228 Y102.473 E28.34592
G1 X100.57 Y101.912 E28.3787
G1 X100.978 Y101.397 E28.41148
G1 X101.445 Y100.935 E28.44425
G0 F3600 X101.373 Y101.559
G1 F1800 X101.836 Y101.129 E28.47577
G1 X102.35 Y100.76 E28.50734
G1 X102.906 Y100.46 E28.53886
G1 X103.495 Y100.232 E28.57037
G1 X104.109 Y100.08 E28.60193
G1 X105 Y100 E28.64656
G1 X115 Y100 E29.14546
G1 X115.631 Y100.04 E29.177
G1 X116.252 Y100.159 E29.20855
G1 X116.852 Y100.356 E29.24006
G1 X117.424 Y100.627 E29.27163
G1 X117.956 Y100.967 E29.30313
G1 X118.441 Y101.373 E29.33469
G1 X118.871 Y101.836 E29.36621
G1 X119.24 Y102.35 E29.39778
G1 X119.54 Y102.906 E29.4293
G1 X119.768 Y103.495 E29.46081
G1 X119.92 Y104.109 E29.49237
G1 X120 Y105 E29.537
G1 X120 Y115 E30.0359
G1 X119.96 Y115.631 E30.06744
G1 X119.841 Y116.252 E30.09899
G1 X119.644 Y116.852 E30.1305
G1 X119.373 Y117.424 E30.16207
G1 X119.033 Y117.956 E30.19357
G1 X118.627 Y118.441 E30.22513
G1 X118.164 Y118.871 E30.25665
G1 X117.65 Y119.24 E30.28822
G1 X117.094 Y119.54 E30.31974
G1 X116.505 Y119.768 E30.35125
G1 X115.891 Y119.92 E30.38281
G1 X115 Y120 E30.42744
G1 X105 Y120 E30.92634
G1 X104.369 Y119.96 E30.95788
G1 X103.748 Y119.841 E30.98943
G1 X103.148 Y119.644 E31.02094
G1 X102.576 Y119.373 E31.05251
G1 X102.044 Y119.033 E31.08401
G1 X101.559 Y118.627 E31.11557
G1 X101.129 Y118.164 E31.14709
G1 X100.76 Y117.65 E31.17866
G1 X100.46 Y117.094 E31.21018
G1 X100.232 Y116.505 E31.24169
G1 X100.08 Y115.891 E31.27325
G1 X100 Y115 E31.31788
G1 X100 Y105 E31.81678
G1 X100.04 Y104.369 E31.84832
G1 X100.159 Y103.748 E31.87987
G1 X100.356 Y103.148 E31.91138
G1 X100.627 Y102.576 E31.94295
G1 X100.967 Y102.044 E31.97445
G1 X101.373 Y101.559 E32.00601
G0 F3600 X101.767 Y101.728
G1 F1800 X102.225 Y101.331 E32.03625
G1 X102.732 Y100.998 E32.06651
G1 X103.278 Y100.734 E32.09677
G1 X103.854 Y100.545 E32.12701
G1 X104.45 Y100.433 E32.15727
G1 X105 Y100.4 E32.18476
G1 X115 Y100.4 E32.68366
G1 X115.605 Y100.44 E32.71391
G1 X116.199 Y100.559 E32.74413
G1 X116.773 Y100.755 E32.77439
G1 X117.316 Y101.026 E32.80467
G1 X117.819 Y101.365 E32.83493
G1 X118.272 Y101.767 E32.86515
G1 X118.669 Y102.225 E32.89539
G1 X119.002 Y102.732 E32.92565
G1 X119.266 Y103.278 E32.95591
G1 X119.455 Y103.854 E32.98615
G1 X119.567 Y104.45 E33.0164
G1 X119.6 Y105 E33.04389
G1 X119.6 Y115 E33.5428
G1 X119.56 Y115.605 E33.57304
G1 X119.441 Y116.199 E33.60327
G1 X119.245 Y116.773 E33.63353
G1 X118.974 Y117.316 E33.66381
G1 X118.635 Y117.819 E33.69407
G1 X118.233 Y118.272 E33.72428
G1 X117.775 Y118.669 E33.75452
G1 X117.268 Y119.002 E33.78479
G1 X116.722 Y119.266 E33.81504
G1 X116.146 Y119.455 E33.84529
G1 X115.55 Y119.567 E33.87554
G1 X115 Y119.6 E33.90303
G1 X105 Y119.6 E34.40193
G1 X104.395 Y119.56 E34.43218
G1 X103.801 Y119.441 E34.46241
G1 X103.227 Y119.245 E34.49267
G1 X102.684 Y118.974 E34.52294
G1 X102.181 Y118.635 E34.55321
G1 X101.728 Y118.233 E34.58342
G1 X101.331 Y117.775 E34.61366
G1 X100.998 Y117.268 E34.64392
G1 X100.734 Y116.722 E34.67418
G1 X100.545 Y116.146 E34.70442
G1 X100.433 Y115.55 E34.73468
G1 X100.4 Y115 E34.76217
G1 X100.4 Y105 E35.26107
G1 X100.44 Y104.395 E35.29132
G1 X100.559 Y103.801 E35.32154
