;FLAVOR:Marlin
;TIME:5509
;Filament used: 3.08314m
;Layer height: 0.1
;Generated with Cura_SteamEngine 3.1.0
M190 S70
M104 S250
M109 S250
M82 ; absolute extrusion mode
G28 ;Home
G1 Z15.0 F6000 ;Move the platform down 15mm
;Prime the extruder
G92 E0
G1 F200 E3
G92 E0
;LAYER_COUNT:199
;LAYER:0
M107
G0 F3600 X66.37 Y96.883 Z0.3
;TYPE:SKIRT
G1 F1800 X67.061 Y96.499 E0.03944
G1 X67.786 Y96.187 E0.07882
G1 X68.539 Y95.95 E0.1182
G1 X69.313 Y95.791 E0.15762
G1 X70.098 Y95.71 E0.19699
G1 X70.5 Y95.7 E0.21706
G1 X136.677 Y95.7 E3.51864
G1 X136.939 Y95.606 E3.53253
G1 X138.332 Y95.182 E3.60517
G1 X139.098 Y94.991 E3.64456
G1 X139.834 Y94.882 E3.68168
G1 X141.287 Y94.738 E3.75452
G1 X142.076 Y94.7 E3.79393
G1 X142.824 Y94.738 E3.8313
G1 X144.279 Y94.882 E3.90424
G1 X145.06 Y94.999 E3.94364
G1 X145.784 Y95.182 E3.9809
G1 X147.176 Y95.606 E4.0535
G1 X147.919 Y95.875 E4.09292
G1 X148.609 Y96.204 E4.13106
G1 X149.9 Y96.901 E4.20425
G1 X150.575 Y97.311 E4.24365
G1 X151.164 Y97.753 E4.28039
G1 X152.289 Y98.683 E4.35321
G1 X152.871 Y99.217 E4.39262
G1 X153.362 Y99.764 E4.42929
G1 X154.289 Y100.9 E4.50244
G1 X154.757 Y101.536 E4.54184
G1 X155.138 Y102.178 E4.57908
G1 X155.827 Y103.478 E4.65249
G1 X156.161 Y104.194 E4.6919
G1 X156.403 Y104.881 E4.72824
G1 X156.826 Y106.285 E4.8014
G1 X157.016 Y107.052 E4.84082
G1 X157.122 Y107.781 E4.87757
G1 X157.264 Y109.244 E4.9509
G1 X157.3 Y110.033 E4.99031
G1 X157.264 Y110.75 E5.02613
G1 X157.122 Y112.216 E5.09961
G1 X157.006 Y112.997 E5.139
G1 X156.827 Y113.713 E5.17582
G1 X156.404 Y115.118 E5.24902
G1 X156.138 Y115.861 E5.2884
G1 X155.826 Y116.524 E5.32495
G1 X155.137 Y117.823 E5.39831
G1 X154.732 Y118.501 E5.43771
G1 X154.292 Y119.096 E5.47463
G1 X153.367 Y120.231 E5.54768
G1 X152.838 Y120.817 E5.58707
G1 X152.294 Y121.312 E5.62376
G1 X151.168 Y122.244 E5.69668
G1 X150.535 Y122.716 E5.73608
G1 X149.896 Y123.101 E5.7733
G1 X148.605 Y123.797 E5.84647
G1 X147.892 Y124.136 E5.88586
G1 X147.18 Y124.391 E5.92359
G1 X145.787 Y124.816 E5.99625
G1 X145.021 Y125.008 E6.03565
G1 X144.284 Y125.118 E6.07282
G1 X142.829 Y125.263 E6.14577
G1 X142.041 Y125.301 E6.18513
G1 X141.281 Y125.262 E6.2231
G1 X139.828 Y125.117 E6.29595
G1 X139.048 Y124.999 E6.33531
G1 X138.327 Y124.816 E6.37242
G1 X136.934 Y124.391 E6.44508
G1 X136.684 Y124.301 E6.45833
G1 X70.5 Y124.301 E9.76027
G1 X69.711 Y124.261 E9.79968
G1 X68.931 Y124.142 E9.83904
G1 X68.166 Y123.944 E9.87847
G1 X67.426 Y123.67 E9.91784
G1 X66.717 Y123.322 E9.95724
G1 X66.046 Y122.904 E9.99668
G1 X65.422 Y122.421 E10.03605
G1 X64.849 Y121.878 E10.07543
G1 X64.334 Y121.279 E10.11484
G1 X63.883 Y120.631 E10.15423
G1 X63.499 Y119.94 E10.19367
G1 X63.187 Y119.215 E10.23305
G1 X62.95 Y118.462 E10.27243
G1 X62.791 Y117.688 E10.31185
G1 X62.71 Y116.903 E10.35123
G1 X62.7 Y116.501 E10.37129
G1 X62.7 Y103.5 E11.01991
G1 X62.74 Y102.711 E11.05932
G1 X62.859 Y101.931 E11.09869
G1 X63.057 Y101.166 E11.13811
G1 X63.331 Y100.426 E11.17748
G1 X63.679 Y99.717 E11.21688
G1 X64.097 Y99.046 E11.25632
G1 X64.58 Y98.422 E11.29569
G1 X65.123 Y97.849 E11.33508
G1 X65.722 Y97.334 E11.37449
G1 X66.37 Y96.883 E11.41388
G0 F3600 X66.753 Y97.119
G1 F1800 X67.436 Y96.764 E11.45228
G1 X68.151 Y96.483 E11.49061
G1 X68.893 Y96.277 E11.52902
G1 X69.651 Y96.149 E11.56738
G1 X70.5 Y96.1 E11.6098
G1 X136.744 Y96.1 E14.91473
G1 X137.055 Y95.989 E14.9312
G1 X138.448 Y95.565 E15.00385
G1 X139.195 Y95.379 E15.04226
G1 X139.873 Y95.28 E15.07644
G1 X141.326 Y95.136 E15.14929
G1 X142.095 Y95.1 E15.18769
G1 X142.785 Y95.136 E15.22216
G1 X144.24 Y95.28 E15.29511
G1 X145 Y95.395 E15.33346
G1 X145.667 Y95.565 E15.3678
G1 X147.059 Y95.989 E15.4404
G1 X147.782 Y96.251 E15.47876
G1 X148.419 Y96.556 E15.514
G1 X149.71 Y97.253 E15.58719
G1 X150.366 Y97.653 E15.62552
G1 X150.909 Y98.062 E15.65944
G1 X152.034 Y98.992 E15.73226
G1 X152.6 Y99.512 E15.77061
G1 X153.052 Y100.016 E15.80438
G1 X153.979 Y101.152 E15.87753
G1 X154.434 Y101.773 E15.91594
G1 X154.784 Y102.366 E15.95029
G1 X155.473 Y103.666 E16.0237
G1 X155.798 Y104.363 E16.06207
G1 X156.02 Y104.996 E16.09553
G1 X156.443 Y106.4 E16.16869
G1 X156.627 Y107.147 E16.20707
G1 X156.723 Y107.82 E16.24099
G1 X156.865 Y109.283 E16.31432
G1 X156.9 Y110.051 E16.35267
G1 X156.866 Y110.711 E16.38565
G1 X156.724 Y112.177 E16.45913
G1 X156.61 Y112.938 E16.49752
G1 X156.444 Y113.597 E16.53142
G1 X156.021 Y115.002 E16.60462
G1 X155.761 Y115.726 E16.643
G1 X155.472 Y116.336 E16.67668
G1 X154.783 Y117.635 E16.75004
G1 X154.388 Y118.295 E16.78841
G1 X153.982 Y118.843 E16.82244
G1 X153.057 Y119.978 E16.89549
G1 X152.541 Y120.548 E16.93385
G1 X152.039 Y121.004 E16.96768
G1 X150.913 Y121.936 E17.0406
G1 X150.296 Y122.395 E17.07897
G1 X149.707 Y122.749 E17.11325
G1 X148.416 Y123.445 E17.18643
G1 X147.721 Y123.774 E17.22479
G1 X147.063 Y124.009 E17.25965
G1 X145.67 Y124.434 E17.33231
G1 X144.924 Y124.62 E17.37067
G1 X144.245 Y124.72 E17.40491
G1 X142.79 Y124.865 E17.47786
G1 X142.022 Y124.901 E17.51621
G1 X141.321 Y124.864 E17.55124
G1 X139.868 Y124.719 E17.62409
G1 X139.108 Y124.603 E17.66244
G1 X138.444 Y124.434 E17.69662
G1 X137.051 Y124.009 E17.76928
G1 X136.753 Y123.901 E17.7851
G1 X70.5 Y123.901 E21.09047
G1 X69.732 Y123.861 E21.12884
G1 X68.972 Y123.742 E21.16722
G1 X68.229 Y123.544 E21.20558
G1 X67.51 Y123.27 E21.24397
G1 X66.824 Y122.923 E21.28232
G1 X66.177 Y122.507 E21.3207
G1 X65.577 Y122.026 E21.35906
G1 X65.03 Y121.485 E21.39745
G1 X64.542 Y120.89 E21.43584
G1 X64.119 Y120.248 E21.4742
G1 X63.764 Y119.565 E21.5126
G1 X63.483 Y118.85 E21.55093
G1 X63.277 Y118.108 E21.58934
G1 X63.149 Y117.35 E21.6277
G1 X63.1 Y116.501 E21.67012
G1 X63.1 Y103.5 E22.31875
G1 X63.14 Y102.732 E22.35711
G1 X63.259 Y101.972 E22.39549
G1 X63.457 Y101.229 E22.43385
G1 X63.731 Y100.51 E22.47224
G1 X64.078 Y99.824 E22.5106
G1 X64.494 Y99.177 E22.54897
G1 X64.975 Y98.577 E22.58734
G1 X65.516 Y98.03 E22.62572
G1 X66.111 Y97.542 E22.66411
G1 X66.753 Y97.119 E22.70247
G0 F3600 X66.498 Y97.757
G1 F1800 X67.134 Y97.362 E22.73982
G1 X67.808 Y97.038 E22.77713
G1 X68.513 Y96.788 E22.81445
G1 X69.241 Y96.614 E22.85179
G1 X69.983 Y96.519 E22.88911
G1 X70.5 Y96.5 E22.91492
G1 X136.81 Y96.5 E26.22314
G1 X137.172 Y96.371 E26.24231
G1 X138.565 Y95.947 E26.31496
G1 X139.291 Y95.768 E26.35226
G1 X139.913 Y95.678 E26.38362
G1 X141.366 Y95.534 E26.45647
G1 X142.113 Y95.5 E26.49377
G1 X142.745 Y95.534 E26.52535
G1 X144.2 Y95.678 E26.59829
G1 X144.94 Y95.791 E26.63564
G1 X145.551 Y95.948 E26.66711
G1 X146.943 Y96.372 E26.73971
G1 X147.646 Y96.628 E26.77704
G1 X148.229 Y96.908 E26.8093
G1 X149.52 Y97.605 E26.8825
G1 X150.158 Y97.995 E26.9198
G1 X150.654 Y98.37 E26.95083
G1 X151.779 Y99.3 E27.02365
G1 X152.329 Y99.807 E27.06097
G1 X152.742 Y100.269 E27.09188
G1 X153.669 Y101.405 E27.16503
G1 X154.111 Y102.009 E27.20237
G1 X154.431 Y102.553 E27.23386
G1 X155.12 Y103.853 E27.30727
G1 X155.435 Y104.532 E27.34461
G1 X155.637 Y105.112 E27.37525
G1 X156.06 Y106.516 E27.44841
G1 X156.238 Y107.242 E27.4857
G1 X156.325 Y107.859 E27.51679
G1 X156.467 Y109.322 E27.59012
G1 X156.5 Y110.069 E27.62742
G1 X156.467 Y110.673 E27.6576
G1 X156.325 Y112.139 E27.73108
G1 X156.214 Y112.879 E27.76841
G1 X156.061 Y113.482 E27.79945
G1 X155.638 Y114.887 E27.87265
G1 X155.384 Y115.591 E27.90999
G1 X155.119 Y116.149 E27.94081
G1 X154.43 Y117.448 E28.01417
G1 X154.045 Y118.089 E28.05148
G1 X153.672 Y118.59 E28.08264
G1 X152.747 Y119.725 E28.15569
G1 X152.244 Y120.279 E28.19302
G1 X151.784 Y120.695 E28.22396
G1 X150.658 Y121.627 E28.29688
G1 X150.057 Y122.073 E28.33422
G1 X149.517 Y122.397 E28.36564
G1 X148.226 Y123.093 E28.43881
G1 X147.549 Y123.412 E28.47615
G1 X146.947 Y123.626 E28.50802
G1 X145.554 Y124.051 E28.58068
G1 X144.828 Y124.231 E28.618
G1 X144.205 Y124.321 E28.64941
G1 X142.75 Y124.466 E28.72236
G1 X142.003 Y124.501 E28.75966
G1 X141.361 Y124.466 E28.79174
G1 X139.908 Y124.321 E28.86459
G1 X139.169 Y124.207 E28.9019
G1 X138.56 Y124.051 E28.93326
G1 X137.167 Y123.626 E29.00592
G1 X136.824 Y123.501 E29.02413
G1 X70.5 Y123.501 E32.33305
G1 X69.753 Y123.461 E32.37037
G1 X69.015 Y123.342 E32.40767
G1 X68.293 Y123.144 E32.44502
G1 X67.597 Y122.871 E32.48232
G1 X66.934 Y122.524 E32.51965
G1 X66.311 Y122.109 E32.557
G1 X65.737 Y121.63 E32.5943
G1 X65.216 Y121.093 E32.63162
G1 X64.757 Y120.503 E32.66892
G1 X64.362 Y119.867 E32.70627
G1 X64.038 Y119.193 E32.74358
G1 X63.788 Y118.488 E32.7809
G1 X63.614 Y117.76 E32.81824
G1 X63.519 Y117.018 E32.85556
G1 X63.5 Y116.501 E32.88137
G1 X63.5 Y103.5 E33.52999
G1 X63.54 Y102.753 E33.56732
G1 X63.659 Y102.015 E33.60461
G1 X63.857 Y101.293 E33.64196
G1 X64.13 Y100.597 E33.67926
G1 X64.477 Y99.934 E33.71659
G1 X64.892 Y99.311 E33.75394
G1 X65.371 Y98.737 E33.79124
G1 X65.908 Y98.216 E33.82857
G1 X66.498 Y97.757 E33.86586
G0 F3600 X66.884 Y97.979
G1 F1800 X67.513 Y97.615 E33.90212
G1 X68.178 Y97.322 E33.93837
G1 X68.871 Y97.104 E33.97462
G1 X69.583 Y96.964 E34.01082
G1 X70.5 Y96.9 E34.05668
G1 X136.875 Y96.9 E37.36814
G1 X137.288 Y96.754 E37.38999
G1 X138.681 Y96.33 E37.46264
G1 X139.387 Y96.157 E37.4989
G1 X139.952 Y96.076 E37.52738
G1 X141.405 Y95.932 E37.60023
G1 X142.131 Y95.9 E37.63648
G1 X142.706 Y95.932 E37.66521
G1 X144.161 Y96.076 E37.73816
G1 X144.879 Y96.187 E37.7744
G1 X145.434 Y96.33 E37.803
G1 X146.826 Y96.754 E37.87559
G1 X147.508 Y97.004 E37.91183
G1 X148.038 Y97.26 E37.9412
G1 X149.329 Y97.957 E38.01439
G1 X149.949 Y98.337 E38.05067
G1 X150.399 Y98.678 E38.07884
G1 X151.524 Y99.608 E38.15166
G1 X152.058 Y100.101 E38.18792
G1 X152.433 Y100.522 E38.21605
G1 X153.36 Y101.658 E38.2892
G1 X153.787 Y102.245 E38.32542
G1 X154.078 Y102.74 E38.35406
G1 X154.767 Y104.04 E38.42747
G1 X155.071 Y104.7 E38.46372
G1 X155.254 Y105.227 E38.49155
G1 X155.677 Y106.631 E38.56471
G1 X155.848 Y107.337 E38.60095
G1 X155.927 Y107.897 E38.62916
G1 X156.069 Y109.36 E38.70249
G1 X156.099 Y110.086 E38.73875
G1 X156.069 Y110.634 E38.76613
G1 X155.927 Y112.1 E38.83961
G1 X155.818 Y112.818 E38.87584
G1 X155.678 Y113.367 E38.90411
G1 X155.255 Y114.772 E38.97731
G1 X155.007 Y115.455 E39.01356
G1 X154.766 Y115.962 E39.04157
G1 X154.077 Y117.261 E39.11493
G1 X153.701 Y117.883 E39.15119
G1 X153.362 Y118.338 E39.1795
G1 X152.437 Y119.473 E39.25254
G1 X151.948 Y120.009 E39.28874
G1 X151.529 Y120.387 E39.3169
G1 X150.403 Y121.319 E39.38982
G1 X149.819 Y121.751 E39.42606
G1 X149.327 Y122.045 E39.45465
G1 X148.036 Y122.741 E39.52783
G1 X147.379 Y123.05 E39.56405
G1 X146.83 Y123.244 E39.5931
G1 X145.437 Y123.669 E39.66576
G1 X144.732 Y123.842 E39.70197
G1 X144.165 Y123.923 E39.73055
G1 X142.71 Y124.068 E39.8035
G1 X141.985 Y124.101 E39.83971
G1 X141.401 Y124.068 E39.86889
G1 X139.948 Y123.923 E39.94174
G1 X139.23 Y123.812 E39.97799
G1 X138.677 Y123.669 E40.00648
G1 X137.284 Y123.244 E40.07914
G1 X136.894 Y123.101 E40.09987
G1 X70.5 Y123.101 E43.41228
G1 X69.775 Y123.061 E43.4485
G1 X69.058 Y122.942 E43.48476
G1 X68.359 Y122.744 E43.52101
G1 X67.686 Y122.471 E43.55724
G1 X67.047 Y122.126 E43.59347
G1 X66.45 Y121.712 E43.62972
G1 X65.902 Y121.236 E43.66593
G1 X65.409 Y120.702 E43.70219
G1 X64.979 Y120.117 E43.73841
G1 X64.615 Y119.488 E43.77467
G1 X64.322 Y118.823 E43.81092
G1 X64.104 Y118.13 E43.84717
G1 X63.964 Y117.418 E43.88337
G1 X63.9 Y116.501 E43.92923
G1 X63.9 Y103.5 E44.57785
G1 X63.94 Y102.775 E44.61408
G1 X64.059 Y102.058 E44.65034
G1 X64.257 Y101.359 E44.68658
G1 X64.53 Y100.686 E44.72282
G1 X64.875 Y100.047 E44.75905
G1 X65.289 Y99.45 E44.79529
G1 X65.765 Y98.902 E44.8315
G1 X66.299 Y98.409 E44.86776
G1 X66.884 Y97.979 E44.90399
G0 F3600 X67.268 Y98.209
G1 F1800 X67.889 Y97.877 E44.93912
G1 X68.543 Y97.617 E44.97423
G1 X69.223 Y97.433 E45.00937
G1 X69.919 Y97.327 E45.0445
G1 X70.5 Y97.3 E45.07352
G1 X136.942 Y97.3 E48.38832
G1 X137.405 Y97.137 E48.41281
G1 X138.798 Y96.713 E48.48545
G1 X139.482 Y96.546 E48.52058
G1 X139.992 Y96.474 E48.54628
G1 X141.445 Y96.33 E48.61912
G1 X142.148 Y96.301 E48.65423
G1 X142.667 Y96.33 E48.68016
G1 X144.122 Y96.474 E48.7531
G1 X144.817 Y96.583 E48.7882
G1 X145.318 Y96.713 E48.81403
G1 X146.71 Y97.137 E48.88662
G1 X147.37 Y97.38 E48.92171
G1 X147.848 Y97.612 E48.94822
G1 X149.139 Y98.309 E49.02141
G1 X149.739 Y98.678 E49.05656
G1 X150.144 Y98.986 E49.08194
G1 X151.269 Y99.916 E49.15476
G1 X151.786 Y100.395 E49.18992
G1 X152.123 Y100.775 E49.21526
G1 X153.05 Y101.911 E49.28841
G1 X153.463 Y102.481 E49.32353
G1 X153.724 Y102.928 E49.34936
G1 X154.413 Y104.228 E49.42276
G1 X154.707 Y104.867 E49.45785
G1 X154.871 Y105.342 E49.48292
G1 X155.294 Y106.746 E49.55608
G1 X155.459 Y107.431 E49.59123
G1 X155.529 Y107.936 E49.61667
G1 X155.671 Y109.399 E49.69
G1 X155.699 Y110.102 E49.7251
G1 X155.671 Y110.596 E49.74978
G1 X155.529 Y112.062 E49.82327
G1 X155.422 Y112.757 E49.85835
G1 X155.295 Y113.251 E49.8838
G1 X154.872 Y114.656 E49.957
G1 X154.631 Y115.318 E49.99215
G1 X154.412 Y115.774 E50.01738
G1 X153.723 Y117.073 E50.09074
G1 X153.359 Y117.675 E50.12584
G1 X153.052 Y118.085 E50.15139
G1 X152.127 Y119.22 E50.22444
G1 X151.652 Y119.739 E50.25954
G1 X151.274 Y120.079 E50.28491
G1 X150.148 Y121.011 E50.35783
G1 X149.581 Y121.429 E50.39298
G1 X149.137 Y121.692 E50.41872
G1 X147.846 Y122.388 E50.49189
G1 X147.209 Y122.687 E50.527
G1 X146.713 Y122.861 E50.55322
G1 X145.32 Y123.286 E50.62588
G1 X144.636 Y123.453 E50.66101
G1 X144.126 Y123.525 E50.68671
G1 X142.671 Y123.67 E50.75966
G1 X141.967 Y123.7 E50.79481
G1 X141.44 Y123.67 E50.82115
G1 X139.987 Y123.525 E50.894
G1 X139.292 Y123.416 E50.9291
G1 X138.794 Y123.286 E50.95477
G1 X137.401 Y122.861 E51.02743
G1 X136.966 Y122.701 E51.05056
G1 X70.5 Y122.701 E54.36656
G1 X69.797 Y122.661 E54.40169
G1 X69.103 Y122.542 E54.43682
G1 X68.428 Y122.344 E54.47191
G1 X67.779 Y122.072 E54.50702
G1 X67.165 Y121.727 E54.54216
G1 X66.594 Y121.316 E54.57726
G1 X66.073 Y120.842 E54.6124
G1 X65.609 Y120.312 E54.64754
G1 X65.209 Y119.733 E54.68265
G1 X64.877 Y119.112 E54.71778
G1 X64.617 Y118.458 E54.75289
G1 X64.433 Y117.778 E54.78804
G1 X64.327 Y117.082 E54.82316
G1 X64.3 Y116.501 E54.85218
G1 X64.3 Y103.5 E55.5008
G1 X64.34 Y102.797 E55.53593
G1 X64.459 Y102.103 E55.57106
G1 X64.657 Y101.428 E55.60616
G1 X64.929 Y100.779 E55.64126
G1 X65.274 Y100.165 E55.6764
G1 X65.685 Y99.594 E55.7115
G1 X66.159 Y99.073 E55.74664
G1 X66.689 Y98.609 E55.78178
G1 X67.268 Y98.209 E55.81689
G0 F3600 X67.65 Y98.448
G1 F1800 X68.262 Y98.149 E55.85087
G1 X68.904 Y97.924 E55.88481
G1 X69.569 Y97.775 E55.91881
G1 X70.5 Y97.7 E55.96541
G1 X137.022 Y97.7 E59.28421
G1 X137.071 Y97.677 E59.28691
G1 X137.521 Y97.519 E59.3107
G1 X138.914 Y97.095 E59.38335
G1 X139.576 Y96.936 E59.41731
G1 X140.031 Y96.872 E59.44024
G1 X141.484 Y96.728 E59.51308
G1 X142.164 Y96.701 E59.54704
G1 X142.627 Y96.728 E59.57017
G1 X144.082 Y96.872 E59.64312
G1 X144.755 Y96.979 E59.67712
G1 X145.201 Y97.096 E59.70012
G1 X146.593 Y97.52 E59.77272
G1 X147.232 Y97.756 E59.8067
G1 X147.658 Y97.964 E59.83035
G1 X148.949 Y98.661 E59.90355
G1 X149.529 Y99.019 E59.93755
G1 X149.889 Y99.295 E59.96019
G1 X151.014 Y100.225 E60.03301
G1 X151.513 Y100.689 E60.067
G1 X151.813 Y101.028 E60.08959
G1 X152.74 Y102.164 E60.16274
G1 X153.138 Y102.716 E60.19669
G1 X153.371 Y103.115 E60.21974
G1 X154.06 Y104.415 E60.29314
G1 X154.343 Y105.034 E60.3271
G1 X154.488 Y105.458 E60.34946
G1 X154.911 Y106.862 E60.42261
G1 X155.069 Y107.524 E60.45657
G1 X155.131 Y107.975 E60.47928
G1 X155.273 Y109.438 E60.55261
G1 X155.299 Y110.118 E60.58656
G1 X155.273 Y110.557 E60.6085
G1 X155.131 Y112.023 E60.68198
G1 X155.026 Y112.696 E60.71597
G1 X154.912 Y113.136 E60.73864
G1 X154.489 Y114.541 E60.81185
G1 X154.255 Y115.18 E60.8458
G1 X154.059 Y115.587 E60.86833
G1 X153.37 Y116.886 E60.94169
G1 X153.016 Y117.467 E60.97563
G1 X152.742 Y117.832 E60.9984
G1 X151.817 Y118.967 E61.07145
G1 X151.357 Y119.469 E61.10542
G1 X151.019 Y119.771 E61.12804
G1 X149.893 Y120.703 E61.20096
G1 X149.344 Y121.106 E61.23494
G1 X148.947 Y121.34 E61.25793
G1 X147.656 Y122.036 E61.3311
G1 X147.039 Y122.324 E61.36507
G1 X146.597 Y122.479 E61.38844
G1 X145.204 Y122.904 E61.4611
G1 X144.542 Y123.064 E61.49508
G1 X144.086 Y123.127 E61.51804
