;FLAVOR:Marlin
;TIME:5397
;Filament used: 3.72483m
;Layer height: 0.1
;Generated with Cura_SteamEngine 3.1.0
M190 S70
M104 S250
M109 S250
M82 ; absolute extrusion mode
G28 ;Home
G1 Z15.0 F6000 ;Move the platform down 15mm
;Prime the extruder
G92 E0
G1 F200 E3
G92 E0
;LAYER_COUNT:49
;LAYER:0
M107
G0 F3600 X32.285 Y95.186 Z0.3
;TYPE:SKIRT
G1 F1800 X33.038 Y94.949 E0.03938
G1 X33.812 Y94.79 E0.07881
G1 X34.597 Y94.709 E0.11818
G1 X34.999 Y94.699 E0.13824
G1 X185.001 Y94.699 E7.62187
G1 X185.79 Y94.739 E7.66128
G1 X186.57 Y94.858 E7.70065
G1 X187.335 Y95.056 E7.74007
G1 X188.075 Y95.33 E7.77944
G1 X188.784 Y95.678 E7.81884
G1 X189.455 Y96.096 E7.85828
G1 X190.079 Y96.579 E7.89765
G1 X190.652 Y97.122 E7.93704
G1 X191.167 Y97.721 E7.97645
G1 X191.618 Y98.369 E8.01583
G1 X192.002 Y99.06 E8.05527
G1 X192.314 Y99.785 E8.09465
G1 X192.551 Y100.538 E8.13404
G1 X192.71 Y101.312 E8.17346
G1 X192.791 Y102.097 E8.21283
G1 X192.801 Y102.499 E8.23289
G1 X192.801 Y117.5 E8.98129
G1 X192.761 Y118.289 E9.02071
G1 X192.642 Y119.069 E9.06007
G1 X192.444 Y119.834 E9.0995
G1 X192.17 Y120.574 E9.13886
G1 X191.822 Y121.283 E9.17827
G1 X191.404 Y121.954 E9.21771
G1 X190.921 Y122.578 E9.25708
G1 X190.378 Y123.151 E9.29646
G1 X189.779 Y123.666 E9.33587
G1 X189.131 Y124.117 E9.37526
G1 X188.44 Y124.501 E9.4147
G1 X187.715 Y124.813 E9.45408
G1 X186.962 Y125.05 E9.49346
G1 X186.188 Y125.209 E9.53288
G1 X185.403 Y125.29 E9.57225
G1 X185.001 Y125.3 E9.59232
G1 X34.999 Y125.3 E17.07595
G1 X34.21 Y125.26 E17.11536
G1 X33.43 Y125.141 E17.15473
G1 X32.665 Y124.943 E17.19415
G1 X31.925 Y124.669 E17.23352
G1 X31.216 Y124.321 E17.27292
G1 X30.545 Y123.903 E17.31236
G1 X29.921 Y123.42 E17.35173
G1 X29.348 Y122.877 E17.39111
G1 X28.833 Y122.278 E17.43052
G1 X28.382 Y121.63 E17.46991
G1 X27.998 Y120.939 E17.50935
G1 X27.686 Y120.214 E17.54873
G1 X27.449 Y119.461 E17.58811
G1 X27.29 Y118.687 E17.62753
G1 X27.209 Y117.902 E17.66691
G1 X27.199 Y117.5 E17.68697
G1 X27.199 Y102.499 E18.43537
G1 X27.239 Y101.71 E18.47479
G1 X27.358 Y100.93 E18.51415
G1 X27.556 Y100.165 E18.55357
G1 X27.83 Y99.425 E18.59294
G1 X28.178 Y98.716 E18.63235
G1 X28.596 Y98.045 E18.67179
G1 X29.079 Y97.421 E18.71115
G1 X29.622 Y96.848 E18.75054
G1 X30.221 Y96.333 E18.78995
G1 X30.869 Y95.882 E18.82934
G1 X31.56 Y95.498 E18.86878
G1 X32.285 Y95.186 E18.90815
G0 F3600 X32.65 Y95.482
G1 F1800 X33.392 Y95.276 E18.94657
G1 X34.15 Y95.148 E18.98493
G1 X34.999 Y95.099 E19.02735
G1 X185.001 Y95.099 E26.51098
G1 X185.769 Y95.139 E26.54935
G1 X186.529 Y95.258 E26.58773
G1 X187.272 Y95.456 E26.62609
G1 X187.991 Y95.73 E26.66448
G1 X188.677 Y96.077 E26.70283
G1 X189.324 Y96.493 E26.74121
G1 X189.924 Y96.974 E26.77957
G1 X190.471 Y97.515 E26.81796
G1 X190.959 Y98.11 E26.85635
G1 X191.382 Y98.752 E26.8947
G1 X191.737 Y99.435 E26.93311
G1 X192.018 Y100.15 E26.97143
G1 X192.224 Y100.892 E27.00985
G1 X192.352 Y101.65 E27.04821
G1 X192.401 Y102.499 E27.09063
G1 X192.401 Y117.5 E27.83904
G1 X192.361 Y118.268 E27.8774
G1 X192.242 Y119.028 E27.91578
G1 X192.044 Y119.771 E27.95414
G1 X191.77 Y120.49 E27.99253
G1 X191.423 Y121.176 E28.03089
G1 X191.007 Y121.823 E28.06926
G1 X190.526 Y122.423 E28.10763
G1 X189.985 Y122.97 E28.14601
G1 X189.39 Y123.458 E28.1844
G1 X188.748 Y123.881 E28.22276
G1 X188.065 Y124.236 E28.26116
G1 X187.35 Y124.517 E28.29949
G1 X186.608 Y124.723 E28.33791
G1 X185.85 Y124.851 E28.37626
G1 X185.001 Y124.9 E28.41869
G1 X34.999 Y124.9 E35.90232
G1 X34.231 Y124.86 E35.94068
G1 X33.471 Y124.741 E35.97906
G1 X32.728 Y124.543 E36.01743
G1 X32.009 Y124.269 E36.05581
G1 X31.323 Y123.922 E36.09417
G1 X30.676 Y123.506 E36.13254
G1 X30.076 Y123.025 E36.17091
G1 X29.529 Y122.484 E36.20929
G1 X29.041 Y121.889 E36.24768
G1 X28.618 Y121.247 E36.28604
G1 X28.263 Y120.564 E36.32444
G1 X27.982 Y119.849 E36.36277
G1 X27.776 Y119.107 E36.40119
G1 X27.648 Y118.349 E36.43954
G1 X27.599 Y117.5 E36.48197
G1 X27.599 Y102.499 E37.23037
G1 X27.639 Y101.731 E37.26874
G1 X27.758 Y100.971 E37.30712
G1 X27.956 Y100.228 E37.34548
G1 X28.23 Y99.509 E37.38387
G1 X28.577 Y98.823 E37.42222
G1 X28.993 Y98.176 E37.4606
G1 X29.474 Y97.576 E37.49896
G1 X30.015 Y97.029 E37.53734
G1 X30.61 Y96.541 E37.57574
G1 X31.252 Y96.118 E37.61409
G1 X31.935 Y95.763 E37.6525
G1 X32.65 Y95.482 E37.69082
G0 F3600 X32.307 Y96.037
G1 F1800 X33.012 Y95.787 E37.72814
G1 X33.74 Y95.613 E37.76548
G1 X34.482 Y95.518 E37.80281
G1 X34.999 Y95.499 E37.82862
G1 X185.001 Y95.499 E45.31225
G1 X185.748 Y95.539 E45.34957
G1 X186.486 Y95.658 E45.38686
G1 X187.208 Y95.856 E45.42421
G1 X187.904 Y96.129 E45.46151
G1 X188.567 Y96.476 E45.49885
G1 X189.19 Y96.891 E45.53619
G1 X189.764 Y97.37 E45.57349
G1 X190.285 Y97.907 E45.61082
G1 X190.744 Y98.497 E45.64811
G1 X191.139 Y99.133 E45.68546
G1 X191.463 Y99.807 E45.72277
G1 X191.713 Y100.512 E45.76009
G1 X191.887 Y101.24 E45.79743
G1 X191.982 Y101.982 E45.83476
G1 X192.001 Y102.499 E45.86057
G1 X192.001 Y117.5 E46.60897
G1 X191.961 Y118.247 E46.64629
G1 X191.842 Y118.985 E46.68358
G1 X191.644 Y119.707 E46.72094
G1 X191.371 Y120.403 E46.75823
G1 X191.024 Y121.066 E46.79557
G1 X190.609 Y121.689 E46.83291
G1 X190.13 Y122.263 E46.87021
G1 X189.593 Y122.784 E46.90754
G1 X189.003 Y123.243 E46.94483
G1 X188.367 Y123.638 E46.98219
G1 X187.693 Y123.962 E47.0195
G1 X186.988 Y124.212 E47.05681
G1 X186.26 Y124.386 E47.09416
G1 X185.518 Y124.481 E47.13148
G1 X185.001 Y124.5 E47.15729
G1 X34.999 Y124.5 E54.64092
G1 X34.252 Y124.46 E54.67824
G1 X33.514 Y124.341 E54.71554
G1 X32.792 Y124.143 E54.75289
G1 X32.096 Y123.87 E54.79018
G1 X31.433 Y123.523 E54.82752
G1 X30.81 Y123.108 E54.86486
G1 X30.236 Y122.629 E54.90216
G1 X29.715 Y122.092 E54.93949
G1 X29.256 Y121.502 E54.97678
G1 X28.861 Y120.866 E55.01414
G1 X28.537 Y120.192 E55.05145
G1 X28.287 Y119.487 E55.08876
G1 X28.113 Y118.759 E55.12611
G1 X28.018 Y118.017 E55.16343
G1 X27.999 Y117.5 E55.18924
G1 X27.999 Y102.499 E55.93764
G1 X28.039 Y101.752 E55.97496
G1 X28.158 Y101.014 E56.01226
G1 X28.356 Y100.292 E56.04961
G1 X28.629 Y99.596 E56.08691
G1 X28.976 Y98.933 E56.12424
G1 X29.391 Y98.31 E56.16159
G1 X29.87 Y97.736 E56.19889
G1 X30.407 Y97.215 E56.23621
G1 X30.997 Y96.756 E56.27351
G1 X31.633 Y96.361 E56.31086
G1 X32.307 Y96.037 E56.34817
G0 F3600 X32.677 Y96.321
G1 F1800 X33.37 Y96.103 E56.38441
G1 X34.082 Y95.963 E56.42062
G1 X34.999 Y95.899 E56.46648
G1 X185.001 Y95.899 E63.95011
G1 X185.726 Y95.939 E63.98633
G1 X186.443 Y96.058 E64.02259
G1 X187.142 Y96.256 E64.05884
G1 X187.815 Y96.529 E64.09507
G1 X188.454 Y96.874 E64.1313
G1 X189.051 Y97.288 E64.16755
G1 X189.599 Y97.764 E64.20376
G1 X190.092 Y98.298 E64.24002
G1 X190.522 Y98.883 E64.27624
G1 X190.886 Y99.512 E64.3125
G1 X191.179 Y100.177 E64.34875
G1 X191.397 Y100.87 E64.385
G1 X191.537 Y101.582 E64.4212
G1 X191.601 Y102.499 E64.46706
G1 X191.601 Y117.5 E65.21546
G1 X191.561 Y118.225 E65.25169
G1 X191.442 Y118.942 E65.28795
G1 X191.244 Y119.641 E65.32419
G1 X190.971 Y120.314 E65.36043
G1 X190.626 Y120.953 E65.39666
G1 X190.212 Y121.55 E65.4329
G1 X189.736 Y122.098 E65.46911
G1 X189.202 Y122.591 E65.50537
G1 X188.617 Y123.021 E65.5416
G1 X187.988 Y123.385 E65.57785
G1 X187.323 Y123.678 E65.61411
G1 X186.63 Y123.896 E65.65035
G1 X185.918 Y124.036 E65.68655
G1 X185.001 Y124.1 E65.73241
G1 X34.999 Y124.1 E73.21604
G1 X34.274 Y124.06 E73.25227
G1 X33.557 Y123.941 E73.28853
G1 X32.858 Y123.743 E73.32478
G1 X32.185 Y123.47 E73.36101
G1 X31.546 Y123.125 E73.39724
G1 X30.949 Y122.711 E73.43348
G1 X30.401 Y122.235 E73.4697
G1 X29.908 Y121.701 E73.50596
G1 X29.478 Y121.116 E73.54218
G1 X29.114 Y120.487 E73.57843
G1 X28.821 Y119.822 E73.61469
G1 X28.603 Y119.129 E73.65093
G1 X28.463 Y118.417 E73.68714
G1 X28.399 Y117.5 E73.733
G1 X28.399 Y102.499 E74.4814
G1 X28.439 Y101.774 E74.51762
G1 X28.558 Y101.057 E74.55389
G1 X28.756 Y100.358 E74.59013
G1 X29.029 Y99.685 E74.62636
G1 X29.374 Y99.046 E74.66259
G1 X29.788 Y98.449 E74.69884
G1 X30.264 Y97.901 E74.73505
G1 X30.798 Y97.408 E74.77131
G1 X31.383 Y96.978 E74.80753
G1 X32.012 Y96.614 E74.84379
G1 X32.677 Y96.321 E74.88004
G0 F3600 X33.042 Y96.616
G1 F1800 X33.722 Y96.432 E74.91519
G1 X34.418 Y96.326 E74.95031
G1 X34.999 Y96.299 E74.97933
G1 X185.001 Y96.299 E82.46296
G1 X185.704 Y96.339 E82.49809
G1 X186.398 Y96.458 E82.53322
G1 X187.073 Y96.656 E82.56832
G1 X187.722 Y96.928 E82.60342
G1 X188.336 Y97.273 E82.63856
G1 X188.907 Y97.684 E82.67366
G1 X189.428 Y98.158 E82.7088
G1 X189.892 Y98.688 E82.74394
G1 X190.292 Y99.267 E82.77905
G1 X190.624 Y99.888 E82.81418
G1 X190.884 Y100.542 E82.8493
G1 X191.068 Y101.222 E82.88444
G1 X191.174 Y101.918 E82.91957
G1 X191.201 Y102.499 E82.94858
G1 X191.201 Y117.5 E83.69699
G1 X191.161 Y118.203 E83.73212
G1 X191.042 Y118.897 E83.76724
G1 X190.844 Y119.572 E83.80234
G1 X190.572 Y120.221 E83.83745
G1 X190.227 Y120.835 E83.87258
G1 X189.816 Y121.406 E83.90768
G1 X189.342 Y121.927 E83.94282
G1 X188.812 Y122.391 E83.97797
G1 X188.233 Y122.791 E84.01308
G1 X187.612 Y123.123 E84.04821
G1 X186.958 Y123.383 E84.08332
G1 X186.278 Y123.567 E84.11847
G1 X185.582 Y123.673 E84.15359
G1 X185.001 Y123.7 E84.18261
G1 X34.999 Y123.7 E91.66624
G1 X34.296 Y123.66 E91.70137
G1 X33.602 Y123.541 E91.7365
G1 X32.927 Y123.343 E91.77159
G1 X32.278 Y123.071 E91.8067
G1 X31.664 Y122.726 E91.84183
G1 X31.093 Y122.315 E91.87693
G1 X30.572 Y121.841 E91.91207
G1 X30.108 Y121.311 E91.94722
G1 X29.708 Y120.732 E91.98233
G1 X29.376 Y120.111 E92.01746
G1 X29.116 Y119.457 E92.05257
G1 X28.932 Y118.777 E92.08772
G1 X28.826 Y118.081 E92.12284
G1 X28.799 Y117.5 E92.15186
G1 X28.799 Y102.499 E92.90026
G1 X28.839 Y101.796 E92.93539
G1 X28.958 Y101.102 E92.97052
G1 X29.156 Y100.427 E93.00561
G1 X29.428 Y99.778 E93.04072
G1 X29.773 Y99.164 E93.07586
G1 X30.184 Y98.593 E93.11096
G1 X30.658 Y98.072 E93.1461
G1 X31.188 Y97.608 E93.18124
G1 X31.767 Y97.208 E93.21635
G1 X32.388 Y96.876 E93.25148
G1 X33.042 Y96.616 E93.28659
G0 F3600 X32.761 Y97.148
G1 F1800 X33.403 Y96.923 E93.32053
G1 X34.068 Y96.774 E93.35453
G1 X34.999 Y96.699 E93.40113
G1 X185.001 Y96.699 E100.88476
G1 X185.681 Y96.739 E100.91875
G1 X186.351 Y96.858 E100.9527
G1 X187.003 Y97.055 E100.98668
G1 X187.627 Y97.327 E101.02064
G1 X188.215 Y97.671 E101.05462
G1 X188.759 Y98.081 E101.08861
G1 X189.25 Y98.552 E101.12255
G1 X189.684 Y99.077 E101.15654
G1 X190.053 Y99.649 E101.1905
G1 X190.352 Y100.261 E101.22448
G1 X190.577 Y100.903 E101.25842
G1 X190.726 Y101.568 E101.29242
G1 X190.801 Y102.499 E101.33902
G1 X190.801 Y117.5 E102.08742
G1 X190.761 Y118.18 E102.1214
G1 X190.642 Y118.85 E102.15535
G1 X190.445 Y119.502 E102.18933
G1 X190.173 Y120.126 E102.22329
G1 X189.829 Y120.714 E102.25728
G1 X189.419 Y121.258 E102.29127
G1 X188.948 Y121.749 E102.32521
G1 X188.423 Y122.183 E102.35919
G1 X187.851 Y122.552 E102.39315
G1 X187.239 Y122.851 E102.42714
G1 X186.597 Y123.076 E102.46108
G1 X185.932 Y123.225 E102.49508
G1 X185.001 Y123.3 E102.54167
G1 X34.999 Y123.3 E110.0253
G1 X34.319 Y123.26 E110.05929
G1 X33.649 Y123.141 E110.09324
G1 X32.997 Y122.944 E110.12722
G1 X32.373 Y122.672 E110.16118
G1 X31.785 Y122.328 E110.19517
G1 X31.241 Y121.918 E110.22915
G1 X30.75 Y121.447 E110.2631
G1 X30.316 Y120.922 E110.29708
G1 X29.947 Y120.35 E110.33104
G1 X29.648 Y119.738 E110.36502
G1 X29.423 Y119.096 E110.39896
G1 X29.274 Y118.431 E110.43296
G1 X29.199 Y117.5 E110.47956
G1 X29.199 Y102.499 E111.22796
G1 X29.239 Y101.819 E111.26195
G1 X29.358 Y101.149 E111.29589
G1 X29.555 Y100.497 E111.32988
G1 X29.827 Y99.873 E111.36384
G1 X30.171 Y99.285 E111.39782
G1 X30.581 Y98.741 E111.43181
G1 X31.052 Y98.25 E111.46575
G1 X31.577 Y97.816 E111.49974
G1 X32.149 Y97.447 E111.5337
G1 X32.761 Y97.148 E111.56768
G0 F3600 X33.13 Y97.433
G1 F1800 X33.759 Y97.243 E111.60046
G1 X34.406 Y97.132 E111.63321
G1 X34.999 Y97.099 E111.66284
G1 X185.001 Y97.099 E119.14647
G1 X185.657 Y97.139 E119.17926
G1 X186.303 Y97.258 E119.21203
G1 X186.93 Y97.455 E119.24482
G1 X187.528 Y97.727 E119.2776
G1 X188.089 Y98.069 E119.31037
G1 X188.604 Y98.477 E119.34315
G1 X189.066 Y98.944 E119.37593
G1 X189.467 Y99.464 E119.40869
G1 X189.803 Y100.028 E119.44144
G1 X190.067 Y100.63 E119.47424
G1 X190.257 Y101.259 E119.50702
G1 X190.368 Y101.906 E119.53977
G1 X190.401 Y102.499 E119.5694
G1 X190.401 Y117.5 E120.3178
G1 X190.361 Y118.156 E120.35059
G1 X190.242 Y118.802 E120.38336
G1 X190.045 Y119.429 E120.41615
G1 X189.773 Y120.027 E120.44893
G1 X189.431 Y120.588 E120.48171
G1 X189.023 Y121.103 E120.51448
G1 X188.556 Y121.565 E120.54726
G1 X188.036 Y121.966 E120.58002
G1 X187.472 Y122.302 E120.61277
G1 X186.87 Y122.566 E120.64557
G1 X186.241 Y122.756 E120.67835
G1 X185.594 Y122.867 E120.7111
G1 X185.001 Y122.9 E120.74073
G1 X34.999 Y122.9 E128.22436
G1 X34.343 Y122.86 E128.25715
G1 X33.697 Y122.741 E128.28992
G1 X33.07 Y122.544 E128.32271
G1 X32.472 Y122.272 E128.35548
G1 X31.911 Y121.93 E128.38826
G1 X31.396 Y121.522 E128.42104
G1 X30.934 Y121.055 E128.45382
G1 X30.533 Y120.535 E128.48658
G1 X30.197 Y119.971 E128.51933
G1 X29.933 Y119.369 E128.55212
G1 X29.743 Y118.74 E128.58491
G1 X29.632 Y118.093 E128.61766
G1 X29.599 Y117.5 E128.64729
G1 X29.599 Y102.499 E129.39569
G1 X29.639 Y101.843 E129.42848
G1 X29.758 Y101.197 E129.46125
G1 X29.955 Y100.57 E129.49404
G1 X30.227 Y99.972 E129.52681
G1 X30.569 Y99.411 E129.55959
G1 X30.977 Y98.896 E129.59237
G1 X31.444 Y98.434 E129.62515
G1 X31.964 Y98.033 E129.65791
G1 X32.528 Y97.697 E129.69066
G1 X33.13 Y97.433 E129.72346
G0 F3600 X33.494 Y97.731
G1 F1800 X34.108 Y97.579 E129.75501
G1 X34.999 Y97.499 E129.79964
G1 X185.001 Y97.499 E137.28327
G1 X185.632 Y97.539 E137.31482
G1 X186.253 Y97.658 E137.34636
G1 X186.853 Y97.855 E137.37787
G1 X187.425 Y98.126 E137.40945
G1 X187.957 Y98.466 E137.44095
G1 X188.442 Y98.872 E137.4725
G1 X188.872 Y99.335 E137.50403
G1 X189.241 Y99.849 E137.53559
G1 X189.541 Y100.405 E137.56711
G1 X189.769 Y100.994 E137.59862
G1 X189.921 Y101.608 E137.63018
G1 X190.001 Y102.499 E137.67481
G1 X190.001 Y117.5 E138.42322
G1 X189.961 Y118.131 E138.45476
G1 X189.842 Y118.752 E138.4863
G1 X189.645 Y119.352 E138.51781
G1 X189.374 Y119.924 E138.54939
G1 X189.034 Y120.456 E138.58089
G1 X188.628 Y120.941 E138.61244
G1 X188.165 Y121.371 E138.64397
G1 X187.651 Y121.74 E138.67554
G1 X187.095 Y122.04 E138.70705
G1 X186.506 Y122.268 E138.73856
G1 X185.892 Y122.42 E138.77012
G1 X185.001 Y122.5 E138.81475
G1 X34.999 Y122.5 E146.29838
G1 X34.368 Y122.46 E146.32993
G1 X33.747 Y122.341 E146.36147
G1 X33.147 Y122.144 E146.39298
G1 X32.575 Y121.873 E146.42456
G1 X32.043 Y121.533 E146.45606
G1 X31.558 Y121.127 E146.48761
G1 X31.128 Y120.664 E146.51914
G1 X30.759 Y120.15 E146.5507
G1 X30.459 Y119.594 E146.58222
G1 X30.231 Y119.005 E146.61373
G1 X30.079 Y118.391 E146.64529
G1 X29.999 Y117.5 E146.68992
G1 X29.999 Y102.499 E147.43832
G1 X30.039 Y101.868 E147.46987
G1 X30.158 Y101.247 E147.50141
G1 X30.355 Y100.647 E147.53292
G1 X30.626 Y100.075 E147.5645
G1 X30.966 Y99.543 E147.596
G1 X31.372 Y99.058 E147.62755
G1 X31.835 Y98.628 E147.65908
G1 X32.349 Y98.259 E147.69064
G1 X32.905 Y97.959 E147.72216
G1 X33.494 Y97.731 E147.75367
G0 F3600 X33.277 Y98.233
G1 F1800 X33.853 Y98.044 E147.78392
G1 X34.449 Y97.932 E147.81417
G1 X34.999 Y97.899 E147.84166
G1 X185.001 Y97.899 E155.32529
G1 X185.606 Y97.939 E155.35554
G1 X186.2 Y98.058 E155.38577
G1 X186.774 Y98.254 E155.41603
G1 X187.317 Y98.525 E155.4463
G1 X187.82 Y98.864 E155.47656
G1 X188.273 Y99.266 E155.50678
G1 X188.67 Y99.724 E155.53702
G1 X189.003 Y100.231 E155.56728
G1 X189.267 Y100.777 E155.59754
G1 X189.456 Y101.353 E155.62778
G1 X189.568 Y101.949 E155.65804
G1 X189.601 Y102.499 E155.68553
G1 X189.601 Y117.5 E156.43393
G1 X189.561 Y118.105 E156.46418
G1 X189.442 Y118.699 E156.4944
G1 X189.246 Y119.273 E156.52466
G1 X188.975 Y119.816 E156.55494
G1 X188.636 Y120.319 E156.5852
G1 X188.234 Y120.772 E156.61542
G1 X187.776 Y121.169 E156.64566
G1 X187.269 Y121.502 E156.67592
G1 X186.723 Y121.766 E156.70618
G1 X186.147 Y121.955 E156.73642
G1 X185.551 Y122.067 E156.76668
G1 X185.001 Y122.1 E156.79417
G1 X34.999 Y122.1 E164.2778
G1 X34.394 Y122.06 E164.30805
G1 X33.8 Y121.941 E164.33827
