;FLAVOR:Marlin
;TIME:2948
;Filament used: 0.939457m
;Layer height: 0.1
;Generated with Cura_SteamEngine 3.1.0
M190 S70
M104 S250
M109 S250
M82 ; absolute extrusion mode
G28 ;Home
G1 Z15.0 F6000 ;Move the platform down 15mm
;Prime the extruder
G92 E0
G1 F200 E3
G92 E0
;LAYER_COUNT:511
;LAYER:0
M107
G0 F3600 X98.472 Y97.322 Z0.3
;TYPE:SKIRT
G1 F1800 X99.058 Y96.792 E0.03942
G1 X99.521 Y96.443 E0.06835
G1 X100.854 Y95.511 E0.14949
G1 X101.523 Y95.091 E0.1889
G1 X102.021 Y94.836 E0.21681
G1 X103.5 Y94.145 E0.29826
G1 X104.232 Y93.848 E0.33767
G1 X104.787 Y93.677 E0.36664
G1 X106.361 Y93.256 E0.44793
G1 X107.133 Y93.091 E0.48732
G1 X107.697 Y93.021 E0.51567
G1 X109.321 Y92.879 E0.597
G1 X110.11 Y92.85 E0.63639
G1 X110.679 Y92.879 E0.66481
G1 X112.303 Y93.021 E0.74615
G1 X113.086 Y93.129 E0.78558
G1 X113.639 Y93.256 E0.81389
G1 X115.213 Y93.677 E0.89517
G1 X115.965 Y93.919 E0.93459
G1 X116.5 Y94.145 E0.96356
G1 X117.979 Y94.836 E1.04501
G1 X118.676 Y95.206 E1.08437
G1 X119.146 Y95.511 E1.11233
G1 X120.479 Y96.443 E1.19347
G1 X121.103 Y96.927 E1.23287
G1 X121.523 Y97.317 E1.26147
G1 X122.678 Y98.471 E1.34292
G1 X123.208 Y99.057 E1.38234
G1 X123.559 Y99.522 E1.41141
G1 X124.491 Y100.856 E1.4926
G1 X124.91 Y101.525 E1.53198
G1 X125.164 Y102.022 E1.55982
G1 X125.854 Y103.499 E1.64116
G1 X126.151 Y104.23 E1.68052
G1 X126.322 Y104.782 E1.70935
G1 X126.744 Y106.358 E1.79075
G1 X126.909 Y107.131 E1.83018
G1 X126.979 Y107.696 E1.85859
G1 X127.121 Y109.318 E1.93982
G1 X127.15 Y110.107 E1.97921
G1 X127.121 Y110.677 E2.00768
G1 X126.979 Y112.303 E2.08911
G1 X126.871 Y113.085 E2.1285
G1 X126.744 Y113.641 E2.15695
G1 X126.323 Y115.214 E2.23819
G1 X126.08 Y115.965 E2.27757
G1 X125.856 Y116.497 E2.30637
G1 X125.165 Y117.977 E2.38786
G1 X124.795 Y118.675 E2.42727
G1 X124.487 Y119.15 E2.45551
G1 X123.554 Y120.483 E2.53669
G1 X123.069 Y121.106 E2.57608
G1 X122.679 Y121.525 E2.60464
G1 X121.525 Y122.679 E2.68606
G1 X120.939 Y123.209 E2.72548
G1 X120.483 Y123.554 E2.75401
G1 X119.15 Y124.487 E2.83518
G1 X118.481 Y124.907 E2.87459
G1 X117.979 Y125.164 E2.90273
G1 X116.5 Y125.855 E2.98417
G1 X115.768 Y126.152 E3.02358
G1 X115.213 Y126.323 E3.05255
G1 X113.639 Y126.744 E3.13384
G1 X112.867 Y126.909 E3.17323
G1 X112.303 Y126.979 E3.20158
G1 X110.679 Y127.121 E3.28291
G1 X109.89 Y127.15 E3.3223
G1 X109.321 Y127.121 E3.35073
G1 X107.697 Y126.979 E3.43206
G1 X106.914 Y126.871 E3.47149
G1 X106.361 Y126.744 E3.4998
G1 X104.787 Y126.323 E3.58109
G1 X104.035 Y126.081 E3.6205
G1 X103.5 Y125.855 E3.64947
G1 X102.021 Y125.164 E3.73092
G1 X101.324 Y124.794 E3.77029
G1 X100.85 Y124.487 E3.79846
G1 X99.517 Y123.554 E3.87964
G1 X98.894 Y123.069 E3.91903
G1 X98.479 Y122.684 E3.94727
G1 X97.324 Y121.531 E4.02869
G1 X96.794 Y120.946 E4.06807
G1 X96.441 Y120.478 E4.09732
G1 X95.509 Y119.144 E4.1785
G1 X95.09 Y118.475 E4.21789
G1 X94.835 Y117.977 E4.2458
G1 X94.144 Y116.497 E4.32729
G1 X93.847 Y115.765 E4.3667
G1 X93.677 Y115.214 E4.39547
G1 X93.256 Y113.641 E4.47671
G1 X93.091 Y112.868 E4.51614
G1 X93.021 Y112.304 E4.54449
G1 X92.879 Y110.682 E4.62573
G1 X92.85 Y109.893 E4.66512
G1 X92.879 Y109.323 E4.69359
G1 X93.021 Y107.697 E4.77502
G1 X93.129 Y106.915 E4.81441
G1 X93.256 Y106.359 E4.84286
G1 X93.677 Y104.786 E4.9241
G1 X93.92 Y104.035 E4.96348
G1 X94.144 Y103.503 E4.99228
G1 X94.835 Y102.023 E5.07377
G1 X95.205 Y101.325 E5.11318
G1 X95.513 Y100.85 E5.14142
G1 X96.446 Y99.517 E5.2226
G1 X96.931 Y98.894 E5.26199
G1 X97.318 Y98.477 E5.29037
G1 X98.472 Y97.322 E5.37183
G0 F3600 X98.755 Y97.605
G1 F1800 X99.326 Y97.09 E5.41019
G1 X99.75 Y96.77 E5.43669
G1 X101.083 Y95.838 E5.51784
G1 X101.735 Y95.431 E5.55618
G1 X102.191 Y95.199 E5.58171
G1 X103.67 Y94.508 E5.66315
G1 X104.382 Y94.219 E5.70149
G1 X104.89 Y94.063 E5.728
G1 X106.464 Y93.642 E5.80929
G1 X107.216 Y93.482 E5.84765
G1 X107.731 Y93.419 E5.87353
G1 X109.355 Y93.277 E5.95486
G1 X110.124 Y93.25 E5.99325
G1 X110.645 Y93.277 E6.01928
G1 X112.269 Y93.419 E6.10061
G1 X113.03 Y93.526 E6.13895
G1 X113.536 Y93.642 E6.16485
G1 X115.11 Y94.063 E6.24614
G1 X115.842 Y94.3 E6.28452
G1 X116.33 Y94.508 E6.31099
G1 X117.809 Y95.199 E6.39243
G1 X118.488 Y95.56 E6.4308
G1 X118.917 Y95.838 E6.4563
G1 X120.25 Y96.77 E6.53745
G1 X120.857 Y97.243 E6.57584
G1 X121.24 Y97.6 E6.60196
G1 X122.395 Y98.754 E6.68342
G1 X122.91 Y99.325 E6.72178
G1 X123.231 Y99.751 E6.74839
G1 X124.163 Y101.085 E6.82958
G1 X124.57 Y101.737 E6.86792
G1 X124.801 Y102.191 E6.89334
G1 X125.491 Y103.668 E6.97467
G1 X125.78 Y104.381 E7.01305
G1 X125.935 Y104.886 E7.03941
G1 X126.357 Y106.462 E7.1208
G1 X126.517 Y107.214 E7.15916
G1 X126.581 Y107.731 E7.18515
G1 X126.723 Y109.353 E7.26638
G1 X126.75 Y110.121 E7.30472
G1 X126.723 Y110.642 E7.33075
G1 X126.581 Y112.268 E7.41218
G1 X126.474 Y113.03 E7.45057
G1 X126.357 Y113.537 E7.47653
G1 X125.936 Y115.11 E7.55777
G1 X125.699 Y115.842 E7.59615
G1 X125.493 Y116.328 E7.62249
G1 X124.802 Y117.808 E7.70398
G1 X124.441 Y118.487 E7.74234
G1 X124.16 Y118.92 E7.7681
G1 X123.227 Y120.253 E7.84927
G1 X122.753 Y120.86 E7.88769
G1 X122.397 Y121.243 E7.91378
G1 X121.243 Y122.397 E7.9952
G1 X120.671 Y122.911 E8.03357
G1 X120.253 Y123.227 E8.05971
G1 X118.92 Y124.16 E8.14089
G1 X118.268 Y124.567 E8.17923
G1 X117.809 Y124.801 E8.20494
G1 X116.33 Y125.492 E8.28638
G1 X115.618 Y125.781 E8.32472
G1 X115.11 Y125.937 E8.35123
G1 X113.536 Y126.358 E8.43252
G1 X112.784 Y126.518 E8.47087
G1 X112.269 Y126.581 E8.49676
G1 X110.645 Y126.723 E8.57809
G1 X109.876 Y126.75 E8.61648
G1 X109.355 Y126.723 E8.64251
G1 X107.731 Y126.581 E8.72384
G1 X106.97 Y126.474 E8.76218
G1 X106.464 Y126.358 E8.78808
G1 X104.89 Y125.937 E8.86936
G1 X104.158 Y125.7 E8.90775
G1 X103.67 Y125.492 E8.93422
G1 X102.191 Y124.801 E9.01566
G1 X101.512 Y124.44 E9.05403
G1 X101.08 Y124.16 E9.07971
G1 X99.747 Y123.227 E9.16088
G1 X99.14 Y122.753 E9.19931
G1 X98.762 Y122.401 E9.22508
G1 X97.607 Y121.248 E9.3065
G1 X97.092 Y120.677 E9.34486
G1 X96.769 Y120.249 E9.37161
G1 X95.837 Y118.915 E9.4528
G1 X95.43 Y118.263 E9.49114
G1 X95.198 Y117.808 E9.51662
G1 X94.507 Y116.328 E9.59811
G1 X94.218 Y115.615 E9.6365
G1 X94.064 Y115.11 E9.66284
G1 X93.643 Y113.537 E9.74408
G1 X93.483 Y112.785 E9.78243
G1 X93.419 Y112.269 E9.80837
G1 X93.277 Y110.647 E9.8896
G1 X93.25 Y109.879 E9.92794
G1 X93.277 Y109.358 E9.95397
G1 X93.419 Y107.732 E10.0354
G1 X93.526 Y106.97 E10.07379
G1 X93.643 Y106.463 E10.09975
G1 X94.064 Y104.89 E10.18099
G1 X94.301 Y104.158 E10.21938
G1 X94.507 Y103.672 E10.24571
G1 X95.198 Y102.192 E10.3272
G1 X95.559 Y101.513 E10.36557
G1 X95.84 Y101.08 E10.39132
G1 X96.773 Y99.747 E10.47249
G1 X97.247 Y99.14 E10.51092
G1 X97.601 Y98.76 E10.53683
G1 X98.755 Y97.605 E10.61828
G0 F3600 X99.038 Y97.887
G1 F1800 X99.594 Y97.387 E10.65559
G1 X99.979 Y97.098 E10.67961
G1 X101.312 Y96.166 E10.76075
G1 X101.947 Y95.771 E10.79806
G1 X102.36 Y95.561 E10.82118
G1 X103.839 Y94.87 E10.90262
G1 X104.533 Y94.59 E10.93996
G1 X104.993 Y94.45 E10.96394
G1 X106.567 Y94.029 E11.04523
G1 X107.299 Y93.874 E11.08256
G1 X107.766 Y93.818 E11.10603
G1 X109.39 Y93.676 E11.18736
G1 X110.138 Y93.65 E11.2247
G1 X110.61 Y93.676 E11.24828
G1 X112.234 Y93.818 E11.32961
G1 X112.974 Y93.922 E11.36689
G1 X113.433 Y94.029 E11.39041
G1 X115.007 Y94.45 E11.4717
G1 X115.718 Y94.681 E11.50899
G1 X116.161 Y94.87 E11.53302
G1 X117.64 Y95.561 E11.61447
G1 X118.3 Y95.913 E11.65178
G1 X118.688 Y96.166 E11.67489
G1 X120.021 Y97.098 E11.75604
G1 X120.61 Y97.559 E11.79335
G1 X120.958 Y97.883 E11.81708
G1 X122.113 Y99.037 E11.89853
G1 X122.613 Y99.593 E11.93584
G1 X122.903 Y99.98 E11.95997
G1 X123.835 Y101.314 E12.04115
G1 X124.23 Y101.949 E12.07846
G1 X124.439 Y102.36 E12.10147
G1 X125.129 Y103.837 E12.1828
G1 X125.409 Y104.531 E12.22013
G1 X125.549 Y104.989 E12.24403
G1 X125.971 Y106.565 E12.32542
G1 X126.125 Y107.297 E12.36274
G1 X126.182 Y107.766 E12.38631
G1 X126.324 Y109.388 E12.46755
G1 X126.35 Y110.135 E12.50484
G1 X126.324 Y110.607 E12.52842
G1 X126.182 Y112.233 E12.60985
G1 X126.078 Y112.974 E12.64718
G1 X125.971 Y113.434 E12.67074
G1 X125.55 Y115.007 E12.75198
G1 X125.318 Y115.718 E12.78929
G1 X125.131 Y116.158 E12.81315
G1 X124.44 Y117.638 E12.89464
G1 X124.087 Y118.298 E12.93198
G1 X123.832 Y118.691 E12.95535
G1 X122.899 Y120.024 E13.03652
G1 X122.438 Y120.613 E13.07384
G1 X122.114 Y120.96 E13.09753
G1 X120.96 Y122.114 E13.17895
G1 X120.403 Y122.614 E13.21629
G1 X120.024 Y122.899 E13.23995
G1 X118.691 Y123.832 E13.32112
G1 X118.056 Y124.227 E13.35843
G1 X117.64 Y124.439 E13.38173
G1 X116.161 Y125.13 E13.46317
G1 X115.467 Y125.41 E13.50051
G1 X115.007 Y125.55 E13.52449
G1 X113.433 Y125.971 E13.60578
G1 X112.701 Y126.126 E13.64311
G1 X112.234 Y126.182 E13.66658
G1 X110.61 Y126.324 E13.74791
G1 X109.862 Y126.35 E13.78525
G1 X109.39 Y126.324 E13.80883
G1 X107.766 Y126.182 E13.89016
G1 X107.026 Y126.078 E13.92744
G1 X106.567 Y125.971 E13.95096
G1 X104.993 Y125.55 E14.03225
G1 X104.282 Y125.319 E14.06954
G1 X103.839 Y125.13 E14.09357
G1 X102.36 Y124.439 E14.17502
G1 X101.7 Y124.087 E14.21233
G1 X101.309 Y123.832 E14.23562
G1 X99.976 Y122.899 E14.3168
G1 X99.387 Y122.438 E14.35411
G1 X99.045 Y122.118 E14.37748
G1 X97.89 Y120.965 E14.4589
G1 X97.389 Y120.409 E14.49624
G1 X97.097 Y120.02 E14.52051
G1 X96.165 Y118.686 E14.60169
G1 X95.77 Y118.051 E14.639
G1 X95.56 Y117.638 E14.66212
G1 X94.869 Y116.158 E14.74361
G1 X94.589 Y115.465 E14.7809
G1 X94.45 Y115.007 E14.80478
G1 X94.029 Y113.434 E14.88601
G1 X93.874 Y112.702 E14.92334
G1 X93.818 Y112.234 E14.94686
G1 X93.676 Y110.612 E15.02809
G1 X93.65 Y109.865 E15.06538
G1 X93.676 Y109.393 E15.08897
G1 X93.818 Y107.767 E15.1704
G1 X93.922 Y107.026 E15.20773
G1 X94.029 Y106.566 E15.23129
G1 X94.45 Y104.993 E15.31253
G1 X94.682 Y104.282 E15.34984
G1 X94.869 Y103.842 E15.37369
G1 X95.56 Y102.362 E15.45518
G1 X95.913 Y101.702 E15.49252
G1 X96.168 Y101.309 E15.5159
G1 X97.101 Y99.976 E15.59707
G1 X97.562 Y99.387 E15.63439
G1 X97.884 Y99.042 E15.65793
G1 X99.038 Y97.887 E15.73939
G0 F3600 X99.321 Y98.17
G1 F1800 X99.862 Y97.685 E15.77564
G1 X100.208 Y97.426 E15.7972
G1 X101.541 Y96.494 E15.87834
G1 X102.158 Y96.111 E15.91458
G1 X102.529 Y95.923 E15.93533
G1 X104.008 Y95.232 E16.01677
G1 X104.682 Y94.962 E16.05299
G1 X105.097 Y94.836 E16.07463
G1 X106.671 Y94.415 E16.15592
G1 X107.382 Y94.266 E16.19216
G1 X107.801 Y94.216 E16.21321
G1 X109.425 Y94.074 E16.29454
G1 X110.151 Y94.051 E16.33078
G1 X110.575 Y94.074 E16.35197
G1 X112.199 Y94.216 E16.4333
G1 X112.918 Y94.319 E16.46953
G1 X113.329 Y94.415 E16.49059
G1 X114.903 Y94.836 E16.57188
G1 X115.594 Y95.062 E16.60815
G1 X115.992 Y95.232 E16.62974
G1 X117.471 Y95.923 E16.71119
G1 X118.111 Y96.267 E16.74744
G1 X118.459 Y96.494 E16.76816
G1 X119.792 Y97.426 E16.84931
G1 X120.363 Y97.874 E16.88552
G1 X120.675 Y98.166 E16.90684
G1 X121.83 Y99.32 E16.9883
G1 X122.315 Y99.861 E17.02454
G1 X122.575 Y100.209 E17.04622
G1 X123.507 Y101.543 E17.1274
G1 X123.89 Y102.16 E17.16364
G1 X124.077 Y102.53 E17.18432
G1 X124.767 Y104.007 E17.26565
G1 X125.037 Y104.681 E17.30187
G1 X125.162 Y105.093 E17.32335
G1 X125.584 Y106.669 E17.40475
G1 X125.733 Y107.38 E17.44099
G1 X125.784 Y107.8 E17.4621
G1 X125.926 Y109.422 E17.54333
G1 X125.949 Y110.148 E17.57957
G1 X125.926 Y110.572 E17.60076
G1 X125.784 Y112.198 E17.68219
G1 X125.681 Y112.917 E17.71842
G1 X125.585 Y113.33 E17.73958
G1 X125.164 Y114.903 E17.82082
G1 X124.937 Y115.594 E17.8571
G1 X124.768 Y115.989 E17.87854
G1 X124.077 Y117.469 E17.96003
G1 X123.734 Y118.109 E17.99625
G1 X123.504 Y118.462 E18.01727
G1 X122.571 Y119.795 E18.09845
G1 X122.122 Y120.366 E18.13469
G1 X121.831 Y120.677 E18.15594
G1 X120.677 Y121.831 E18.23736
G1 X120.136 Y122.315 E18.27357
G1 X119.795 Y122.571 E18.29485
G1 X118.462 Y123.504 E18.37602
G1 X117.844 Y123.887 E18.41229
G1 X117.471 Y124.077 E18.43318
G1 X115.992 Y124.768 E18.51462
G1 X115.318 Y125.038 E18.55085
G1 X114.903 Y125.164 E18.57248
G1 X113.329 Y125.585 E18.65377
G1 X112.618 Y125.734 E18.69001
G1 X112.199 Y125.784 E18.71107
G1 X110.575 Y125.926 E18.7924
G1 X109.849 Y125.949 E18.82864
G1 X109.425 Y125.926 E18.84982
G1 X107.801 Y125.784 E18.93115
G1 X107.082 Y125.681 E18.96739
G1 X106.671 Y125.585 E18.98844
G1 X105.097 Y125.164 E19.06973
G1 X104.406 Y124.938 E19.106
G1 X104.008 Y124.768 E19.1276
G1 X102.529 Y124.077 E19.20904
G1 X101.889 Y123.733 E19.24529
G1 X101.538 Y123.504 E19.2662
G1 X100.205 Y122.571 E19.34737
G1 X99.634 Y122.122 E19.38361
G1 X99.327 Y121.835 E19.40458
G1 X98.172 Y120.682 E19.486
G1 X97.687 Y120.141 E19.52225
G1 X97.425 Y119.791 E19.54406
G1 X96.493 Y118.457 E19.62525
G1 X96.11 Y117.84 E19.66148
G1 X95.923 Y117.469 E19.68221
G1 X95.232 Y115.989 E19.7637
G1 X94.961 Y115.315 E19.79994
G1 X94.836 Y114.903 E19.82142
G1 X94.415 Y113.33 E19.90266
G1 X94.267 Y112.619 E19.93889
G1 X94.216 Y112.2 E19.95995
G1 X94.074 Y110.578 E20.04118
G1 X94.051 Y109.852 E20.07742
G1 X94.074 Y109.428 E20.0986
G1 X94.216 Y107.802 E20.18003
G1 X94.319 Y107.083 E20.21627
G1 X94.415 Y106.67 E20.23742
G1 X94.836 Y105.097 E20.31866
G1 X95.063 Y104.406 E20.35495
G1 X95.232 Y104.011 E20.37638
G1 X95.923 Y102.531 E20.45787
G1 X96.266 Y101.891 E20.4941
G1 X96.496 Y101.538 E20.51512
G1 X97.429 Y100.205 E20.59629
G1 X97.878 Y99.634 E20.63253
G1 X98.167 Y99.325 E20.65364
G1 X99.321 Y98.17 E20.7351
G0 F3600 X99.604 Y98.453
G1 F1800 X100.129 Y97.984 E20.77022
G1 X100.437 Y97.754 E20.7894
G1 X101.77 Y96.822 E20.87054
G1 X102.369 Y96.452 E20.90567
G1 X102.699 Y96.286 E20.9241
G1 X104.178 Y95.595 E21.00554
G1 X104.831 Y95.334 E21.04063
G1 X105.2 Y95.223 E21.05985
G1 X106.774 Y94.802 E21.14114
G1 X107.463 Y94.659 E21.17625
G1 X107.836 Y94.615 E21.19498
G1 X109.46 Y94.473 E21.27632
G1 X110.164 Y94.451 E21.31145
G1 X110.54 Y94.473 E21.33025
G1 X112.164 Y94.615 E21.41158
G1 X112.861 Y94.716 E21.44671
G1 X113.226 Y94.802 E21.46542
G1 X114.8 Y95.223 E21.54671
G1 X115.469 Y95.443 E21.58184
G1 X115.822 Y95.595 E21.60102
G1 X117.301 Y96.286 E21.68246
G1 X117.921 Y96.62 E21.7176
G1 X118.23 Y96.822 E21.73602
G1 X119.563 Y97.754 E21.81716
G1 X120.116 Y98.189 E21.85226
G1 X120.392 Y98.449 E21.87118
G1 X121.547 Y99.603 E21.95264
G1 X122.016 Y100.128 E21.98776
G1 X122.247 Y100.438 E22.00705
G1 X123.179 Y101.772 E22.08823
G1 X123.549 Y102.371 E22.12336
G1 X123.714 Y102.699 E22.14168
G1 X124.404 Y104.176 E22.22301
G1 X124.666 Y104.83 E22.25816
G1 X124.776 Y105.196 E22.27723
G1 X125.198 Y106.772 E22.35862
G1 X125.341 Y107.462 E22.39378
G1 X125.385 Y107.835 E22.41252
G1 X125.527 Y109.457 E22.49375
G1 X125.549 Y110.161 E22.52889
G1 X125.527 Y110.537 E22.54768
G1 X125.385 Y112.163 E22.62911
G1 X125.285 Y112.86 E22.66424
G1 X125.198 Y113.227 E22.68306
G1 X124.777 Y114.8 E22.76429
G1 X124.557 Y115.469 E22.79943
G1 X124.406 Y115.82 E22.81849
G1 X123.715 Y117.3 E22.89998
G1 X123.381 Y117.92 E22.93512
G1 X123.176 Y118.232 E22.95374
G1 X122.243 Y119.565 E23.03492
G1 X121.808 Y120.118 E23.07002
G1 X121.548 Y120.394 E23.08894
G1 X120.394 Y121.548 E23.17036
G1 X119.869 Y122.017 E23.20548
G1 X119.565 Y122.243 E23.22438
G1 X118.232 Y123.176 E23.30555
G1 X117.633 Y123.547 E23.3407
G1 X117.301 Y123.714 E23.35925
G1 X115.822 Y124.405 E23.44069
G1 X115.169 Y124.666 E23.47577
G1 X114.8 Y124.777 E23.495
G1 X113.226 Y125.198 E23.57629
G1 X112.537 Y125.341 E23.61139
G1 X112.164 Y125.385 E23.63013
G1 X110.54 Y125.527 E23.71146
G1 X109.836 Y125.549 E23.7466
G1 X109.46 Y125.527 E23.76539
G1 X107.836 Y125.385 E23.84672
G1 X107.139 Y125.284 E23.88186
G1 X106.774 Y125.198 E23.90057
G1 X105.2 Y124.777 E23.98186
G1 X104.531 Y124.557 E24.01699
G1 X104.178 Y124.405 E24.03616
G1 X102.699 Y123.714 E24.11761
G1 X102.079 Y123.38 E24.15274
G1 X101.768 Y123.176 E24.1713
G1 X100.435 Y122.243 E24.25247
G1 X99.882 Y121.808 E24.28758
G1 X99.61 Y121.552 E24.30621
G1 X98.455 Y120.399 E24.38763
G1 X97.986 Y119.874 E24.42275
G1 X97.753 Y119.562 E24.44218
G1 X96.821 Y118.228 E24.52337
G1 X96.451 Y117.629 E24.55849
G1 X96.285 Y117.3 E24.57688
G1 X95.594 Y115.82 E24.65837
G1 X95.333 Y115.166 E24.6935
G1 X95.223 Y114.8 E24.71257
G1 X94.802 Y113.227 E24.79381
G1 X94.659 Y112.538 E24.82891
G1 X94.615 Y112.165 E24.84765
