;FLAVOR:Marlin
;TIME:5996
;Filament used: 3.71975m
;Layer height: 0.1
;Generated with Cura_SteamEngine 3.1.0
M190 S70
M104 S250
M109 S250
M82 ; absolute extrusion mode
G28 ;Home
G1 Z15.0 F6000 ;Move the platform down 15mm
;Prime the extruder
G92 E0
G1 F200 E3
G92 E0
;LAYER_COUNT:199
;LAYER:0
M107
G0 F3600 X64.939 Y97.556 Z0.3
;TYPE:SKIRT
G1 F1800 X75.136 Y91.339 E0.59583
G1 X75.83 Y90.963 E0.63521
G1 X76.558 Y90.658 E0.67459
G1 X77.314 Y90.429 E0.71399
G1 X78.089 Y90.278 E0.75339
G1 X79.196 Y90.199 E0.80876
G1 X96.562 Y90.199 E1.67515
G1 X97.351 Y90.239 E1.71456
G1 X98.131 Y90.358 E1.75393
G1 X98.896 Y90.556 E1.79335
G1 X99.485 Y90.767 E1.82456
G1 X106.773 Y93.713 E2.21675
G1 X107.489 Y94.046 E2.25614
G1 X108.168 Y94.449 E2.29554
G1 X108.507 Y94.7 E2.31658
G1 X151.001 Y94.7 E4.43661
G1 X151.79 Y94.74 E4.47603
G1 X152.57 Y94.859 E4.51539
G1 X153.335 Y95.057 E4.55482
G1 X154.075 Y95.331 E4.59418
G1 X154.784 Y95.679 E4.63359
G1 X155.455 Y96.097 E4.67303
G1 X156.079 Y96.58 E4.7124
G1 X156.652 Y97.123 E4.75178
G1 X157.167 Y97.722 E4.79119
G1 X157.618 Y98.37 E4.83058
G1 X158.002 Y99.061 E4.87002
G1 X158.314 Y99.786 E4.9094
G1 X158.551 Y100.539 E4.94878
G1 X158.71 Y101.313 E4.9882
G1 X158.791 Y102.098 E5.02757
G1 X158.801 Y102.5 E5.04764
G1 X158.801 Y117.501 E5.79604
G1 X158.761 Y118.29 E5.83545
G1 X158.642 Y119.07 E5.87482
G1 X158.444 Y119.835 E5.91424
G1 X158.17 Y120.575 E5.95361
G1 X157.822 Y121.284 E5.99301
G1 X157.404 Y121.955 E6.03245
G1 X156.921 Y122.579 E6.07182
G1 X156.378 Y123.152 E6.11121
G1 X155.779 Y123.667 E6.15062
G1 X155.131 Y124.118 E6.19
G1 X154.44 Y124.502 E6.22944
G1 X153.715 Y124.814 E6.26882
G1 X152.962 Y125.051 E6.30821
G1 X152.188 Y125.21 E6.34763
G1 X151.403 Y125.291 E6.387
G1 X151.001 Y125.301 E6.40706
G1 X108.526 Y125.301 E8.52615
G1 X107.98 Y125.681 E8.55934
G1 X107.289 Y126.065 E8.59877
G1 X106.773 Y126.296 E8.62698
G1 X99.507 Y129.233 E9.01798
G1 X98.761 Y129.491 E9.05736
G1 X97.992 Y129.673 E9.09678
G1 X97.209 Y129.776 E9.13618
G1 X96.584 Y129.801 E9.16739
G1 X79.663 Y129.801 E10.01158
G1 X78.874 Y129.761 E10.051
G1 X78.094 Y129.642 E10.09036
G1 X77.329 Y129.444 E10.12978
G1 X76.589 Y129.17 E10.16915
G1 X75.719 Y128.73 E10.21779
G1 X65.055 Y122.479 E10.83449
G1 X64.394 Y122.046 E10.87391
G1 X63.781 Y121.548 E10.91331
G1 X63.222 Y120.991 E10.95268
G1 X62.722 Y120.38 E10.99207
G1 X62.286 Y119.721 E11.03149
G1 X61.919 Y119.022 E11.07088
G1 X61.624 Y118.289 E11.1103
G1 X61.405 Y117.531 E11.14967
G1 X61.264 Y116.754 E11.18906
G1 X61.199 Y115.75 E11.23926
G1 X61.199 Y104.216 E11.81469
G1 X61.239 Y103.427 E11.85411
G1 X61.358 Y102.647 E11.89347
G1 X61.556 Y101.882 E11.93289
G1 X61.83 Y101.142 E11.97226
G1 X62.178 Y100.433 E12.01167
G1 X62.596 Y99.762 E12.05111
G1 X63.079 Y99.138 E12.09047
G1 X63.622 Y98.565 E12.12986
G1 X64.221 Y98.05 E12.16927
G1 X64.939 Y97.556 E12.21275
G0 F3600 X65.147 Y97.898
G1 F1800 X75.344 Y91.681 E12.80858
G1 X76.02 Y91.315 E12.84693
G1 X76.731 Y91.021 E12.88531
G1 X77.469 Y90.803 E12.92371
G1 X78.225 Y90.663 E12.96206
G1 X79.196 Y90.599 E13.01061
G1 X96.562 Y90.599 E13.87701
G1 X97.33 Y90.639 E13.91537
G1 X98.09 Y90.758 E13.95375
G1 X98.833 Y90.956 E13.99211
G1 X99.335 Y91.138 E14.01875
G1 X106.623 Y94.084 E14.41094
G1 X107.32 Y94.409 E14.4493
G1 X107.98 Y94.805 E14.4877
G1 X108.373 Y95.1 E14.51222
G1 X151.001 Y95.1 E16.63894
G1 X151.769 Y95.14 E16.67731
G1 X152.529 Y95.259 E16.71569
G1 X153.272 Y95.457 E16.75405
G1 X153.991 Y95.731 E16.79244
G1 X154.677 Y96.078 E16.83079
G1 X155.324 Y96.494 E16.86916
G1 X155.924 Y96.975 E16.90753
G1 X156.471 Y97.516 E16.94591
G1 X156.959 Y98.111 E16.9843
G1 X157.382 Y98.753 E17.02266
G1 X157.737 Y99.436 E17.06106
G1 X158.018 Y100.151 E17.09939
G1 X158.224 Y100.893 E17.13781
G1 X158.352 Y101.651 E17.17616
G1 X158.401 Y102.5 E17.21859
G1 X158.401 Y117.501 E17.96699
G1 X158.361 Y118.269 E18.00536
G1 X158.242 Y119.029 E18.04374
G1 X158.044 Y119.772 E18.0821
G1 X157.77 Y120.491 E18.12049
G1 X157.423 Y121.177 E18.15884
G1 X157.007 Y121.824 E18.19722
G1 X156.526 Y122.424 E18.23558
G1 X155.985 Y122.971 E18.27397
G1 X155.39 Y123.459 E18.31236
G1 X154.748 Y123.882 E18.35072
G1 X154.065 Y124.237 E18.38912
G1 X153.35 Y124.518 E18.42745
G1 X152.608 Y124.724 E18.46586
G1 X151.85 Y124.852 E18.50422
G1 X151.001 Y124.901 E18.54664
G1 X108.387 Y124.901 E20.67266
G1 X108.239 Y125.022 E20.6822
G1 X107.597 Y125.445 E20.72056
G1 X106.623 Y125.925 E20.77473
G1 X99.357 Y128.862 E21.16573
G1 X98.63 Y129.113 E21.2041
G1 X97.881 Y129.286 E21.24245
G1 X97.118 Y129.382 E21.28082
G1 X96.584 Y129.401 E21.30748
G1 X79.663 Y129.401 E22.15167
G1 X78.895 Y129.361 E22.19004
G1 X78.135 Y129.242 E22.22841
G1 X77.392 Y129.044 E22.26678
G1 X76.673 Y128.77 E22.30516
G1 X75.921 Y128.385 E22.34731
G1 X65.257 Y122.134 E22.96401
G1 X64.614 Y121.711 E23.00241
G1 X64.019 Y121.224 E23.04077
G1 X63.478 Y120.677 E23.07915
G1 X62.996 Y120.078 E23.11751
G1 X62.58 Y119.431 E23.15588
G1 X62.232 Y118.745 E23.19426
G1 X61.958 Y118.026 E23.23265
G1 X61.76 Y117.283 E23.27101
G1 X61.64 Y116.524 E23.30935
G1 X61.599 Y115.75 E23.34802
G1 X61.599 Y104.216 E23.92345
G1 X61.639 Y103.448 E23.96182
G1 X61.758 Y102.688 E24.0002
G1 X61.956 Y101.945 E24.03856
G1 X62.23 Y101.226 E24.07694
G1 X62.577 Y100.54 E24.1153
G1 X62.993 Y99.893 E24.15367
G1 X63.474 Y99.293 E24.19204
G1 X64.015 Y98.746 E24.23042
G1 X64.61 Y98.258 E24.26881
G1 X65.147 Y97.898 E24.30107
G0 F3600 X65.355 Y98.239
G1 F1800 X75.552 Y92.022 E24.8969
G1 X76.211 Y91.668 E24.93422
G1 X76.903 Y91.385 E24.97152
G1 X77.622 Y91.178 E25.00884
G1 X78.359 Y91.049 E25.04617
G1 X79.196 Y90.999 E25.08801
G1 X96.562 Y90.999 E25.9544
G1 X97.309 Y91.039 E25.99172
G1 X98.047 Y91.158 E26.02901
G1 X98.769 Y91.356 E26.06636
G1 X99.185 Y91.509 E26.08848
G1 X106.473 Y94.455 E26.48066
G1 X107.151 Y94.772 E26.518
G1 X107.791 Y95.16 E26.55534
G1 X108.238 Y95.5 E26.58336
G1 X151.001 Y95.5 E28.71681
G1 X151.748 Y95.54 E28.75414
G1 X152.486 Y95.659 E28.79143
G1 X153.208 Y95.857 E28.82878
G1 X153.904 Y96.13 E28.86608
G1 X154.567 Y96.477 E28.90341
G1 X155.19 Y96.892 E28.94076
G1 X155.764 Y97.371 E28.97806
G1 X156.285 Y97.908 E29.01539
G1 X156.744 Y98.498 E29.05268
G1 X157.139 Y99.134 E29.09003
G1 X157.463 Y99.808 E29.12734
G1 X157.713 Y100.513 E29.16466
G1 X157.887 Y101.241 E29.202
G1 X157.982 Y101.983 E29.23932
G1 X158.001 Y102.5 E29.26513
G1 X158.001 Y117.501 E30.01354
G1 X157.961 Y118.248 E30.05086
G1 X157.842 Y118.986 E30.08815
G1 X157.644 Y119.708 E30.1255
G1 X157.371 Y120.404 E30.1628
G1 X157.024 Y121.067 E30.20014
G1 X156.609 Y121.69 E30.23748
G1 X156.13 Y122.264 E30.27478
G1 X155.593 Y122.785 E30.31211
G1 X155.003 Y123.244 E30.3494
G1 X154.367 Y123.639 E30.38675
G1 X153.693 Y123.963 E30.42406
G1 X152.988 Y124.213 E30.46138
G1 X152.26 Y124.387 E30.49873
G1 X151.518 Y124.482 E30.53605
G1 X151.001 Y124.501 E30.56186
G1 X108.245 Y124.501 E32.69496
G1 X107.852 Y124.807 E32.71981
G1 X107.216 Y125.202 E32.75716
G1 X106.473 Y125.554 E32.79818
G1 X99.207 Y128.491 E33.18918
G1 X98.5 Y128.734 E33.22648
G1 X97.77 Y128.9 E33.26383
G1 X97.027 Y128.987 E33.30115
G1 X96.584 Y129.001 E33.32326
G1 X79.663 Y129.001 E34.16745
G1 X78.916 Y128.961 E34.20477
G1 X78.178 Y128.842 E34.24207
G1 X77.456 Y128.644 E34.27942
G1 X76.76 Y128.371 E34.31672
G1 X76.123 Y128.04 E34.35253
G1 X65.459 Y121.789 E34.96923
G1 X64.835 Y121.377 E35.00653
G1 X64.258 Y120.9 E35.04388
G1 X63.736 Y120.365 E35.08117
G1 X63.273 Y119.777 E35.11851
G1 X62.876 Y119.143 E35.15583
G1 X62.549 Y118.47 E35.19316
G1 X62.296 Y117.766 E35.23048
G1 X62.119 Y117.039 E35.26781
G1 X62.02 Y116.298 E35.30511
G1 X61.999 Y115.75 E35.33247
G1 X61.999 Y104.216 E35.9079
G1 X62.039 Y103.469 E35.94522
G1 X62.158 Y102.731 E35.98252
G1 X62.356 Y102.009 E36.01987
G1 X62.629 Y101.313 E36.05717
G1 X62.976 Y100.65 E36.0945
G1 X63.391 Y100.027 E36.13185
G1 X63.87 Y99.453 E36.16915
G1 X64.407 Y98.932 E36.20648
G1 X64.997 Y98.473 E36.24377
G1 X65.355 Y98.239 E36.26511
G0 F3600 X65.563 Y98.581
G1 F1800 X75.76 Y92.364 E36.86093
G1 X76.4 Y92.02 E36.89718
G1 X77.074 Y91.749 E36.93343
G1 X77.774 Y91.554 E36.96968
G1 X78.491 Y91.437 E37.00592
G1 X79.196 Y91.399 E37.04115
G1 X96.562 Y91.399 E37.90754
G1 X97.287 Y91.439 E37.94377
G1 X98.004 Y91.558 E37.98003
G1 X99.035 Y91.88 E38.03391
G1 X106.323 Y94.826 E38.4261
G1 X106.981 Y95.135 E38.46236
G1 X107.6 Y95.514 E38.49857
G1 X108.098 Y95.9 E38.53001
G1 X151.001 Y95.9 E40.67045
G1 X151.726 Y95.94 E40.70667
G1 X152.443 Y96.059 E40.74293
G1 X153.142 Y96.257 E40.77918
G1 X153.815 Y96.53 E40.81541
G1 X154.454 Y96.875 E40.85164
G1 X155.051 Y97.289 E40.88789
G1 X155.599 Y97.765 E40.9241
G1 X156.092 Y98.299 E40.96036
G1 X156.522 Y98.884 E40.99658
G1 X156.886 Y99.513 E41.03284
G1 X157.179 Y100.178 E41.06909
G1 X157.397 Y100.871 E41.10534
G1 X157.537 Y101.583 E41.14154
G1 X157.601 Y102.5 E41.1874
G1 X157.601 Y117.501 E41.9358
G1 X157.561 Y118.226 E41.97203
G1 X157.442 Y118.943 E42.00829
G1 X157.244 Y119.642 E42.04453
G1 X156.971 Y120.315 E42.08077
G1 X156.626 Y120.954 E42.117
G1 X156.212 Y121.551 E42.15324
G1 X155.736 Y122.099 E42.18946
G1 X155.202 Y122.592 E42.22572
G1 X154.617 Y123.022 E42.26194
G1 X153.988 Y123.386 E42.29819
G1 X153.323 Y123.679 E42.33445
G1 X152.63 Y123.897 E42.37069
G1 X151.918 Y124.037 E42.4069
G1 X151.001 Y124.101 E42.45276
G1 X108.109 Y124.101 E44.59265
G1 X108.051 Y124.155 E44.5966
G1 X107.466 Y124.585 E44.63282
G1 X106.837 Y124.949 E44.66908
G1 X106.323 Y125.183 E44.69725
G1 X99.057 Y128.12 E45.08825
G1 X98.37 Y128.355 E45.12448
G1 X97.661 Y128.513 E45.16072
G1 X96.584 Y128.601 E45.21463
G1 X79.663 Y128.601 E46.05882
G1 X78.938 Y128.561 E46.09504
G1 X78.221 Y128.442 E46.1313
G1 X77.522 Y128.244 E46.16755
G1 X76.849 Y127.971 E46.20378
G1 X76.325 Y127.695 E46.23333
G1 X65.661 Y121.444 E46.85003
G1 X65.056 Y121.043 E46.88624
G1 X64.498 Y120.577 E46.92251
G1 X63.995 Y120.053 E46.95875
G1 X63.552 Y119.478 E46.99496
G1 X63.176 Y118.856 E47.03122
G1 X62.87 Y118.198 E47.06742
G1 X62.638 Y117.509 E47.10369
G1 X62.483 Y116.8 E47.1399
G1 X62.399 Y115.75 E47.19245
G1 X62.399 Y104.216 E47.76789
G1 X62.439 Y103.491 E47.80411
G1 X62.558 Y102.774 E47.84037
G1 X62.756 Y102.075 E47.87662
G1 X63.029 Y101.402 E47.91285
G1 X63.374 Y100.763 E47.94908
G1 X63.788 Y100.166 E47.98533
G1 X64.264 Y99.618 E48.02154
G1 X64.798 Y99.125 E48.0578
G1 X65.563 Y98.581 E48.10463
G0 F3600 X65.771 Y98.922
G1 F1800 X75.968 Y92.705 E48.70046
G1 X76.589 Y92.374 E48.73557
G1 X77.244 Y92.114 E48.77073
G1 X77.924 Y91.931 E48.80586
G1 X78.62 Y91.826 E48.84097
G1 X79.196 Y91.799 E48.86974
G1 X96.562 Y91.799 E49.73614
G1 X97.265 Y91.839 E49.77127
G1 X97.959 Y91.958 E49.80639
G1 X98.886 Y92.251 E49.8549
G1 X106.174 Y95.197 E50.24708
G1 X106.81 Y95.497 E50.28216
G1 X107.409 Y95.868 E50.31732
G1 X107.956 Y96.3 E50.35209
G1 X151.001 Y96.3 E52.49961
G1 X151.704 Y96.34 E52.53474
G1 X152.398 Y96.459 E52.56987
G1 X153.073 Y96.657 E52.60497
G1 X153.722 Y96.929 E52.64007
G1 X154.336 Y97.274 E52.67521
G1 X154.907 Y97.685 E52.71031
G1 X155.428 Y98.159 E52.74545
G1 X155.892 Y98.689 E52.78059
G1 X156.292 Y99.268 E52.8157
G1 X156.624 Y99.889 E52.85084
G1 X156.884 Y100.543 E52.88595
G1 X157.068 Y101.223 E52.92109
G1 X157.174 Y101.919 E52.95622
G1 X157.201 Y102.5 E52.98523
G1 X157.201 Y117.501 E53.73364
G1 X157.161 Y118.204 E53.76877
G1 X157.042 Y118.898 E53.8039
G1 X156.844 Y119.573 E53.83899
G1 X156.572 Y120.222 E53.8741
G1 X156.227 Y120.836 E53.90924
G1 X155.816 Y121.407 E53.94434
G1 X155.342 Y121.928 E53.97948
G1 X154.812 Y122.392 E54.01462
G1 X154.233 Y122.792 E54.04973
G1 X153.612 Y123.124 E54.08486
G1 X152.958 Y123.384 E54.11997
G1 X152.278 Y123.568 E54.15512
G1 X151.582 Y123.674 E54.19024
G1 X151.001 Y123.701 E54.21926
G1 X107.951 Y123.701 E56.36703
G1 X107.661 Y123.955 E56.38626
G1 X107.082 Y124.355 E56.42137
G1 X106.173 Y124.812 E56.47213
G1 X98.907 Y127.749 E56.86313
G1 X98.241 Y127.976 E56.89823
G1 X97.553 Y128.125 E56.93335
G1 X96.584 Y128.201 E56.98185
G1 X79.663 Y128.201 E57.82604
G1 X78.96 Y128.161 E57.86117
G1 X78.266 Y128.042 E57.8963
G1 X77.591 Y127.844 E57.93139
G1 X76.942 Y127.572 E57.9665
G1 X76.528 Y127.35 E57.98994
G1 X65.864 Y121.099 E58.60663
G1 X65.278 Y120.709 E58.64175
G1 X64.739 Y120.255 E58.67691
G1 X64.256 Y119.743 E58.71203
G1 X63.834 Y119.18 E58.74713
G1 X63.478 Y118.572 E58.78228
G1 X63.194 Y117.928 E58.81739
G1 X62.985 Y117.256 E58.8525
G1 X62.853 Y116.564 E58.88765
G1 X62.799 Y115.75 E58.92835
G1 X62.799 Y104.216 E59.50378
G1 X62.839 Y103.513 E59.53891
G1 X62.958 Y102.819 E59.57404
G1 X63.156 Y102.144 E59.60914
G1 X63.428 Y101.495 E59.64424
G1 X63.773 Y100.881 E59.67938
G1 X64.184 Y100.31 E59.71448
G1 X64.658 Y99.789 E59.74962
G1 X65.188 Y99.325 E59.78476
G1 X65.771 Y98.922 E59.82012
G0 F3600 X65.98 Y99.264
G1 F1800 X76.177 Y93.047 E60.41595
G1 X76.778 Y92.727 E60.44992
G1 X77.412 Y92.48 E60.48387
G1 X78.071 Y92.309 E60.51783
G1 X78.746 Y92.216 E60.55183
G1 X79.196 Y92.199 E60.57429
G1 X96.562 Y92.199 E61.44069
G1 X97.242 Y92.239 E61.47467
G1 X97.912 Y92.358 E61.50862
G1 X98.736 Y92.622 E61.55179
G1 X106.024 Y95.568 E61.94397
G1 X106.639 Y95.859 E61.97791
G1 X107.216 Y96.221 E62.0119
G1 X107.746 Y96.648 E62.04585
G1 X107.797 Y96.7 E62.04949
G1 X151.001 Y96.7 E64.20494
G1 X151.681 Y96.74 E64.23893
G1 X152.351 Y96.859 E64.27288
G1 X153.003 Y97.056 E64.30686
G1 X153.627 Y97.328 E64.34082
G1 X154.215 Y97.672 E64.3748
G1 X154.759 Y98.082 E64.40879
G1 X155.25 Y98.553 E64.44273
G1 X155.684 Y99.078 E64.47672
G1 X156.053 Y99.65 E64.51068
G1 X156.352 Y100.262 E64.54466
G1 X156.577 Y100.904 E64.5786
G1 X156.726 Y101.569 E64.6126
G1 X156.801 Y102.5 E64.6592
G1 X156.801 Y117.501 E65.4076
G1 X156.761 Y118.181 E65.44158
G1 X156.642 Y118.851 E65.47553
G1 X156.445 Y119.503 E65.50951
G1 X156.173 Y120.127 E65.54347
G1 X155.829 Y120.715 E65.57746
G1 X155.419 Y121.259 E65.61145
G1 X154.948 Y121.75 E65.64539
G1 X154.423 Y122.184 E65.67937
G1 X153.851 Y122.553 E65.71333
G1 X153.239 Y122.852 E65.74732
G1 X152.597 Y123.077 E65.78126
G1 X151.932 Y123.226 E65.81526
G1 X151.001 Y123.301 E65.86185
G1 X107.809 Y123.301 E68.01671
G1 X107.797 Y123.313 E68.01756
G1 X107.272 Y123.747 E68.05154
G1 X106.7 Y124.116 E68.0855
G1 X106.024 Y124.441 E68.12292
G1 X98.758 Y127.378 E68.51392
G1 X98.112 Y127.596 E68.54793
G1 X97.446 Y127.737 E68.5819
G1 X96.584 Y127.801 E68.62502
G1 X79.663 Y127.801 E69.46921
G1 X78.983 Y127.761 E69.5032
G1 X78.313 Y127.642 E69.53715
G1 X77.661 Y127.445 E69.57113
G1 X77.037 Y127.173 E69.60509
G1 X76.73 Y127.005 E69.62255
G1 X66.066 Y120.754 E70.23924
G1 X65.5 Y120.376 E70.2732
G1 X64.982 Y119.934 E70.30717
G1 X64.519 Y119.434 E70.34117
G1 X64.118 Y118.884 E70.37513
G1 X63.785 Y118.29 E70.4091
G1 X63.523 Y117.661 E70.4431
G1 X63.337 Y117.007 E70.47702
G1 X63.229 Y116.334 E70.51102
G1 X63.199 Y115.75 E70.5402
G1 X63.199 Y104.216 E71.11563
G1 X63.239 Y103.536 E71.14962
G1 X63.358 Y102.866 E71.18357
G1 X63.555 Y102.214 E71.21755
G1 X63.827 Y101.59 E71.25151
G1 X64.171 Y101.002 E71.28549
G1 X64.581 Y100.458 E71.31948
G1 X65.052 Y99.967 E71.35342
G1 X65.577 Y99.533 E71.38741
G1 X65.98 Y99.264 E71.41158
G0 F3600 X66.188 Y99.605
G1 F1800 X76.385 Y93.388 E72.00741
G1 X76.966 Y93.081 E72.04019
G1 X77.579 Y92.847 E72.07293
G1 X78.217 Y92.688 E72.10573
G1 X79.196 Y92.599 E72.15477
G1 X96.562 Y92.599 E73.02117
G1 X97.218 Y92.639 E73.05396
G1 X97.864 Y92.758 E73.08673
G1 X98.586 Y92.993 E73.12461
G1 X105.874 Y95.939 E73.51679
G1 X106.467 Y96.221 E73.54955
G1 X107.021 Y96.574 E73.58232
G1 X107.528 Y96.991 E73.61507
G1 X107.632 Y97.1 E73.62259
G1 X151.001 Y97.1 E75.78628
G1 X151.657 Y97.14 E75.81907
G1 X152.303 Y97.259 E75.85184
G1 X152.93 Y97.456 E75.88463
G1 X153.528 Y97.728 E75.9174
G1 X154.089 Y98.07 E75.95018
G1 X154.604 Y98.478 E75.98296
G1 X155.066 Y98.945 E76.01574
G1 X155.467 Y99.465 E76.0485
G1 X155.803 Y100.029 E76.08125
G1 X156.067 Y100.631 E76.11404
G1 X156.257 Y101.26 E76.14683
G1 X156.368 Y101.907 E76.17958
G1 X156.401 Y102.5 E76.20921
G1 X156.401 Y117.501 E76.95761
G1 X156.361 Y118.157 E76.9904
G1 X156.242 Y118.803 E77.02317
G1 X156.045 Y119.43 E77.05596
G1 X155.773 Y120.028 E77.08873
